%
(Header)
(Generated by gcodetools from Inkscape.)
(Using default header. To add your own header create file "header" in the output dir.)
M3
(Header end.)
G21 (All units in mm)

(Start cutting path id: path96-4-6-3)
(Change tool to Default tool)

G00 Z 7.0000
G00 X 68.3134 Y 28.1592

G01 Z 0.0000 F 100.0000(Penetrate)
G01 X 68.2685 Y 27.1164 Z 0.0000 F 400.0000
G01 X 68.2163 Y 26.0754 Z 0.0000
G01 X 68.1559 Y 25.0344 Z 0.0000
G01 X 68.0867 Y 23.9938 Z 0.0000
G01 X 68.0078 Y 22.9539 Z 0.0000
G01 X 67.9184 Y 21.9141 Z 0.0000
G01 X 67.8176 Y 20.8763 Z 0.0000
G01 X 67.7048 Y 19.8398 Z 0.0000
G01 X 67.5791 Y 18.8052 Z 0.0000
G01 X 67.4399 Y 17.7717 Z 0.0000
G01 X 67.2866 Y 16.7404 Z 0.0000
G01 X 67.1190 Y 15.7120 Z 0.0000
G01 X 66.9367 Y 14.6852 Z 0.0000
G01 X 66.7398 Y 13.6610 Z 0.0000
G01 X 66.5423 Y 12.7004 Z 0.0000
G01 X 66.3298 Y 11.7427 Z 0.0000
G01 X 66.0963 Y 10.7895 Z 0.0000
G01 X 65.8389 Y 9.8440 Z 0.0000
G01 X 65.5582 Y 8.9047 Z 0.0000
G01 X 65.2595 Y 7.9706 Z 0.0000
G01 X 64.9537 Y 7.0686 Z 0.0000
G01 X 64.6223 Y 6.1765 Z 0.0000
G01 X 64.2544 Y 5.2981 Z 0.0000
G01 X 63.8493 Y 4.4362 Z 0.0000
G01 X 63.4156 Y 3.6109 Z 0.0000
G01 X 62.9315 Y 2.8151 Z 0.0000
G01 X 62.3826 Y 2.0625 Z 0.0000
G01 X 61.7513 Y 1.3789 Z 0.0000
G01 X 61.0168 Y 0.8076 Z 0.0000
G01 X 60.1735 Y 0.4192 Z 0.0000
G01 X 59.4562 Y 0.3435 Z 0.0000
G01 X 58.7369 Y 0.4135 Z 0.0000
G01 X 57.7640 Y 0.8693 Z 0.0000
G01 X 56.9410 Y 1.5681 Z 0.0000
G01 X 56.3171 Y 2.2804 Z 0.0000
G01 X 55.7741 Y 3.0565 Z 0.0000
G01 X 55.2971 Y 3.8741 Z 0.0000
G01 X 54.8720 Y 4.7196 Z 0.0000
G01 X 54.4876 Y 5.5851 Z 0.0000
G01 X 54.1355 Y 6.4649 Z 0.0000
G01 X 53.8095 Y 7.3547 Z 0.0000
G01 X 53.4655 Y 8.3819 Z 0.0000
G01 X 53.1499 Y 9.4199 Z 0.0000
G01 X 52.8608 Y 10.4641 Z 0.0000
G01 X 52.5953 Y 11.5153 Z 0.0000
G01 X 52.3516 Y 12.5716 Z 0.0000
G01 X 52.1281 Y 13.6317 Z 0.0000
G01 X 51.9231 Y 14.6960 Z 0.0000
G01 X 51.7352 Y 15.7642 Z 0.0000
G01 X 51.5636 Y 16.8346 Z 0.0000
G01 X 51.4072 Y 17.9074 Z 0.0000
G01 X 51.2653 Y 18.9815 Z 0.0000
G01 X 51.1370 Y 20.0570 Z 0.0000
G01 X 51.0215 Y 21.1352 Z 0.0000
G01 X 50.9184 Y 22.2150 Z 0.0000
G01 X 50.8271 Y 23.2948 Z 0.0000
G01 X 50.7473 Y 24.3751 Z 0.0000
G01 X 50.6782 Y 25.4580 Z 0.0000
G01 X 50.6198 Y 26.5401 Z 0.0000
G01 X 50.5715 Y 27.6237 Z 0.0000
G01 X 50.5435 Y 28.7014 Z 0.0000
G01 X 50.5293 Y 29.7799 Z 0.0000
G01 X 50.5219 Y 30.8572 Z 0.0000
G01 X 50.5194 Y 31.9345 Z 0.0000
G01 X 50.5214 Y 33.0113 Z 0.0000
G01 X 50.5283 Y 34.0904 Z 0.0000
G01 X 50.5420 Y 35.1688 Z 0.0000
G01 X 50.5700 Y 36.2454 Z 0.0000
G01 X 50.6196 Y 37.3369 Z 0.0000
G01 X 50.6792 Y 38.4287 Z 0.0000
G01 X 50.7491 Y 39.5191 Z 0.0000
G01 X 50.8298 Y 40.6089 Z 0.0000
G01 X 50.9217 Y 41.6972 Z 0.0000
G01 X 51.0255 Y 42.7862 Z 0.0000
G01 X 51.1415 Y 43.8730 Z 0.0000
G01 X 51.2706 Y 44.9584 Z 0.0000
G01 X 51.4135 Y 46.0423 Z 0.0000
G01 X 51.5708 Y 47.1236 Z 0.0000
G01 X 51.7436 Y 48.2032 Z 0.0000
G01 X 51.9330 Y 49.2799 Z 0.0000
G01 X 52.1399 Y 50.3526 Z 0.0000
G01 X 52.3658 Y 51.4211 Z 0.0000
G01 X 52.6125 Y 52.4863 Z 0.0000
G01 X 52.8815 Y 53.5455 Z 0.0000
G01 X 53.1747 Y 54.5970 Z 0.0000
G01 X 53.4952 Y 55.6418 Z 0.0000
G01 X 53.8454 Y 56.6764 Z 0.0000
G01 X 54.2296 Y 57.7004 Z 0.0000
G01 X 54.6512 Y 58.7084 Z 0.0000
G01 X 55.0962 Y 59.6480 Z 0.0000
G01 X 55.5976 Y 60.5606 Z 0.0000
G01 X 56.1678 Y 61.4310 Z 0.0000
G01 X 56.8268 Y 62.2367 Z 0.0000
G01 X 57.5992 Y 62.9304 Z 0.0000
G01 X 58.5113 Y 63.4230 Z 0.0000
G01 X 59.4007 Y 63.5327 Z 0.0000
G01 X 60.2933 Y 63.4505 Z 0.0000
G01 X 61.2090 Y 62.9745 Z 0.0000
G01 X 61.9850 Y 62.2898 Z 0.0000
G01 X 62.6523 Y 61.4981 Z 0.0000
G01 X 63.2299 Y 60.6365 Z 0.0000
G01 X 63.7232 Y 59.7423 Z 0.0000
G01 X 64.1616 Y 58.8197 Z 0.0000
G01 X 64.5581 Y 57.8790 Z 0.0000
G01 X 64.9211 Y 56.9248 Z 0.0000
G01 X 65.2555 Y 55.9599 Z 0.0000
G01 X 65.5646 Y 54.9869 Z 0.0000
G01 X 65.8506 Y 54.0072 Z 0.0000
G01 X 66.1153 Y 53.0218 Z 0.0000
G01 X 66.3596 Y 52.0309 Z 0.0000
G01 X 66.5843 Y 51.0346 Z 0.0000
G01 X 66.7895 Y 50.0347 Z 0.0000
G01 X 66.9867 Y 48.9797 Z 0.0000
G01 X 67.1680 Y 47.9212 Z 0.0000
G01 X 67.3342 Y 46.8589 Z 0.0000
G01 X 67.4856 Y 45.7962 Z 0.0000
G01 X 67.6232 Y 44.7311 Z 0.0000
G01 X 67.7475 Y 43.6647 Z 0.0000
G01 X 67.8593 Y 42.5954 Z 0.0000
G01 X 67.9590 Y 41.5257 Z 0.0000
G01 X 68.0472 Y 40.4553 Z 0.0000
G01 X 68.1245 Y 39.3838 Z 0.0000
G01 X 68.1913 Y 38.3118 Z 0.0000
G01 X 68.2483 Y 37.2385 Z 0.0000
G01 X 68.2957 Y 36.1650 Z 0.0000
G01 X 68.3168 Y 35.1649 Z 0.0000
G01 X 68.3270 Y 34.1641 Z 0.0000
G01 X 68.3333 Y 33.1628 Z 0.0000
G01 X 68.3368 Y 32.1624 Z 0.0000
G01 X 68.3379 Y 31.1613 Z 0.0000
G01 X 68.3362 Y 30.1608 Z 0.0000
G01 X 68.3305 Y 29.1602 Z 0.0000
G01 X 68.3132 Y 28.1592 Z 0.0000
G01 X 68.3134 Y 28.1592 Z 0.0000
G00 Z 7.0000

(End cutting path id: path96-4-6-3)


(Start cutting path id: path96-4-6-3)
(Change tool to Default tool)

G00 Z 7.0000
G00 X 60.6683 Y 10.9626

G01 Z 0.0000 F 100.0000(Penetrate)
G01 X 59.9655 Y 11.2897 Z 0.0000 F 400.0000
G01 X 59.2655 Y 11.6233 Z 0.0000
G01 X 58.6224 Y 12.0404 Z 0.0000
G01 X 58.5575 Y 13.0950 Z 0.0000
G01 X 58.5504 Y 14.1557 Z 0.0000
G01 X 58.5485 Y 15.1330 Z 0.0000
G01 X 58.5466 Y 16.1103 Z 0.0000
G01 X 57.9189 Y 16.3901 Z 0.0000
G01 X 57.1956 Y 16.7045 Z 0.0000
G01 X 57.1092 Y 15.8538 Z 0.0000
G01 X 57.1106 Y 14.9619 Z 0.0000
G01 X 57.1153 Y 14.0684 Z 0.0000
G01 X 57.1214 Y 13.0917 Z 0.0000
G01 X 57.1326 Y 12.1137 Z 0.0000
G01 X 57.2451 Y 11.1503 Z 0.0000
G01 X 57.5513 Y 10.6954 Z 0.0000
G01 X 57.9604 Y 10.3292 Z 0.0000
G01 X 58.8070 Y 9.9191 Z 0.0000
G01 X 59.6609 Y 9.5268 Z 0.0000
G01 X 60.4173 Y 9.1838 Z 0.0000
G01 X 61.1737 Y 8.8408 Z 0.0000
G01 X 61.1737 Y 8.5529 Z 0.0000
G01 X 61.1420 Y 8.2651 Z 0.0000
G01 X 60.1682 Y 8.6954 Z 0.0000
G01 X 59.1973 Y 9.1338 Z 0.0000
G01 X 58.2279 Y 9.5741 Z 0.0000
G01 X 57.2600 Y 10.0161 Z 0.0000
G01 X 56.2948 Y 10.4648 Z 0.0000
G01 X 55.9808 Y 10.6668 Z 0.0000
G01 X 55.8479 Y 11.2431 Z 0.0000
G01 X 55.8209 Y 12.2173 Z 0.0000
G01 X 55.8184 Y 13.1913 Z 0.0000
G01 X 55.8187 Y 14.1660 Z 0.0000
G01 X 55.8187 Y 15.2261 Z 0.0000
G01 X 55.8187 Y 16.2859 Z 0.0000
G01 X 55.8187 Y 17.3464 Z 0.0000
G01 X 55.1166 Y 17.6655 Z 0.0000
G01 X 54.3669 Y 18.0024 Z 0.0000
G01 X 54.3344 Y 17.0401 Z 0.0000
G01 X 54.3251 Y 16.0740 Z 0.0000
G01 X 54.3207 Y 15.1093 Z 0.0000
G01 X 54.3194 Y 14.1429 Z 0.0000
G01 X 54.3193 Y 13.2070 Z 0.0000
G01 X 54.3202 Y 12.2723 Z 0.0000
G01 X 54.3264 Y 11.3382 Z 0.0000
G01 X 54.3590 Y 10.4042 Z 0.0000
G01 X 54.6665 Y 9.5414 Z 0.0000
G01 X 55.0798 Y 9.1354 Z 0.0000
G01 X 56.0119 Y 8.6836 Z 0.0000
G01 X 56.9495 Y 8.2473 Z 0.0000
G01 X 57.8891 Y 7.8141 Z 0.0000
G01 X 58.8298 Y 7.3830 Z 0.0000
G01 X 59.7718 Y 6.9536 Z 0.0000
G01 X 60.7155 Y 6.5261 Z 0.0000
G01 X 61.6600 Y 6.1023 Z 0.0000
G01 X 62.6110 Y 5.6947 Z 0.0000
G01 X 62.6640 Y 6.7784 Z 0.0000
G01 X 62.6606 Y 7.8701 Z 0.0000
G01 X 62.6536 Y 8.9578 Z 0.0000
G01 X 62.6466 Y 10.0455 Z 0.0000
G01 X 61.6575 Y 10.5040 Z 0.0000
G01 X 60.6685 Y 10.9626 Z 0.0000
G00 Z 7.0000

(End cutting path id: path96-4-6-3)


(Start cutting path id: path96-4-6-3)
(Change tool to Default tool)

G00 Z 7.0000
G00 X 60.7385 Y 17.3689

G01 Z 0.0000 F 100.0000(Penetrate)
G01 X 60.0512 Y 17.6832 Z 0.0000 F 400.0000
G01 X 59.3671 Y 18.0021 Z 0.0000
G01 X 58.6902 Y 18.3382 Z 0.0000
G01 X 58.5708 Y 19.3536 Z 0.0000
G01 X 58.5611 Y 20.3935 Z 0.0000
G01 X 58.5534 Y 21.3752 Z 0.0000
G01 X 58.5457 Y 22.3568 Z 0.0000
G01 X 58.1594 Y 22.5335 Z 0.0000
G01 X 57.4384 Y 22.8731 Z 0.0000
G01 X 57.1037 Y 23.0359 Z 0.0000
G01 X 57.1037 Y 22.1911 Z 0.0000
G01 X 57.1037 Y 21.3443 Z 0.0000
G01 X 57.1037 Y 20.4989 Z 0.0000
G01 X 57.1044 Y 19.5549 Z 0.0000
G01 X 57.1109 Y 18.6087 Z 0.0000
G01 X 57.2112 Y 17.6744 Z 0.0000
G01 X 57.5241 Y 17.1540 Z 0.0000
G01 X 57.9843 Y 16.7542 Z 0.0000
G01 X 58.9049 Y 16.3057 Z 0.0000
G01 X 59.8321 Y 15.8700 Z 0.0000
G01 X 60.7613 Y 15.4380 Z 0.0000
G01 X 61.6911 Y 15.0102 Z 0.0000
G01 X 62.6278 Y 14.5930 Z 0.0000
G01 X 62.6729 Y 15.5334 Z 0.0000
G01 X 62.6729 Y 16.4916 Z 0.0000
G01 X 61.7056 Y 16.9302 Z 0.0000
G01 X 60.7383 Y 17.3689 Z 0.0000
G00 Z 7.0000

(End cutting path id: path96-4-6-3)


(Start cutting path id: path96-4-6-3)
(Change tool to Default tool)

G00 Z 7.0000
G00 X 62.5921 Y 27.5284

G01 Z 0.0000 F 100.0000(Penetrate)
G01 X 62.3292 Y 28.0650 Z 0.0000 F 400.0000
G01 X 61.9201 Y 28.4990 Z 0.0000
G01 X 60.9988 Y 28.9755 Z 0.0000
G01 X 60.0570 Y 29.4124 Z 0.0000
G01 X 59.1069 Y 29.8328 Z 0.0000
G01 X 58.1409 Y 30.2080 Z 0.0000
G01 X 57.7294 Y 30.1707 Z 0.0000
G01 X 57.1305 Y 29.5146 Z 0.0000
G01 X 57.1120 Y 28.5714 Z 0.0000
G01 X 57.1105 Y 27.6297 Z 0.0000
G01 X 57.1141 Y 26.6866 Z 0.0000
G01 X 57.1195 Y 25.8039 Z 0.0000
G01 X 57.1249 Y 24.9192 Z 0.0000
G01 X 57.1303 Y 24.0358 Z 0.0000
G01 X 57.2581 Y 23.7531 Z 0.0000
G01 X 57.9228 Y 23.0572 Z 0.0000
G01 X 58.7965 Y 22.6121 Z 0.0000
G01 X 59.6880 Y 22.2017 Z 0.0000
G01 X 60.4648 Y 21.8512 Z 0.0000
G01 X 61.2478 Y 21.5209 Z 0.0000
G01 X 62.0701 Y 21.4674 Z 0.0000
G01 X 62.5721 Y 21.9473 Z 0.0000
G01 X 62.6638 Y 22.8608 Z 0.0000
G01 X 62.6704 Y 23.7839 Z 0.0000
G01 X 62.6716 Y 24.7089 Z 0.0000
G01 X 62.6706 Y 25.6507 Z 0.0000
G01 X 62.6626 Y 26.5923 Z 0.0000
G01 X 62.5920 Y 27.5284 Z 0.0000
G01 X 62.5921 Y 27.5284 Z 0.0000
G00 Z 7.0000

(End cutting path id: path96-4-6-3)


(Start cutting path id: path96-4-6-3)
(Change tool to Default tool)

G00 Z 7.0000
G00 X 61.1378 Y 23.5628

G01 Z 0.0000 F 100.0000(Penetrate)
G01 X 60.4618 Y 23.7326 Z 0.0000 F 400.0000
G01 X 59.8035 Y 24.0224 Z 0.0000
G01 X 59.1899 Y 24.3042 Z 0.0000
G01 X 58.6244 Y 24.6624 Z 0.0000
G01 X 58.5540 Y 25.4976 Z 0.0000
G01 X 58.5495 Y 26.3394 Z 0.0000
G01 X 58.5550 Y 27.2771 Z 0.0000
G01 X 58.6178 Y 27.9717 Z 0.0000
G01 X 58.8088 Y 28.0618 Z 0.0000
G01 X 59.5913 Y 27.7329 Z 0.0000
G01 X 60.3595 Y 27.3683 Z 0.0000
G01 X 61.1066 Y 26.9684 Z 0.0000
G01 X 61.1690 Y 26.1072 Z 0.0000
G01 X 61.1735 Y 25.2394 Z 0.0000
G01 X 61.1685 Y 24.4001 Z 0.0000
G01 X 61.1378 Y 23.5628 Z 0.0000
G01 X 61.1378 Y 23.5628 Z 0.0000
G00 Z 7.0000

(End cutting path id: path96-4-6-3)


(Start cutting path id: path96-4-6-3)
(Change tool to Default tool)

G00 Z 7.0000
G00 X 60.6514 Y 32.0265

G01 Z 0.0000 F 100.0000(Penetrate)
G01 X 59.9783 Y 32.3329 Z 0.0000 F 400.0000
G01 X 59.3035 Y 32.6401 Z 0.0000
G01 X 58.6299 Y 32.9468 Z 0.0000
G01 X 58.6228 Y 33.7880 Z 0.0000
G01 X 58.6157 Y 34.6291 Z 0.0000
G01 X 58.6109 Y 35.6617 Z 0.0000
G01 X 58.6834 Y 36.3767 Z 0.0000
G01 X 58.9639 Y 36.3637 Z 0.0000
G01 X 59.9146 Y 35.9352 Z 0.0000
G01 X 60.8610 Y 35.5008 Z 0.0000
G01 X 61.7347 Y 35.1019 Z 0.0000
G01 X 62.6148 Y 34.7192 Z 0.0000
G01 X 62.6766 Y 35.6467 Z 0.0000
G01 X 62.6059 Y 36.5760 Z 0.0000
G01 X 61.7302 Y 37.0018 Z 0.0000
G01 X 60.8447 Y 37.4060 Z 0.0000
G01 X 59.9559 Y 37.8035 Z 0.0000
G01 X 59.0631 Y 38.1946 Z 0.0000
G01 X 58.1608 Y 38.5615 Z 0.0000
G01 X 57.5409 Y 38.4047 Z 0.0000
G01 X 57.1595 Y 37.8904 Z 0.0000
G01 X 57.1165 Y 36.8333 Z 0.0000
G01 X 57.1065 Y 35.7742 Z 0.0000
G01 X 57.1039 Y 34.7147 Z 0.0000
G01 X 57.1038 Y 33.7226 Z 0.0000
G01 X 57.1037 Y 32.7294 Z 0.0000
G01 X 57.1036 Y 31.7382 Z 0.0000
G01 X 57.8332 Y 31.4081 Z 0.0000
G01 X 58.5628 Y 31.0779 Z 0.0000
G01 X 59.4720 Y 30.6656 Z 0.0000
G01 X 60.3809 Y 30.2521 Z 0.0000
G01 X 61.2895 Y 29.8373 Z 0.0000
G01 X 61.9488 Y 29.5393 Z 0.0000
G01 X 62.6149 Y 29.2570 Z 0.0000
G01 X 62.6728 Y 30.1816 Z 0.0000
G01 X 62.6728 Y 31.1061 Z 0.0000
G01 X 61.9997 Y 31.4126 Z 0.0000
G01 X 61.3250 Y 31.7198 Z 0.0000
G01 X 60.6513 Y 32.0265 Z 0.0000
G00 Z 7.0000

(End cutting path id: path96-4-6-3)


(Start cutting path id: path96-4-6-3)
(Change tool to Default tool)

G00 Z 7.0000
G00 X 62.6059 Y 39.4699

G01 Z 0.0000 F 100.0000(Penetrate)
G01 X 61.8380 Y 39.8342 Z 0.0000 F 400.0000
G01 X 61.0652 Y 40.1898 Z 0.0000
G01 X 60.2899 Y 40.5435 Z 0.0000
G01 X 59.3830 Y 40.9559 Z 0.0000
G01 X 58.4767 Y 41.3685 Z 0.0000
G01 X 57.5722 Y 41.7815 Z 0.0000
G01 X 57.1036 Y 41.9972 Z 0.0000
G01 X 57.1036 Y 41.0439 Z 0.0000
G01 X 57.1036 Y 40.0907 Z 0.0000
G01 X 57.7127 Y 39.8145 Z 0.0000
G01 X 58.3219 Y 39.5383 Z 0.0000
G01 X 59.2276 Y 39.1261 Z 0.0000
G01 X 60.1319 Y 38.7129 Z 0.0000
G01 X 61.0360 Y 38.2984 Z 0.0000
G01 X 61.8145 Y 37.9453 Z 0.0000
G01 X 62.6024 Y 37.6109 Z 0.0000
G01 X 62.6787 Y 38.5386 Z 0.0000
G01 X 62.6062 Y 39.4699 Z 0.0000
G01 X 62.6059 Y 39.4699 Z 0.0000
G00 Z 7.0000

(End cutting path id: path96-4-6-3)


(Start cutting path id: path96-4-6-3)
(Change tool to Default tool)

G00 Z 7.0000
G00 X 62.4894 Y 47.4888

G01 Z 0.0000 F 100.0000(Penetrate)
G01 X 62.1380 Y 47.9891 Z 0.0000 F 400.0000
G01 X 61.6506 Y 48.3574 Z 0.0000
G01 X 60.9991 Y 48.6666 Z 0.0000
G01 X 60.3434 Y 48.9634 Z 0.0000
G01 X 59.5070 Y 49.3333 Z 0.0000
G01 X 58.6708 Y 49.7075 Z 0.0000
G01 X 57.8751 Y 50.0626 Z 0.0000
G01 X 57.0777 Y 50.4096 Z 0.0000
G01 X 57.0507 Y 49.4591 Z 0.0000
G01 X 57.0513 Y 48.5085 Z 0.0000
G01 X 57.3854 Y 48.3640 Z 0.0000
G01 X 58.2921 Y 47.9605 Z 0.0000
G01 X 59.1964 Y 47.5524 Z 0.0000
G01 X 60.1001 Y 47.1417 Z 0.0000
G01 X 60.9994 Y 46.7250 Z 0.0000
G01 X 61.1199 Y 46.6573 Z 0.0000
G01 X 61.1199 Y 45.7880 Z 0.0000
G01 X 61.1199 Y 44.9187 Z 0.0000
G01 X 61.1180 Y 44.0328 Z 0.0000
G01 X 61.0262 Y 43.1803 Z 0.0000
G01 X 60.0124 Y 43.5959 Z 0.0000
G01 X 59.0079 Y 44.0371 Z 0.0000
G01 X 58.0369 Y 44.4683 Z 0.0000
G01 X 57.0654 Y 44.8939 Z 0.0000
G01 X 57.0624 Y 43.9536 Z 0.0000
G01 X 57.0771 Y 43.0134 Z 0.0000
G01 X 57.7993 Y 42.6819 Z 0.0000
G01 X 58.5232 Y 42.3496 Z 0.0000
G01 X 59.2459 Y 42.0179 Z 0.0000
G01 X 60.0466 Y 41.6520 Z 0.0000
G01 X 60.8497 Y 41.2942 Z 0.0000
G01 X 61.6824 Y 41.0202 Z 0.0000
G01 X 62.4100 Y 41.3199 Z 0.0000
G01 X 62.6567 Y 42.3274 Z 0.0000
G01 X 62.6631 Y 43.3964 Z 0.0000
G01 X 62.6589 Y 44.4654 Z 0.0000
G01 X 62.6547 Y 45.3659 Z 0.0000
G01 X 62.6505 Y 46.2686 Z 0.0000
G01 X 62.6463 Y 47.1698 Z 0.0000
G01 X 62.4894 Y 47.4888 Z 0.0000
G00 Z 7.0000

(End cutting path id: path96-4-6-3)


(Start cutting path id: path96-4-6-3)
(Change tool to Default tool)

G00 Z 7.0000
G00 X 62.5245 Y 55.6265

G01 Z 0.0000 F 100.0000(Penetrate)
G01 X 61.9889 Y 56.3208 Z 0.0000 F 400.0000
G01 X 61.2152 Y 56.7560 Z 0.0000
G01 X 60.2381 Y 57.1870 Z 0.0000
G01 X 59.4603 Y 56.9618 Z 0.0000
G01 X 59.1548 Y 56.1637 Z 0.0000
G01 X 59.1393 Y 55.2695 Z 0.0000
G01 X 59.1385 Y 54.3750 Z 0.0000
G01 X 59.1339 Y 53.3000 Z 0.0000
G01 X 59.0828 Y 52.2303 Z 0.0000
G01 X 58.5828 Y 52.5269 Z 0.0000
G01 X 58.5578 Y 53.4509 Z 0.0000
G01 X 58.5502 Y 54.3749 Z 0.0000
G01 X 58.5475 Y 55.3005 Z 0.0000
G01 X 58.5470 Y 56.1951 Z 0.0000
G01 X 58.5465 Y 57.0918 Z 0.0000
G01 X 58.5460 Y 57.9870 Z 0.0000
G01 X 57.8426 Y 58.3083 Z 0.0000
G01 X 57.0924 Y 58.6482 Z 0.0000
G01 X 57.0649 Y 57.8130 Z 0.0000
G01 X 57.0595 Y 56.9754 Z 0.0000
G01 X 57.0589 Y 56.1387 Z 0.0000
G01 X 57.0614 Y 55.3013 Z 0.0000
G01 X 57.0653 Y 54.4607 Z 0.0000
G01 X 57.0692 Y 53.6191 Z 0.0000
G01 X 57.0731 Y 52.7767 Z 0.0000
G01 X 57.0770 Y 51.9358 Z 0.0000
G01 X 57.2005 Y 51.6301 Z 0.0000
G01 X 57.7802 Y 50.9488 Z 0.0000
G01 X 58.5827 Y 50.5234 Z 0.0000
G01 X 59.5457 Y 50.1559 Z 0.0000
G01 X 60.4029 Y 50.5463 Z 0.0000
G01 X 60.5578 Y 50.7492 Z 0.0000
G01 X 60.5653 Y 51.8424 Z 0.0000
G01 X 60.5728 Y 52.9356 Z 0.0000
G01 X 60.5849 Y 54.0303 Z 0.0000
G01 X 60.6216 Y 55.1221 Z 0.0000
G01 X 60.8877 Y 54.9859 Z 0.0000
G01 X 61.1200 Y 54.8498 Z 0.0000
G01 X 61.1200 Y 53.9422 Z 0.0000
G01 X 61.1200 Y 53.0324 Z 0.0000
G01 X 61.1200 Y 52.1241 Z 0.0000
G01 X 61.1213 Y 51.1997 Z 0.0000
G01 X 61.1281 Y 50.2752 Z 0.0000
G01 X 61.1869 Y 49.3564 Z 0.0000
G01 X 61.9029 Y 49.0131 Z 0.0000
G01 X 62.6306 Y 48.6960 Z 0.0000
G01 X 62.6568 Y 49.5279 Z 0.0000
G01 X 62.6624 Y 50.3616 Z 0.0000
G01 X 62.6634 Y 51.1951 Z 0.0000
G01 X 62.6611 Y 52.0295 Z 0.0000
G01 X 62.6574 Y 52.8621 Z 0.0000
G01 X 62.6537 Y 53.6957 Z 0.0000
G01 X 62.6500 Y 54.5301 Z 0.0000
G01 X 62.6463 Y 55.3630 Z 0.0000
G01 X 62.5245 Y 55.6265 Z 0.0000
G00 Z 7.0000

(End cutting path id: path96-4-6-3)


(Start cutting path id: path96-4-6-3)
(Change tool to Default tool)

G00 Z 7.0000
G00 X 55.7952 Y 42.5957

G01 Z 0.0000 F 100.0000(Penetrate)
G01 X 55.0576 Y 42.9125 Z 0.0000 F 400.0000
G01 X 55.0271 Y 41.9742 Z 0.0000
G01 X 55.0418 Y 41.0359 Z 0.0000
G01 X 55.7314 Y 40.7158 Z 0.0000
G01 X 56.4690 Y 40.3956 Z 0.0000
G01 X 56.5023 Y 41.3373 Z 0.0000
G01 X 56.4876 Y 42.2789 Z 0.0000
G01 X 55.7952 Y 42.5957 Z 0.0000
G00 Z 7.0000

(End cutting path id: path96-4-6-3)


(Start cutting path id: path96-4-6-3)
(Change tool to Default tool)

G00 Z 7.0000
G00 X 32.5832 Y 8.7852

G01 Z 0.0000 F 100.0000(Penetrate)
G01 X 32.4586 Y 8.1081 Z 0.0000 F 400.0000
G01 X 32.2719 Y 7.4467 Z 0.0000
G01 X 31.5099 Y 8.1587 Z 0.0000
G01 X 30.7660 Y 8.9029 Z 0.0000
G01 X 30.7914 Y 9.1111 Z 0.0000
G01 X 30.7899 Y 10.0364 Z 0.0000
G01 X 30.5963 Y 10.9420 Z 0.0000
G01 X 30.2279 Y 11.7916 Z 0.0000
G01 X 29.6170 Y 12.6303 Z 0.0000
G01 X 28.8333 Y 13.3112 Z 0.0000
G01 X 27.9161 Y 13.7975 Z 0.0000
G01 X 26.9121 Y 14.0686 Z 0.0000
G01 X 26.2574 Y 14.1071 Z 0.0000
G01 X 25.6026 Y 14.0686 Z 0.0000
G01 X 24.7469 Y 13.8525 Z 0.0000
G01 X 23.9482 Y 13.4809 Z 0.0000
G01 X 23.2343 Y 12.9632 Z 0.0000
G01 X 22.6345 Y 12.3164 Z 0.0000
G01 X 22.4606 Y 12.0874 Z 0.0000
G01 X 21.8112 Y 12.7364 Z 0.0000
G01 X 21.1893 Y 13.4217 Z 0.0000
G01 X 21.8131 Y 14.1234 Z 0.0000
G01 X 22.5353 Y 14.7234 Z 0.0000
G01 X 23.3362 Y 15.2125 Z 0.0000
G01 X 24.1992 Y 15.5818 Z 0.0000
G01 X 25.1057 Y 15.8200 Z 0.0000
G01 X 25.3220 Y 15.8596 Z 0.0000
G01 X 25.3220 Y 16.5715 Z 0.0000
G01 X 25.3220 Y 17.2835 Z 0.0000
G01 X 25.3235 Y 17.9964 Z 0.0000
G01 X 25.3329 Y 18.7075 Z 0.0000
G01 X 25.7812 Y 18.3875 Z 0.0000
G01 X 26.2273 Y 18.0633 Z 0.0000
G01 X 27.1108 Y 17.4192 Z 0.0000
G01 X 27.1225 Y 16.6448 Z 0.0000
G01 X 27.1342 Y 15.8703 Z 0.0000
G01 X 27.4148 Y 15.8188 Z 0.0000
G01 X 28.2702 Y 15.5993 Z 0.0000
G01 X 29.0856 Y 15.2566 Z 0.0000
G01 X 30.0213 Y 14.6920 Z 0.0000
G01 X 30.8408 Y 13.9695 Z 0.0000
G01 X 31.4694 Y 13.2149 Z 0.0000
G01 X 31.9726 Y 12.3708 Z 0.0000
G01 X 32.3374 Y 11.4585 Z 0.0000
G01 X 32.5605 Y 10.5000 Z 0.0000
G01 X 32.6083 Y 9.6428 Z 0.0000
G01 X 32.5832 Y 8.7852 Z 0.0000
G01 X 32.5831 Y 8.7852 Z 0.0000
G00 Z 7.0000

(End cutting path id: path96-4-6-3)


(Start cutting path id: path96-4-6-3)
(Change tool to Default tool)

G00 Z 7.0000
G00 X 31.1593 Y 5.4843

G01 Z 0.0000 F 100.0000(Penetrate)
G01 X 30.7083 Y 5.0035 Z 0.0000 F 400.0000
G01 X 30.2208 Y 4.5610 Z 0.0000
G01 X 29.7045 Y 4.1984 Z 0.0000
G01 X 29.1566 Y 3.8834 Z 0.0000
G01 X 28.3542 Y 3.5353 Z 0.0000
G01 X 27.5083 Y 3.3097 Z 0.0000
G01 X 27.1342 Y 3.2356 Z 0.0000
G01 X 27.1284 Y 2.5269 Z 0.0000
G01 X 27.1225 Y 1.8183 Z 0.0000
G01 X 27.1166 Y 1.1096 Z 0.0000
G01 X 27.1107 Y 0.4009 Z 0.0000
G01 X 26.6664 Y 0.7259 Z 0.0000
G01 X 26.2221 Y 1.0508 Z 0.0000
G01 X 25.7779 Y 1.3757 Z 0.0000
G01 X 25.3336 Y 1.7007 Z 0.0000
G01 X 25.3277 Y 2.4733 Z 0.0000
G01 X 25.3218 Y 3.2459 Z 0.0000
G01 X 25.0941 Y 3.2866 Z 0.0000
G01 X 24.2261 Y 3.5114 Z 0.0000
G01 X 23.3980 Y 3.8601 Z 0.0000
G01 X 22.6263 Y 4.3194 Z 0.0000
G01 X 21.9250 Y 4.8798 Z 0.0000
G01 X 21.2647 Y 5.5939 Z 0.0000
G01 X 20.7214 Y 6.4006 Z 0.0000
G01 X 20.3043 Y 7.2781 Z 0.0000
G01 X 20.0268 Y 8.2099 Z 0.0000
G01 X 19.9064 Y 9.1016 Z 0.0000
G01 X 19.9061 Y 10.0022 Z 0.0000
G01 X 20.0262 Y 10.8927 Z 0.0000
G01 X 20.2699 Y 11.7159 Z 0.0000
G01 X 21.0172 Y 10.9821 Z 0.0000
G01 X 21.7507 Y 10.2484 Z 0.0000
G01 X 21.7244 Y 10.0253 Z 0.0000
G01 X 21.7278 Y 9.0003 Z 0.0000
G01 X 21.9706 Y 8.0046 Z 0.0000
G01 X 22.4302 Y 7.0887 Z 0.0000
G01 X 23.0792 Y 6.2951 Z 0.0000
G01 X 23.8866 Y 5.6633 Z 0.0000
G01 X 24.8138 Y 5.2296 Z 0.0000
G01 X 25.6799 Y 5.0337 Z 0.0000
G01 X 26.5676 Y 5.0052 Z 0.0000
G01 X 27.3952 Y 5.1411 Z 0.0000
G01 X 28.1834 Y 5.4244 Z 0.0000
G01 X 28.9063 Y 5.8462 Z 0.0000
G01 X 29.4398 Y 6.3159 Z 0.0000
G01 X 29.9172 Y 6.8406 Z 0.0000
G01 X 30.0625 Y 7.0383 Z 0.0000
G01 X 30.7192 Y 6.4006 Z 0.0000
G01 X 31.3551 Y 5.7417 Z 0.0000
G01 X 31.1598 Y 5.4843 Z 0.0000
G01 X 31.1592 Y 5.4843 Z 0.0000
G00 Z 7.0000

(End cutting path id: path96-4-6-3)


(Start cutting path id: path96-4-6-3)
(Change tool to Default tool)

G00 Z 7.0000
G00 X 30.6615 Y 49.0703

G01 Z 0.0000 F 100.0000(Penetrate)
G01 X 30.4136 Y 48.0054 Z 0.0000 F 400.0000
G01 X 29.8963 Y 47.0406 Z 0.0000
G01 X 29.1874 Y 46.2722 Z 0.0000
G01 X 28.3122 Y 45.6969 Z 0.0000
G01 X 27.3275 Y 45.3427 Z 0.0000
G01 X 26.2873 Y 45.2232 Z 0.0000
G01 X 25.2478 Y 45.3455 Z 0.0000
G01 X 24.2663 Y 45.7065 Z 0.0000
G01 X 23.6362 Y 46.0938 Z 0.0000
G01 X 23.0845 Y 46.5875 Z 0.0000
G01 X 22.5583 Y 47.2541 Z 0.0000
G01 X 22.1790 Y 48.0149 Z 0.0000
G01 X 21.9668 Y 48.8367 Z 0.0000
G01 X 21.9326 Y 49.4444 Z 0.0000
G01 X 21.9668 Y 50.0521 Z 0.0000
G01 X 22.1798 Y 50.8764 Z 0.0000
G01 X 22.5605 Y 51.6379 Z 0.0000
G01 X 23.0884 Y 52.3055 Z 0.0000
G01 X 23.6866 Y 52.8322 Z 0.0000
G01 X 24.3749 Y 53.2354 Z 0.0000
G01 X 25.3174 Y 53.5609 Z 0.0000
G01 X 26.3086 Y 53.6649 Z 0.0000
G01 X 27.3371 Y 53.5469 Z 0.0000
G01 X 28.3103 Y 53.1952 Z 0.0000
G01 X 29.1742 Y 52.6270 Z 0.0000
G01 X 29.8795 Y 51.8704 Z 0.0000
G01 X 30.3804 Y 50.9649 Z 0.0000
G01 X 30.6408 Y 49.9635 Z 0.0000
G01 X 30.6615 Y 49.0703 Z 0.0000
G01 X 30.6615 Y 49.0703 Z 0.0000
G00 Z 7.0000

(End cutting path id: path96-4-6-3)


(Start cutting path id: path96-4-6-3)
(Change tool to Default tool)

G00 Z 7.0000
G00 X 29.0505 Y 49.9521

G01 Z 0.0000 F 100.0000(Penetrate)
G01 X 28.7814 Y 50.6904 Z 0.0000 F 400.0000
G01 X 28.3048 Y 51.3162 Z 0.0000
G01 X 27.4534 Y 51.9004 Z 0.0000
G01 X 26.4492 Y 52.1385 Z 0.0000
G01 X 25.4254 Y 52.0033 Z 0.0000
G01 X 24.8395 Y 51.7438 Z 0.0000
G01 X 24.3331 Y 51.3523 Z 0.0000
G01 X 23.9190 Y 50.8630 Z 0.0000
G01 X 23.6408 Y 50.2861 Z 0.0000
G01 X 23.5018 Y 49.3178 Z 0.0000
G01 X 23.7321 Y 48.3678 Z 0.0000
G01 X 24.2970 Y 47.5681 Z 0.0000
G01 X 25.0296 Y 47.0464 Z 0.0000
G01 X 26.0628 Y 46.7555 Z 0.0000
G01 X 27.1298 Y 46.8688 Z 0.0000
G01 X 28.0809 Y 47.3679 Z 0.0000
G01 X 28.7742 Y 48.1864 Z 0.0000
G01 X 29.0951 Y 49.2106 Z 0.0000
G01 X 29.0504 Y 49.9521 Z 0.0000
G01 X 29.0505 Y 49.9521 Z 0.0000
G00 Z 7.0000

(End cutting path id: path96-4-6-3)


(Start cutting path id: path96-4-6-3)
(Change tool to Default tool)

G00 Z 7.0000
G00 X 30.5683 Y 32.4216

G01 Z 0.0000 F 100.0000(Penetrate)
G01 X 30.4281 Y 31.5681 Z 0.0000 F 400.0000
G01 X 30.1313 Y 30.6228 Z 0.0000
G01 X 29.4956 Y 30.8080 Z 0.0000
G01 X 28.8276 Y 31.0554 Z 0.0000
G01 X 28.7674 Y 31.0794 Z 0.0000
G01 X 28.8439 Y 31.2992 Z 0.0000
G01 X 29.0997 Y 32.3626 Z 0.0000
G01 X 29.1323 Y 32.9586 Z 0.0000
G01 X 29.0574 Y 33.5491 Z 0.0000
G01 X 28.4163 Y 34.2546 Z 0.0000
G01 X 27.8535 Y 34.3350 Z 0.0000
G01 X 27.3434 Y 34.1003 Z 0.0000
G01 X 27.0004 Y 33.5072 Z 0.0000
G01 X 26.7467 Y 32.8659 Z 0.0000
G01 X 26.4404 Y 32.1590 Z 0.0000
G01 X 26.0265 Y 31.5130 Z 0.0000
G01 X 25.4141 Y 31.0568 Z 0.0000
G01 X 24.6983 Y 30.8632 Z 0.0000
G01 X 23.8077 Y 30.9005 Z 0.0000
G01 X 23.0303 Y 31.2514 Z 0.0000
G01 X 22.4307 Y 31.8599 Z 0.0000
G01 X 22.0795 Y 32.6389 Z 0.0000
G01 X 22.0039 Y 33.4301 Z 0.0000
G01 X 22.0682 Y 34.2240 Z 0.0000
G01 X 22.2255 Y 35.0048 Z 0.0000
G01 X 22.3155 Y 35.3272 Z 0.0000
G01 X 22.9807 Y 35.1349 Z 0.0000
G01 X 23.6477 Y 34.9352 Z 0.0000
G01 X 23.6014 Y 34.7170 Z 0.0000
G01 X 23.4594 Y 33.9000 Z 0.0000
G01 X 23.4920 Y 33.0758 Z 0.0000
G01 X 24.1147 Y 32.4296 Z 0.0000
G01 X 24.8908 Y 32.6268 Z 0.0000
G01 X 25.3421 Y 33.6189 Z 0.0000
G01 X 25.6122 Y 34.3640 Z 0.0000
G01 X 26.0021 Y 35.0511 Z 0.0000
G01 X 26.5701 Y 35.5603 Z 0.0000
G01 X 27.2861 Y 35.8310 Z 0.0000
G01 X 27.9139 Y 35.8822 Z 0.0000
G01 X 28.5438 Y 35.8401 Z 0.0000
G01 X 29.1803 Y 35.6064 Z 0.0000
G01 X 29.7307 Y 35.2100 Z 0.0000
G01 X 30.2418 Y 34.5394 Z 0.0000
G01 X 30.5249 Y 33.7426 Z 0.0000
G01 X 30.5707 Y 33.0825 Z 0.0000
G01 X 30.5684 Y 32.4215 Z 0.0000
G01 X 30.5683 Y 32.4216 Z 0.0000
G00 Z 7.0000

(End cutting path id: path96-4-6-3)


(Start cutting path id: path96-4-6-3)
(Change tool to Default tool)

G00 Z 7.0000
G00 X 30.3200 Y 21.2812

G01 Z 0.0000 F 100.0000(Penetrate)
G01 X 29.4850 Y 21.5982 Z 0.0000 F 400.0000
G01 X 28.6497 Y 21.9152 Z 0.0000
G01 X 27.8140 Y 22.2324 Z 0.0000
G01 X 26.9763 Y 22.5504 Z 0.0000
G01 X 26.1403 Y 22.8677 Z 0.0000
G01 X 25.1257 Y 23.2527 Z 0.0000
G01 X 24.1113 Y 23.6377 Z 0.0000
G01 X 23.0976 Y 24.0224 Z 0.0000
G01 X 22.0833 Y 24.4074 Z 0.0000
G01 X 22.0833 Y 25.0806 Z 0.0000
G01 X 22.0833 Y 25.7539 Z 0.0000
G01 X 22.9179 Y 26.0707 Z 0.0000
G01 X 23.7530 Y 26.3876 Z 0.0000
G01 X 24.5870 Y 26.7042 Z 0.0000
G01 X 25.4224 Y 27.0213 Z 0.0000
G01 X 26.2572 Y 27.3381 Z 0.0000
G01 X 27.0918 Y 27.6549 Z 0.0000
G01 X 27.9269 Y 27.9719 Z 0.0000
G01 X 28.7609 Y 28.2885 Z 0.0000
G01 X 29.5963 Y 28.6056 Z 0.0000
G01 X 30.4310 Y 28.9224 Z 0.0000
G01 X 30.4369 Y 28.1014 Z 0.0000
G01 X 30.4213 Y 27.2672 Z 0.0000
G01 X 29.6041 Y 26.9726 Z 0.0000
G01 X 28.7857 Y 26.6817 Z 0.0000
G01 X 27.9839 Y 26.3946 Z 0.0000
G01 X 27.1924 Y 26.0854 Z 0.0000
G01 X 27.8913 Y 25.5704 Z 0.0000
G01 X 28.5695 Y 25.0793 Z 0.0000
G01 X 28.5703 Y 24.3239 Z 0.0000
G01 X 28.5711 Y 23.5685 Z 0.0000
G01 X 28.6705 Y 23.5262 Z 0.0000
G01 X 29.6058 Y 23.1847 Z 0.0000
G01 X 30.4418 Y 22.8856 Z 0.0000
G01 X 30.4418 Y 22.0600 Z 0.0000
G01 X 30.4418 Y 21.2344 Z 0.0000
G01 X 30.3190 Y 21.2812 Z 0.0000
G01 X 30.3200 Y 21.2812 Z 0.0000
G00 Z 7.0000

(End cutting path id: path96-4-6-3)


(Start cutting path id: path96-4-6-3)
(Change tool to Default tool)

G00 Z 7.0000
G00 X 27.1165 Y 26.0903

G01 Z 0.0000 F 100.0000(Penetrate)
G01 X 26.4172 Y 25.8418 Z 0.0000 F 400.0000
G01 X 25.7194 Y 25.5944 Z 0.0000
G01 X 25.0250 Y 25.3470 Z 0.0000
G01 X 24.3342 Y 25.0936 Z 0.0000
G01 X 25.2613 Y 24.7456 Z 0.0000
G01 X 26.1934 Y 24.4094 Z 0.0000
G01 X 27.1282 Y 24.0855 Z 0.0000
G01 X 27.1458 Y 25.0935 Z 0.0000
G01 X 27.1165 Y 26.0903 Z 0.0000
G01 X 27.1165 Y 26.0903 Z 0.0000
G00 Z 7.0000

(End cutting path id: path96-4-6-3)


(Start cutting path id: path96-4-6-3)
(Change tool to Default tool)

G00 Z 7.0000
G00 X 26.9824 Y 40.0328

G01 Z 0.0000 F 100.0000(Penetrate)
G01 X 26.1181 Y 40.0328 Z 0.0000 F 400.0000
G01 X 25.2526 Y 40.0328 Z 0.0000
G01 X 24.3864 Y 40.0328 Z 0.0000
G01 X 23.5217 Y 40.0328 Z 0.0000
G01 X 23.5217 Y 39.4073 Z 0.0000
G01 X 23.5217 Y 38.7818 Z 0.0000
G01 X 23.5217 Y 38.1563 Z 0.0000
G01 X 23.5217 Y 37.5308 Z 0.0000
G01 X 22.7968 Y 37.5308 Z 0.0000
G01 X 22.0720 Y 37.5308 Z 0.0000
G01 X 22.0720 Y 38.6220 Z 0.0000
G01 X 22.0720 Y 39.7128 Z 0.0000
G01 X 22.0720 Y 40.8044 Z 0.0000
G01 X 22.0720 Y 41.8956 Z 0.0000
G01 X 22.0720 Y 42.9865 Z 0.0000
G01 X 22.0720 Y 44.0780 Z 0.0000
G01 X 22.7968 Y 44.0780 Z 0.0000
G01 X 23.5217 Y 44.0780 Z 0.0000
G01 X 23.5217 Y 43.4525 Z 0.0000
G01 X 23.5217 Y 42.8270 Z 0.0000
G01 X 23.5217 Y 42.2015 Z 0.0000
G01 X 23.5217 Y 41.5760 Z 0.0000
G01 X 24.3861 Y 41.5760 Z 0.0000
G01 X 25.2515 Y 41.5760 Z 0.0000
G01 X 26.1177 Y 41.5760 Z 0.0000
G01 X 26.9824 Y 41.5760 Z 0.0000
G01 X 27.8468 Y 41.5760 Z 0.0000
G01 X 28.7122 Y 41.5760 Z 0.0000
G01 X 29.5784 Y 41.5760 Z 0.0000
G01 X 30.4431 Y 41.5760 Z 0.0000
G01 X 30.4431 Y 40.8044 Z 0.0000
G01 X 30.4431 Y 40.0328 Z 0.0000
G01 X 29.5787 Y 40.0328 Z 0.0000
G01 X 28.7133 Y 40.0328 Z 0.0000
G01 X 27.8471 Y 40.0328 Z 0.0000
G01 X 26.9824 Y 40.0328 Z 0.0000
G00 Z 7.0000

(End cutting path id: path96-4-6-3)


(Start cutting path id: path96-4-6-3)
(Change tool to Default tool)

G00 Z 7.0000
G00 X 26.2575 Y 56.0501

G01 Z 0.0000 F 100.0000(Penetrate)
G01 X 25.2121 Y 56.0501 Z 0.0000 F 400.0000
G01 X 24.1654 Y 56.0501 Z 0.0000
G01 X 23.1177 Y 56.0501 Z 0.0000
G01 X 22.0720 Y 56.0501 Z 0.0000
G01 X 22.0723 Y 56.7604 Z 0.0000
G01 X 22.0726 Y 57.4706 Z 0.0000
G01 X 22.0768 Y 58.3252 Z 0.0000
G01 X 22.0956 Y 59.1812 Z 0.0000
G01 X 22.2666 Y 60.0158 Z 0.0000
G01 X 22.6605 Y 60.7694 Z 0.0000
G01 X 23.2677 Y 61.3654 Z 0.0000
G01 X 24.1452 Y 61.7727 Z 0.0000
G01 X 24.8779 Y 61.8349 Z 0.0000
G01 X 25.6145 Y 61.7718 Z 0.0000
G01 X 26.1085 Y 61.5812 Z 0.0000
G01 X 26.7999 Y 61.1031 Z 0.0000
G01 X 27.3033 Y 60.4292 Z 0.0000
G01 X 27.3948 Y 60.2602 Z 0.0000
G01 X 28.1517 Y 60.8094 Z 0.0000
G01 X 28.9085 Y 61.3587 Z 0.0000
G01 X 29.6698 Y 61.9100 Z 0.0000
G01 X 30.4327 Y 62.4571 Z 0.0000
G01 X 30.4351 Y 62.6488 Z 0.0000
G01 X 30.4327 Y 62.4571 Z 0.0000
G01 X 30.4371 Y 61.5276 Z 0.0000
G01 X 30.4415 Y 60.5982 Z 0.0000
G01 X 29.7536 Y 60.0998 Z 0.0000
G01 X 29.0642 Y 59.6003 Z 0.0000
G01 X 28.3758 Y 59.1016 Z 0.0000
G01 X 27.6880 Y 58.6033 Z 0.0000
G01 X 26.9985 Y 58.1038 Z 0.0000
G01 X 26.3102 Y 57.6051 Z 0.0000
G01 X 27.3435 Y 57.6022 Z 0.0000
G01 X 28.3768 Y 57.5992 Z 0.0000
G01 X 29.4100 Y 57.5963 Z 0.0000
G01 X 30.4433 Y 57.5933 Z 0.0000
G01 X 30.4433 Y 56.8218 Z 0.0000
G01 X 30.4433 Y 56.0502 Z 0.0000
G01 X 29.3979 Y 56.0502 Z 0.0000
G01 X 28.3512 Y 56.0502 Z 0.0000
G01 X 27.3035 Y 56.0502 Z 0.0000
G01 X 26.2577 Y 56.0502 Z 0.0000
G01 X 26.2575 Y 56.0501 Z 0.0000
G00 Z 7.0000

(End cutting path id: path96-4-6-3)


(Start cutting path id: path96-4-6-3)
(Change tool to Default tool)

G00 Z 7.0000
G00 X 26.1898 Y 59.3937

G01 Z 0.0000 F 100.0000(Penetrate)
G01 X 25.8489 Y 59.9918 Z 0.0000 F 400.0000
G01 X 24.8780 Y 60.3285 Z 0.0000
G01 X 24.4627 Y 60.2940 Z 0.0000
G01 X 23.6782 Y 59.6745 Z 0.0000
G01 X 23.5179 Y 59.0539 Z 0.0000
G01 X 23.5041 Y 58.4060 Z 0.0000
G01 X 23.4951 Y 57.5934 Z 0.0000
G01 X 24.1866 Y 57.5934 Z 0.0000
G01 X 24.8782 Y 57.5934 Z 0.0000
G01 X 25.5697 Y 57.5934 Z 0.0000
G01 X 26.2612 Y 57.5934 Z 0.0000
G01 X 26.2517 Y 58.4060 Z 0.0000
G01 X 26.1897 Y 59.3937 Z 0.0000
G01 X 26.1898 Y 59.3937 Z 0.0000
G00 Z 7.0000

(End cutting path id: path96-4-6-3)


(Start cutting path id: path96-4-6-3)
(Change tool to Default tool)

G00 Z 7.0000
G00 X 28.8238 Y 6.9983

G01 Z 0.0000 F 100.0000(Penetrate)
G01 X 28.1865 Y 6.3613 Z 0.0000 F 400.0000
G01 X 27.5514 Y 6.9964 Z 0.0000
G01 X 26.9155 Y 7.6324 Z 0.0000
G01 X 26.2790 Y 8.2689 Z 0.0000
G01 X 25.6437 Y 8.9042 Z 0.0000
G01 X 25.0054 Y 9.5433 Z 0.0000
G01 X 24.3677 Y 10.1834 Z 0.0000
G01 X 23.7313 Y 10.8247 Z 0.0000
G01 X 23.1009 Y 11.4706 Z 0.0000
G01 X 23.7323 Y 12.1252 Z 0.0000
G01 X 24.3637 Y 12.7563 Z 0.0000
G01 X 25.0002 Y 12.1197 Z 0.0000
G01 X 25.6376 Y 11.4824 Z 0.0000
G01 X 26.2756 Y 10.8444 Z 0.0000
G01 X 26.9124 Y 10.2077 Z 0.0000
G01 X 27.5512 Y 9.5685 Z 0.0000
G01 X 28.1892 Y 8.9292 Z 0.0000
G01 X 28.8273 Y 8.2887 Z 0.0000
G01 X 29.4611 Y 7.6472 Z 0.0000
G01 X 28.8238 Y 6.9983 Z 0.0000
G01 X 28.8238 Y 6.9983 Z 0.0000
G00 Z 7.0000

(End cutting path id: path96-4-6-3)



(Footer)
M5
G00 X0.0000 Y0.0000
M2
(Using default footer. To add your own footer create file "footer" in the output dir.)
(end)
%