%
(Header)
(Generated by gcodetools from Inkscape.)
(Using default header. To add your own header create file "header" in the output dir.)
M3
(Header end.)
G21 (All units in mm)

(Start cutting path id: path16917-7-5)
(Change tool to Default tool)

G00 Z 7.0000
G00 X 44.7069 Y 4.3420

G01 Z 0.0000 F 100.0000(Penetrate)
G01 X 44.7069 Y 3.5365 Z 0.0000 F 400.0000
G01 X 44.7069 Y 2.7291 Z 0.0000
G01 X 44.7069 Y 1.9230 Z 0.0000
G00 Z 7.0000

(End cutting path id: path16917-7-5)


(Start cutting path id: path16917-7-5)
(Change tool to Default tool)

G00 Z 7.0000
G00 X 48.5764 Y 57.2049

G01 Z 0.0000 F 100.0000(Penetrate)
G01 X 47.5058 Y 57.2086 Z 0.0000 F 400.0000
G01 X 46.4358 Y 57.2117 Z 0.0000
G01 X 45.3650 Y 57.2141 Z 0.0000
G01 X 44.2940 Y 57.2157 Z 0.0000
G01 X 43.2235 Y 57.2161 Z 0.0000
G01 X 42.1537 Y 57.2143 Z 0.0000
G01 X 41.0850 Y 57.2049 Z 0.0000
G01 X 41.0987 Y 58.1261 Z 0.0000
G01 X 41.1131 Y 59.0465 Z 0.0000
G01 X 41.2269 Y 59.9603 Z 0.0000
G01 X 41.5596 Y 60.8137 Z 0.0000
G01 X 42.2412 Y 61.4154 Z 0.0000
G01 X 43.1380 Y 61.5964 Z 0.0000
G01 X 44.0647 Y 61.4662 Z 0.0000
G01 X 44.8467 Y 60.9633 Z 0.0000
G01 X 45.2750 Y 60.1357 Z 0.0000
G01 X 45.3542 Y 59.2035 Z 0.0000
G01 X 46.1725 Y 59.8011 Z 0.0000
G01 X 46.9920 Y 60.3996 Z 0.0000
G01 X 47.8121 Y 60.9985 Z 0.0000
G01 X 48.6308 Y 61.5964 Z 0.0000
G00 Z 7.0000

(End cutting path id: path16917-7-5)


(Start cutting path id: path16917-7-5)
(Change tool to Default tool)

G00 Z 7.0000
G00 X 41.3274 Y 34.9469

G01 Z 0.0000 F 100.0000(Penetrate)
G01 X 41.1883 Y 34.0406 Z 0.0000 F 400.0000
G01 X 41.2038 Y 33.1245 Z 0.0000
G01 X 41.5508 Y 32.2880 Z 0.0000
G01 X 42.3466 Y 31.8697 Z 0.0000
G01 X 43.2600 Y 31.8896 Z 0.0000
G01 X 44.0811 Y 32.5331 Z 0.0000
G01 X 44.5102 Y 33.5196 Z 0.0000
G01 X 44.9011 Y 34.4483 Z 0.0000
G01 X 45.5320 Y 35.2209 Z 0.0000
G01 X 46.4913 Y 35.4810 Z 0.0000
G01 X 47.3906 Y 35.2438 Z 0.0000
G01 X 48.0201 Y 34.5572 Z 0.0000
G01 X 48.2868 Y 33.6575 Z 0.0000
G01 X 48.2986 Y 32.7156 Z 0.0000
G01 X 48.1533 Y 31.7854 Z 0.0000
G00 Z 7.0000

(End cutting path id: path16917-7-5)


(Start cutting path id: path16917-7-5)
(Change tool to Default tool)

G00 Z 7.0000
G00 X 44.7491 Y 53.4631

G01 Z 0.0000 F 100.0000(Penetrate)
G01 X 45.6978 Y 53.3382 Z 0.0000 F 400.0000
G01 X 46.5812 Y 52.9723 Z 0.0000
G01 X 47.3402 Y 52.3899 Z 0.0000
G01 X 47.9227 Y 51.6307 Z 0.0000
G01 X 48.2886 Y 50.7473 Z 0.0000
G01 X 48.4135 Y 49.7987 Z 0.0000
G01 X 48.2885 Y 48.8500 Z 0.0000
G01 X 47.9226 Y 47.9666 Z 0.0000
G01 X 47.3402 Y 47.2076 Z 0.0000
G01 X 46.5810 Y 46.6251 Z 0.0000
G01 X 45.6976 Y 46.2592 Z 0.0000
G01 X 44.7491 Y 46.1343 Z 0.0000
G01 X 43.8004 Y 46.2583 Z 0.0000
G01 X 42.9166 Y 46.6247 Z 0.0000
G01 X 42.1579 Y 47.2076 Z 0.0000
G01 X 41.5750 Y 47.9664 Z 0.0000
G01 X 41.2085 Y 48.8506 Z 0.0000
G01 X 41.0847 Y 49.7987 Z 0.0000
G01 X 41.2096 Y 50.7475 Z 0.0000
G01 X 41.5755 Y 51.6309 Z 0.0000
G01 X 42.1579 Y 52.3899 Z 0.0000
G01 X 42.9172 Y 52.9724 Z 0.0000
G01 X 43.8006 Y 53.3383 Z 0.0000
G01 X 44.7491 Y 53.4631 Z 0.0000
G01 X 44.7491 Y 53.4631 Z 0.0000
G00 Z 7.0000

(End cutting path id: path16917-7-5)


(Start cutting path id: path16917-7-5)
(Change tool to Default tool)

G00 Z 7.0000
G00 X 41.1119 Y 41.0542

G01 Z 0.0000 F 100.0000(Penetrate)
G01 X 42.1785 Y 41.0542 Z 0.0000 F 400.0000
G01 X 43.2458 Y 41.0542 Z 0.0000
G01 X 44.3138 Y 41.0542 Z 0.0000
G01 X 45.3809 Y 41.0542 Z 0.0000
G01 X 46.4490 Y 41.0542 Z 0.0000
G01 X 47.5175 Y 41.0542 Z 0.0000
G01 X 48.5844 Y 41.0542 Z 0.0000
G00 Z 7.0000

(End cutting path id: path16917-7-5)


(Start cutting path id: path16917-7-5)
(Change tool to Default tool)

G00 Z 7.0000
G00 X 41.1119 Y 38.3239

G01 Z 0.0000 F 100.0000(Penetrate)
G01 X 41.1119 Y 39.2588 Z 0.0000 F 400.0000
G01 X 41.1119 Y 40.1919 Z 0.0000
G01 X 41.1119 Y 41.1269 Z 0.0000
G01 X 41.1119 Y 42.0608 Z 0.0000
G01 X 41.1119 Y 42.9940 Z 0.0000
G01 X 41.1119 Y 43.9283 Z 0.0000
G00 Z 7.0000

(End cutting path id: path16917-7-5)


(Start cutting path id: path16917-7-5)
(Change tool to Default tool)

G00 Z 7.0000
G00 X 46.3570 Y 23.3788

G01 Z 0.0000 F 100.0000(Penetrate)
G01 X 46.3570 Y 24.4566 Z 0.0000 F 400.0000
G01 X 46.3570 Y 25.5344 Z 0.0000
G00 Z 7.0000

(End cutting path id: path16917-7-5)


(Start cutting path id: path16917-7-5)
(Change tool to Default tool)

G00 Z 7.0000
G00 X 48.5125 Y 22.4448

G01 Z 0.0000 F 100.0000(Penetrate)
G01 X 47.5973 Y 22.8127 Z 0.0000 F 400.0000
G01 X 46.6807 Y 23.1811 Z 0.0000
G01 X 45.7651 Y 23.5491 Z 0.0000
G01 X 44.8488 Y 23.9175 Z 0.0000
G01 X 43.9328 Y 24.2857 Z 0.0000
G01 X 43.0162 Y 24.6541 Z 0.0000
G01 X 42.1008 Y 25.0220 Z 0.0000
G01 X 41.1837 Y 25.3907 Z 0.0000
G01 X 42.0989 Y 25.7406 Z 0.0000
G01 X 43.0156 Y 26.0911 Z 0.0000
G01 X 43.9311 Y 26.4412 Z 0.0000
G01 X 44.8475 Y 26.7915 Z 0.0000
G01 X 45.7635 Y 27.1418 Z 0.0000
G01 X 46.6801 Y 27.4922 Z 0.0000
G01 X 47.5954 Y 27.8422 Z 0.0000
G01 X 48.5125 Y 28.1929 Z 0.0000
G00 Z 7.0000

(End cutting path id: path16917-7-5)


(Start cutting path id: path16917-7-5)
(Change tool to Default tool)

G00 Z 7.0000
G00 X 46.7881 Y 7.6434

G01 Z 0.0000 F 100.0000(Penetrate)
G01 X 46.0996 Y 8.3320 Z 0.0000 F 400.0000
G01 X 45.4112 Y 9.0203 Z 0.0000
G01 X 44.7227 Y 9.7089 Z 0.0000
G01 X 44.0338 Y 10.3978 Z 0.0000
G01 X 43.3459 Y 11.0857 Z 0.0000
G01 X 42.6567 Y 11.7749 Z 0.0000
G00 Z 7.0000

(End cutting path id: path16917-7-5)


(Start cutting path id: path16917-7-5)
(Change tool to Default tool)

G00 Z 7.0000
G00 X 44.6326 Y 15.5471

G01 Z 0.0000 F 100.0000(Penetrate)
G01 X 44.6326 Y 16.3856 Z 0.0000 F 400.0000
G01 X 44.6326 Y 17.2229 Z 0.0000
G01 X 44.6326 Y 18.0618 Z 0.0000
G00 Z 7.0000

(End cutting path id: path16917-7-5)


(Start cutting path id: path16917-7-5)
(Change tool to Default tool)

G00 Z 7.0000
G00 X 40.3675 Y 13.4246

G01 Z 0.0000 F 100.0000(Penetrate)
G01 X 41.0506 Y 14.1524 Z 0.0000 F 400.0000
G01 X 41.8521 Y 14.7469 Z 0.0000
G01 X 42.7479 Y 15.1874 Z 0.0000
G01 X 43.7094 Y 15.4574 Z 0.0000
G01 X 44.7044 Y 15.5478 Z 0.0000
G01 X 44.7044 Y 15.5478 Z 0.0000
G01 X 45.7901 Y 15.4399 Z 0.0000
G01 X 46.8332 Y 15.1180 Z 0.0000
G01 X 47.7919 Y 14.5950 Z 0.0000
G01 X 48.6294 Y 13.8940 Z 0.0000
G01 X 49.3153 Y 13.0432 Z 0.0000
G01 X 49.8230 Y 12.0771 Z 0.0000
G01 X 50.1343 Y 11.0298 Z 0.0000
G01 X 50.2384 Y 9.9427 Z 0.0000
G01 X 50.1936 Y 9.2263 Z 0.0000
G00 Z 7.0000

(End cutting path id: path16917-7-5)


(Start cutting path id: path16917-7-5)
(Change tool to Default tool)

G00 Z 7.0000
G00 X 48.7460 Y 6.1138

G01 Z 0.0000 F 100.0000(Penetrate)
G01 X 48.0783 Y 5.4994 Z 0.0000 F 400.0000
G01 X 47.3189 Y 5.0013 Z 0.0000
G01 X 46.4886 Y 4.6353 Z 0.0000
G01 X 45.6085 Y 4.4120 Z 0.0000
G01 X 44.7044 Y 4.3376 Z 0.0000
G01 X 43.6187 Y 4.4454 Z 0.0000
G01 X 42.5756 Y 4.7673 Z 0.0000
G01 X 41.6169 Y 5.2903 Z 0.0000
G01 X 40.7795 Y 5.9913 Z 0.0000
G01 X 40.0935 Y 6.8421 Z 0.0000
G01 X 39.5858 Y 7.8082 Z 0.0000
G01 X 39.2745 Y 8.8555 Z 0.0000
G01 X 39.1705 Y 9.9427 Z 0.0000
G01 X 39.2177 Y 10.6785 Z 0.0000
G00 Z 7.0000

(End cutting path id: path16917-7-5)



(Footer)
M5
G00 X0.0000 Y0.0000
M2
(Using default footer. To add your own footer create file "footer" in the output dir.)
(end)
%