%
(Header)
(Generated by gcodetools from Inkscape.)
(Using default header. To add your own header create file "header" in the output dir.)
M3
(Header end.)
G21 (All units in mm)

(Start cutting path id: path16917-7)
(Change tool to Default tool)

G00 Z 7.0000
G00 X 56.7338 Y 41.0389

G01 Z 0.0000 F 100.0000(Penetrate)
G01 X 56.2288 Y 41.2554 Z 0.0000 F 400.0000
G00 Z 7.0000

(End cutting path id: path16917-7)


(Start cutting path id: path16917-7)
(Change tool to Default tool)

G00 Z 7.0000
G00 X 68.1457 Y 28.0552

G01 Z 0.0000 F 100.0000(Penetrate)
G01 X 68.0929 Y 26.8456 Z 0.0000 F 400.0000
G01 X 68.0300 Y 25.6363 Z 0.0000
G01 X 67.9557 Y 24.4272 Z 0.0000
G01 X 67.8689 Y 23.2187 Z 0.0000
G01 X 67.7682 Y 22.0123 Z 0.0000
G01 X 67.6524 Y 20.8075 Z 0.0000
G01 X 67.5203 Y 19.6045 Z 0.0000
G01 X 67.3704 Y 18.4027 Z 0.0000
G01 X 67.2020 Y 17.2039 Z 0.0000
G01 X 67.0142 Y 16.0071 Z 0.0000
G01 X 66.8068 Y 14.8140 Z 0.0000
G01 X 66.5794 Y 13.6238 Z 0.0000
G01 X 66.3420 Y 12.4772 Z 0.0000
G01 X 66.0812 Y 11.3347 Z 0.0000
G01 X 65.7881 Y 10.2000 Z 0.0000
G01 X 65.4607 Y 9.0759 Z 0.0000
G01 X 65.1059 Y 7.9596 Z 0.0000
G01 X 64.6949 Y 6.7641 Z 0.0000
G01 X 64.2316 Y 5.5883 Z 0.0000
G01 X 63.7022 Y 4.4415 Z 0.0000
G01 X 63.1790 Y 3.4598 Z 0.0000
G01 X 62.5794 Y 2.5228 Z 0.0000
G01 X 61.8769 Y 1.6604 Z 0.0000
G01 X 61.0387 Y 0.9319 Z 0.0000
G01 X 60.0434 Y 0.4430 Z 0.0000
G01 X 59.3294 Y 0.3677 Z 0.0000
G01 X 58.6134 Y 0.4373 Z 0.0000
G01 X 57.6441 Y 0.8915 Z 0.0000
G01 X 56.8258 Y 1.5866 Z 0.0000
G01 X 56.1096 Y 2.4205 Z 0.0000
G01 X 55.4996 Y 3.3353 Z 0.0000
G01 X 54.9718 Y 4.3006 Z 0.0000
G01 X 54.5068 Y 5.2972 Z 0.0000
G01 X 54.0896 Y 6.3141 Z 0.0000
G01 X 53.7087 Y 7.3465 Z 0.0000
G01 X 53.3701 Y 8.3568 Z 0.0000
G01 X 53.0597 Y 9.3759 Z 0.0000
G01 X 52.7747 Y 10.4024 Z 0.0000
G01 X 52.5130 Y 11.4347 Z 0.0000
G01 X 52.2724 Y 12.4721 Z 0.0000
G01 X 52.0515 Y 13.5131 Z 0.0000
G01 X 51.8148 Y 14.7420 Z 0.0000
G01 X 51.6011 Y 15.9751 Z 0.0000
G01 X 51.4088 Y 17.2113 Z 0.0000
G01 X 51.2363 Y 18.4510 Z 0.0000
G01 X 51.0825 Y 19.6937 Z 0.0000
G01 X 50.9597 Y 20.8084 Z 0.0000
G01 X 50.8503 Y 21.9251 Z 0.0000
G01 X 50.7537 Y 23.0423 Z 0.0000
G01 X 50.6694 Y 24.1614 Z 0.0000
G01 X 50.5969 Y 25.2810 Z 0.0000
G01 X 50.5357 Y 26.4016 Z 0.0000
G01 X 50.4855 Y 27.5222 Z 0.0000
G01 X 50.4551 Y 28.7473 Z 0.0000
G01 X 50.4409 Y 29.9740 Z 0.0000
G01 X 50.4346 Y 31.2003 Z 0.0000
G01 X 50.4344 Y 32.4268 Z 0.0000
G01 X 50.4402 Y 33.6522 Z 0.0000
G01 X 50.4538 Y 34.8781 Z 0.0000
G01 X 50.4841 Y 36.1041 Z 0.0000
G01 X 50.5427 Y 37.3719 Z 0.0000
G01 X 50.6150 Y 38.6397 Z 0.0000
G01 X 50.7013 Y 39.9052 Z 0.0000
G01 X 50.8025 Y 41.1702 Z 0.0000
G01 X 50.9195 Y 42.4340 Z 0.0000
G01 X 51.0530 Y 43.6954 Z 0.0000
G01 X 51.2042 Y 44.9559 Z 0.0000
G01 X 51.3742 Y 46.2141 Z 0.0000
G01 X 51.5643 Y 47.4690 Z 0.0000
G01 X 51.7761 Y 48.7211 Z 0.0000
G01 X 52.0112 Y 49.9683 Z 0.0000
G01 X 52.2718 Y 51.2104 Z 0.0000
G01 X 52.5603 Y 52.4461 Z 0.0000
G01 X 52.8794 Y 53.6738 Z 0.0000
G01 X 53.2329 Y 54.8924 Z 0.0000
G01 X 53.6250 Y 56.0995 Z 0.0000
G01 X 54.0607 Y 57.2913 Z 0.0000
G01 X 54.5466 Y 58.4636 Z 0.0000
G01 X 55.0848 Y 59.5837 Z 0.0000
G01 X 55.7067 Y 60.6603 Z 0.0000
G01 X 56.4373 Y 61.6644 Z 0.0000
G01 X 57.3161 Y 62.5398 Z 0.0000
G01 X 58.3890 Y 63.1566 Z 0.0000
G01 X 59.2742 Y 63.2658 Z 0.0000
G01 X 60.1627 Y 63.1839 Z 0.0000
G01 X 61.0742 Y 62.7102 Z 0.0000
G01 X 61.8466 Y 62.0286 Z 0.0000
G01 X 62.5114 Y 61.2396 Z 0.0000
G01 X 63.0858 Y 60.3829 Z 0.0000
G01 X 63.6776 Y 59.2912 Z 0.0000
G01 X 64.1925 Y 58.1618 Z 0.0000
G01 X 64.6517 Y 57.0072 Z 0.0000
G01 X 65.0657 Y 55.8369 Z 0.0000
G01 X 65.4420 Y 54.6526 Z 0.0000
G01 X 65.7842 Y 53.4589 Z 0.0000
G01 X 66.0954 Y 52.2559 Z 0.0000
G01 X 66.3768 Y 51.0456 Z 0.0000
G01 X 66.6289 Y 49.8299 Z 0.0000
G01 X 66.8595 Y 48.5869 Z 0.0000
G01 X 67.0679 Y 47.3402 Z 0.0000
G01 X 67.2553 Y 46.0909 Z 0.0000
G01 X 67.4230 Y 44.8387 Z 0.0000
G01 X 67.5720 Y 43.5841 Z 0.0000
G01 X 67.7034 Y 42.3279 Z 0.0000
G01 X 67.8182 Y 41.0697 Z 0.0000
G01 X 67.9172 Y 39.8093 Z 0.0000
G01 X 68.0014 Y 38.5489 Z 0.0000
G01 X 68.0714 Y 37.2872 Z 0.0000
G01 X 68.1282 Y 36.0241 Z 0.0000
G01 X 68.1511 Y 34.8865 Z 0.0000
G01 X 68.1616 Y 33.7481 Z 0.0000
G01 X 68.1675 Y 32.6102 Z 0.0000
G01 X 68.1701 Y 31.4719 Z 0.0000
G01 X 68.1693 Y 30.3335 Z 0.0000
G01 X 68.1640 Y 29.1949 Z 0.0000
G01 X 68.1456 Y 28.0552 Z 0.0000
G01 X 68.1458 Y 28.0552 Z 0.0000
G00 Z 7.0000

(End cutting path id: path16917-7)


(Start cutting path id: path16917-7)
(Change tool to Default tool)

G00 Z 7.0000
G00 X 57.7378 Y 57.1408

G01 Z 0.0000 F 100.0000(Penetrate)
G01 X 57.7378 Y 56.0466 Z 0.0000 F 400.0000
G01 X 57.7378 Y 54.9517 Z 0.0000
G01 X 57.7378 Y 53.8573 Z 0.0000
G01 X 57.7378 Y 52.7625 Z 0.0000
G01 X 57.8947 Y 51.7629 Z 0.0000
G01 X 58.7327 Y 51.2152 Z 0.0000
G01 X 59.6335 Y 50.9499 Z 0.0000
G01 X 59.7276 Y 51.8500 Z 0.0000
G01 X 59.7276 Y 52.9390 Z 0.0000
G01 X 59.7276 Y 54.0276 Z 0.0000
G01 X 59.7276 Y 55.1165 Z 0.0000
G01 X 59.7590 Y 55.9534 Z 0.0000
G01 X 60.4202 Y 55.8240 Z 0.0000
G01 X 61.1125 Y 55.4437 Z 0.0000
G01 X 61.8052 Y 54.8749 Z 0.0000
G01 X 61.8052 Y 54.0041 Z 0.0000
G01 X 61.8052 Y 52.9444 Z 0.0000
G01 X 61.8052 Y 51.8850 Z 0.0000
G01 X 61.8052 Y 50.8254 Z 0.0000
G01 X 61.8052 Y 49.7668 Z 0.0000
G00 Z 7.0000

(End cutting path id: path16917-7)


(Start cutting path id: path16917-7)
(Change tool to Default tool)

G00 Z 7.0000
G00 X 57.7086 Y 43.5632

G01 Z 0.0000 F 100.0000(Penetrate)
G01 X 58.7331 Y 43.1314 Z 0.0000 F 400.0000
G01 X 59.7574 Y 42.6998 Z 0.0000
G01 X 60.7810 Y 42.2684 Z 0.0000
G01 X 61.6170 Y 42.0878 Z 0.0000
G01 X 61.8052 Y 42.8958 Z 0.0000
G01 X 61.8052 Y 43.9555 Z 0.0000
G01 X 61.8052 Y 45.0149 Z 0.0000
G01 X 61.8052 Y 46.0745 Z 0.0000
G01 X 61.6797 Y 47.0704 Z 0.0000
G01 X 60.7953 Y 47.5942 Z 0.0000
G01 X 59.7857 Y 48.0551 Z 0.0000
G01 X 58.7767 Y 48.5158 Z 0.0000
G01 X 57.7671 Y 48.9767 Z 0.0000
G00 Z 7.0000

(End cutting path id: path16917-7)


(Start cutting path id: path16917-7)
(Change tool to Default tool)

G00 Z 7.0000
G00 X 61.8052 Y 38.8228

G01 Z 0.0000 F 100.0000(Penetrate)
G01 X 60.7953 Y 39.2765 Z 0.0000 F 400.0000
G01 X 59.7857 Y 39.7301 Z 0.0000
G01 X 58.7767 Y 40.1834 Z 0.0000
G01 X 57.7671 Y 40.6370 Z 0.0000
G00 Z 7.0000

(End cutting path id: path16917-7)


(Start cutting path id: path16917-7)
(Change tool to Default tool)

G00 Z 7.0000
G00 X 61.7760 Y 30.5124

G01 Z 0.0000 F 100.0000(Penetrate)
G01 X 60.7661 Y 30.9734 Z 0.0000 F 400.0000
G01 X 59.7564 Y 31.4343 Z 0.0000
G01 X 58.7474 Y 31.8950 Z 0.0000
G01 X 57.7378 Y 32.3559 Z 0.0000
G01 X 57.7378 Y 33.4149 Z 0.0000
G01 X 57.7378 Y 34.4747 Z 0.0000
G01 X 57.7378 Y 35.5340 Z 0.0000
G01 X 57.7378 Y 36.5936 Z 0.0000
G01 X 57.9261 Y 37.3385 Z 0.0000
G01 X 58.7550 Y 37.2132 Z 0.0000
G01 X 59.7720 Y 36.7742 Z 0.0000
G01 X 60.7883 Y 36.3355 Z 0.0000
G01 X 61.8052 Y 35.8966 Z 0.0000
G00 Z 7.0000

(End cutting path id: path16917-7)


(Start cutting path id: path16917-7)
(Change tool to Default tool)

G00 Z 7.0000
G00 X 60.7632 Y 22.8598

G01 Z 0.0000 F 100.0000(Penetrate)
G01 X 59.7537 Y 23.2928 Z 0.0000 F 400.0000
G01 X 58.7457 Y 23.7270 Z 0.0000
G01 X 57.8947 Y 24.2253 Z 0.0000
G01 X 57.7378 Y 25.1865 Z 0.0000
G01 X 57.7378 Y 26.2111 Z 0.0000
G01 X 57.7378 Y 27.2353 Z 0.0000
G01 X 57.7378 Y 28.2598 Z 0.0000
G01 X 57.8633 Y 29.1265 Z 0.0000
G01 X 58.7477 Y 28.8370 Z 0.0000
G01 X 59.7573 Y 28.3907 Z 0.0000
G01 X 60.7663 Y 27.9447 Z 0.0000
G01 X 61.6505 Y 27.3729 Z 0.0000
G01 X 61.7760 Y 26.4861 Z 0.0000
G01 X 61.7760 Y 25.4732 Z 0.0000
G01 X 61.7760 Y 24.4607 Z 0.0000
G01 X 61.7760 Y 23.4479 Z 0.0000
G01 X 61.5877 Y 22.6871 Z 0.0000
G01 X 60.7632 Y 22.8598 Z 0.0000
G00 Z 7.0000

(End cutting path id: path16917-7)


(Start cutting path id: path16917-7)
(Change tool to Default tool)

G00 Z 7.0000
G00 X 61.8052 Y 16.0277

G01 Z 0.0000 F 100.0000(Penetrate)
G01 X 60.9861 Y 16.4080 Z 0.0000 F 400.0000
G01 X 60.1664 Y 16.7886 Z 0.0000
G01 X 59.3470 Y 17.1690 Z 0.0000
G01 X 58.5274 Y 17.5495 Z 0.0000
G01 X 57.8654 Y 18.0238 Z 0.0000
G01 X 57.7086 Y 18.9323 Z 0.0000
G01 X 57.7086 Y 19.9346 Z 0.0000
G01 X 57.7086 Y 20.9363 Z 0.0000
G01 X 57.7086 Y 21.9386 Z 0.0000
G00 Z 7.0000

(End cutting path id: path16917-7)


(Start cutting path id: path16917-7)
(Change tool to Default tool)

G00 Z 7.0000
G00 X 54.9287 Y 16.9348

G01 Z 0.0000 F 100.0000(Penetrate)
G01 X 54.9534 Y 15.8186 Z 0.0000 F 400.0000
G01 X 54.9542 Y 14.7016 Z 0.0000
G01 X 54.9507 Y 13.5849 Z 0.0000
G01 X 54.9449 Y 12.4678 Z 0.0000
G01 X 54.9375 Y 11.3515 Z 0.0000
G01 X 55.1482 Y 10.2966 Z 0.0000
G01 X 55.8943 Y 9.8074 Z 0.0000
G01 X 56.8598 Y 9.3810 Z 0.0000
G01 X 57.8258 Y 8.9545 Z 0.0000
G01 X 58.7910 Y 8.5283 Z 0.0000
G01 X 59.7570 Y 8.1018 Z 0.0000
G01 X 60.7220 Y 7.6757 Z 0.0000
G01 X 61.6881 Y 7.2491 Z 0.0000
G01 X 61.6881 Y 8.0392 Z 0.0000
G01 X 61.6881 Y 8.8290 Z 0.0000
G01 X 61.6881 Y 9.6193 Z 0.0000
G01 X 60.6928 Y 10.0803 Z 0.0000
G01 X 59.6978 Y 10.5413 Z 0.0000
G01 X 58.7034 Y 11.0019 Z 0.0000
G01 X 57.8967 Y 11.5256 Z 0.0000
G01 X 57.7084 Y 12.5751 Z 0.0000
G01 X 57.7084 Y 13.6872 Z 0.0000
G01 X 57.7084 Y 14.7986 Z 0.0000
G01 X 57.7084 Y 15.9106 Z 0.0000
G00 Z 7.0000

(End cutting path id: path16917-7)


(Start cutting path id: path16917-7)
(Change tool to Default tool)

G00 Z 7.0000
G00 X 26.1189 Y 3.6719

G01 Z 0.0000 F 100.0000(Penetrate)
G01 X 26.1189 Y 2.8665 Z 0.0000 F 400.0000
G01 X 26.1189 Y 2.0591 Z 0.0000
G01 X 26.1189 Y 1.2530 Z 0.0000
G00 Z 7.0000

(End cutting path id: path16917-7)


(Start cutting path id: path16917-7)
(Change tool to Default tool)

G00 Z 7.0000
G00 X 29.9884 Y 56.5348

G01 Z 0.0000 F 100.0000(Penetrate)
G01 X 28.9178 Y 56.5385 Z 0.0000 F 400.0000
G01 X 27.8478 Y 56.5416 Z 0.0000
G01 X 26.7770 Y 56.5440 Z 0.0000
G01 X 25.7060 Y 56.5456 Z 0.0000
G01 X 24.6355 Y 56.5460 Z 0.0000
G01 X 23.5657 Y 56.5442 Z 0.0000
G01 X 22.4969 Y 56.5348 Z 0.0000
G01 X 22.5106 Y 57.4561 Z 0.0000
G01 X 22.5250 Y 58.3765 Z 0.0000
G01 X 22.6389 Y 59.2903 Z 0.0000
G01 X 22.9716 Y 60.1436 Z 0.0000
G01 X 23.6532 Y 60.7454 Z 0.0000
G01 X 24.5500 Y 60.9263 Z 0.0000
G01 X 25.4766 Y 60.7961 Z 0.0000
G01 X 26.2587 Y 60.2932 Z 0.0000
G01 X 26.6870 Y 59.4656 Z 0.0000
G01 X 26.7661 Y 58.5334 Z 0.0000
G01 X 27.5845 Y 59.1311 Z 0.0000
G01 X 28.4039 Y 59.7295 Z 0.0000
G01 X 29.2241 Y 60.3285 Z 0.0000
G01 X 30.0428 Y 60.9263 Z 0.0000
G00 Z 7.0000

(End cutting path id: path16917-7)


(Start cutting path id: path16917-7)
(Change tool to Default tool)

G00 Z 7.0000
G00 X 22.7394 Y 34.2768

G01 Z 0.0000 F 100.0000(Penetrate)
G01 X 22.6003 Y 33.3706 Z 0.0000 F 400.0000
G01 X 22.6158 Y 32.4544 Z 0.0000
G01 X 22.9628 Y 31.6180 Z 0.0000
G01 X 23.7585 Y 31.1996 Z 0.0000
G01 X 24.6720 Y 31.2195 Z 0.0000
G01 X 25.4930 Y 31.8630 Z 0.0000
G01 X 25.9222 Y 32.8495 Z 0.0000
G01 X 26.3130 Y 33.7782 Z 0.0000
G01 X 26.9439 Y 34.5508 Z 0.0000
G01 X 27.9033 Y 34.8109 Z 0.0000
G01 X 28.8025 Y 34.5737 Z 0.0000
G01 X 29.4320 Y 33.8871 Z 0.0000
G01 X 29.6988 Y 32.9874 Z 0.0000
G01 X 29.7106 Y 32.0455 Z 0.0000
G01 X 29.5652 Y 31.1154 Z 0.0000
G00 Z 7.0000

(End cutting path id: path16917-7)


(Start cutting path id: path16917-7)
(Change tool to Default tool)

G00 Z 7.0000
G00 X 26.1610 Y 52.7931

G01 Z 0.0000 F 100.0000(Penetrate)
G01 X 27.1098 Y 52.6681 Z 0.0000 F 400.0000
G01 X 27.9932 Y 52.3022 Z 0.0000
G01 X 28.7522 Y 51.7198 Z 0.0000
G01 X 29.3347 Y 50.9606 Z 0.0000
G01 X 29.7006 Y 50.0772 Z 0.0000
G01 X 29.8255 Y 49.1287 Z 0.0000
G01 X 29.7005 Y 48.1799 Z 0.0000
G01 X 29.3346 Y 47.2965 Z 0.0000
G01 X 28.7522 Y 46.5375 Z 0.0000
G01 X 27.9930 Y 45.9550 Z 0.0000
G01 X 27.1096 Y 45.5891 Z 0.0000
G01 X 26.1610 Y 45.4643 Z 0.0000
G01 X 25.2124 Y 45.5882 Z 0.0000
G01 X 24.3286 Y 45.9546 Z 0.0000
G01 X 23.5699 Y 46.5376 Z 0.0000
G01 X 22.9870 Y 47.2963 Z 0.0000
G01 X 22.6205 Y 48.1805 Z 0.0000
G01 X 22.4966 Y 49.1287 Z 0.0000
G01 X 22.6216 Y 50.0774 Z 0.0000
G01 X 22.9875 Y 50.9608 Z 0.0000
G01 X 23.5699 Y 51.7198 Z 0.0000
G01 X 24.3291 Y 52.3023 Z 0.0000
G01 X 25.2125 Y 52.6682 Z 0.0000
G01 X 26.1610 Y 52.7931 Z 0.0000
G01 X 26.1610 Y 52.7931 Z 0.0000
G00 Z 7.0000

(End cutting path id: path16917-7)


(Start cutting path id: path16917-7)
(Change tool to Default tool)

G00 Z 7.0000
G00 X 22.5238 Y 40.3842

G01 Z 0.0000 F 100.0000(Penetrate)
G01 X 23.5905 Y 40.3842 Z 0.0000 F 400.0000
G01 X 24.6578 Y 40.3842 Z 0.0000
G01 X 25.7257 Y 40.3842 Z 0.0000
G01 X 26.7929 Y 40.3842 Z 0.0000
G01 X 27.8610 Y 40.3842 Z 0.0000
G01 X 28.9295 Y 40.3842 Z 0.0000
G01 X 29.9964 Y 40.3842 Z 0.0000
G00 Z 7.0000

(End cutting path id: path16917-7)


(Start cutting path id: path16917-7)
(Change tool to Default tool)

G00 Z 7.0000
G00 X 22.5238 Y 37.6538

G01 Z 0.0000 F 100.0000(Penetrate)
G01 X 22.5238 Y 38.5887 Z 0.0000 F 400.0000
G01 X 22.5238 Y 39.5218 Z 0.0000
G01 X 22.5238 Y 40.4569 Z 0.0000
G01 X 22.5238 Y 41.3907 Z 0.0000
G01 X 22.5238 Y 42.3239 Z 0.0000
G01 X 22.5238 Y 43.2582 Z 0.0000
G00 Z 7.0000

(End cutting path id: path16917-7)


(Start cutting path id: path16917-7)
(Change tool to Default tool)

G00 Z 7.0000
G00 X 27.7690 Y 22.7088

G01 Z 0.0000 F 100.0000(Penetrate)
G01 X 27.7690 Y 23.7865 Z 0.0000 F 400.0000
G01 X 27.7690 Y 24.8643 Z 0.0000
G00 Z 7.0000

(End cutting path id: path16917-7)


(Start cutting path id: path16917-7)
(Change tool to Default tool)

G00 Z 7.0000
G00 X 29.9245 Y 21.7747

G01 Z 0.0000 F 100.0000(Penetrate)
G01 X 29.0093 Y 22.1426 Z 0.0000 F 400.0000
G01 X 28.0926 Y 22.5110 Z 0.0000
G01 X 27.1771 Y 22.8791 Z 0.0000
G01 X 26.2607 Y 23.2474 Z 0.0000
G01 X 25.3447 Y 23.6156 Z 0.0000
G01 X 24.4281 Y 23.9840 Z 0.0000
G01 X 23.5128 Y 24.3520 Z 0.0000
G01 X 22.5957 Y 24.7206 Z 0.0000
G01 X 23.5109 Y 25.0705 Z 0.0000
G01 X 24.4276 Y 25.4210 Z 0.0000
G01 X 25.3431 Y 25.7711 Z 0.0000
G01 X 26.2595 Y 26.1215 Z 0.0000
G01 X 27.1755 Y 26.4717 Z 0.0000
G01 X 28.0921 Y 26.8222 Z 0.0000
G01 X 29.0074 Y 27.1721 Z 0.0000
G01 X 29.9245 Y 27.5228 Z 0.0000
G00 Z 7.0000

(End cutting path id: path16917-7)


(Start cutting path id: path16917-7)
(Change tool to Default tool)

G00 Z 7.0000
G00 X 28.2001 Y 6.9734

G01 Z 0.0000 F 100.0000(Penetrate)
G01 X 27.5115 Y 7.6619 Z 0.0000 F 400.0000
G01 X 26.8232 Y 8.3502 Z 0.0000
G01 X 26.1346 Y 9.0388 Z 0.0000
G01 X 25.4457 Y 9.7277 Z 0.0000
G01 X 24.7578 Y 10.4156 Z 0.0000
G01 X 24.0686 Y 11.1048 Z 0.0000
G00 Z 7.0000

(End cutting path id: path16917-7)


(Start cutting path id: path16917-7)
(Change tool to Default tool)

G00 Z 7.0000
G00 X 26.0445 Y 14.8770

G01 Z 0.0000 F 100.0000(Penetrate)
G01 X 26.0445 Y 15.7155 Z 0.0000 F 400.0000
G01 X 26.0445 Y 16.5529 Z 0.0000
G01 X 26.0445 Y 17.3918 Z 0.0000
G00 Z 7.0000

(End cutting path id: path16917-7)


(Start cutting path id: path16917-7)
(Change tool to Default tool)

G00 Z 7.0000
G00 X 21.7795 Y 12.7546

G01 Z 0.0000 F 100.0000(Penetrate)
G01 X 22.4625 Y 13.4823 Z 0.0000 F 400.0000
G01 X 23.2641 Y 14.0768 Z 0.0000
G01 X 24.1599 Y 14.5173 Z 0.0000
G01 X 25.1214 Y 14.7873 Z 0.0000
G01 X 26.1164 Y 14.8777 Z 0.0000
G01 X 26.1164 Y 14.8777 Z 0.0000
G01 X 27.2021 Y 14.7699 Z 0.0000
G01 X 28.2452 Y 14.4480 Z 0.0000
G01 X 29.2039 Y 13.9249 Z 0.0000
G01 X 30.0413 Y 13.2240 Z 0.0000
G01 X 30.7273 Y 12.3731 Z 0.0000
G01 X 31.2350 Y 11.4070 Z 0.0000
G01 X 31.5463 Y 10.3598 Z 0.0000
G01 X 31.6503 Y 9.2726 Z 0.0000
G01 X 31.6056 Y 8.5563 Z 0.0000
G00 Z 7.0000

(End cutting path id: path16917-7)


(Start cutting path id: path16917-7)
(Change tool to Default tool)

G00 Z 7.0000
G00 X 30.1580 Y 5.4437

G01 Z 0.0000 F 100.0000(Penetrate)
G01 X 29.4902 Y 4.8293 Z 0.0000 F 400.0000
G01 X 28.7308 Y 4.3312 Z 0.0000
G01 X 27.9006 Y 3.9652 Z 0.0000
G01 X 27.0204 Y 3.7419 Z 0.0000
G01 X 26.1164 Y 3.6675 Z 0.0000
G01 X 25.0307 Y 3.7753 Z 0.0000
G01 X 23.9876 Y 4.0972 Z 0.0000
G01 X 23.0289 Y 4.6203 Z 0.0000
G01 X 22.1914 Y 5.3213 Z 0.0000
G01 X 21.5055 Y 6.1721 Z 0.0000
G01 X 20.9978 Y 7.1382 Z 0.0000
G01 X 20.6865 Y 8.1854 Z 0.0000
G01 X 20.5824 Y 9.2726 Z 0.0000
G01 X 20.6297 Y 10.0085 Z 0.0000
G00 Z 7.0000

(End cutting path id: path16917-7)



(Footer)
M5
G00 X0.0000 Y0.0000
M2
(Using default footer. To add your own footer create file "footer" in the output dir.)
(end)
%