%
(Header)
(Generated by gcodetools from Inkscape.)
(Using default header. To add your own header create file "header" in the output dir.)
M3
(Header end.)
G21 (All units in mm)

(Start cutting path id: path358)
(Change tool to Default tool)

G00 Z 7.0000
G00 X 12.3556 Y 24.3653

G01 Z 0.0000 F 100.0000(Penetrate)
G01 X 11.4415 Y 24.5335 Z 0.0000 F 400.0000
G01 X 10.5487 Y 24.7855 Z 0.0000
G01 X 11.0125 Y 25.3124 Z 0.0000
G01 X 11.5099 Y 25.8142 Z 0.0000
G01 X 12.0122 Y 26.3163 Z 0.0000
G01 X 12.5145 Y 26.8185 Z 0.0000
G01 X 12.7955 Y 26.7841 Z 0.0000
G01 X 13.7322 Y 26.7589 Z 0.0000
G01 X 14.6619 Y 26.8871 Z 0.0000
G01 X 15.5628 Y 27.1492 Z 0.0000
G01 X 16.4140 Y 27.5448 Z 0.0000
G01 X 17.1903 Y 28.0672 Z 0.0000
G01 X 17.8806 Y 28.7000 Z 0.0000
G01 X 18.4662 Y 29.4286 Z 0.0000
G01 X 18.9355 Y 30.2391 Z 0.0000
G01 X 19.2776 Y 31.1102 Z 0.0000
G01 X 19.4878 Y 32.0209 Z 0.0000
G01 X 19.5398 Y 32.9047 Z 0.0000
G01 X 19.4878 Y 33.7885 Z 0.0000
G01 X 19.2718 Y 34.7170 Z 0.0000
G01 X 18.9196 Y 35.6025 Z 0.0000
G01 X 18.4370 Y 36.4242 Z 0.0000
G01 X 17.8341 Y 37.1610 Z 0.0000
G01 X 17.1225 Y 37.7954 Z 0.0000
G01 X 16.8133 Y 38.0301 Z 0.0000
G01 X 17.2514 Y 38.4684 Z 0.0000
G01 X 17.6895 Y 38.9067 Z 0.0000
G01 X 18.1361 Y 39.3504 Z 0.0000
G01 X 18.6146 Y 39.7462 Z 0.0000
G01 X 19.4124 Y 39.0553 Z 0.0000
G01 X 20.1170 Y 38.2684 Z 0.0000
G01 X 20.7209 Y 37.4012 Z 0.0000
G01 X 21.2162 Y 36.4693 Z 0.0000
G01 X 21.5966 Y 35.4833 Z 0.0000
G01 X 21.8521 Y 34.4593 Z 0.0000
G01 X 21.9055 Y 34.1674 Z 0.0000
G01 X 22.8666 Y 34.1674 Z 0.0000
G01 X 23.8277 Y 34.1674 Z 0.0000
G01 X 24.7901 Y 34.1653 Z 0.0000
G01 X 25.7500 Y 34.1525 Z 0.0000
G01 X 25.3180 Y 33.5474 Z 0.0000
G01 X 24.8804 Y 32.9452 Z 0.0000
G01 X 24.4457 Y 32.3489 Z 0.0000
G01 X 24.0109 Y 31.7526 Z 0.0000
G01 X 22.9655 Y 31.7368 Z 0.0000
G01 X 21.9200 Y 31.7210 Z 0.0000
G01 X 21.8505 Y 31.3422 Z 0.0000
G01 X 21.6718 Y 30.5670 Z 0.0000
G01 X 21.4167 Y 29.8127 Z 0.0000
G01 X 21.0916 Y 29.0867 Z 0.0000
G01 X 20.6079 Y 28.2286 Z 0.0000
G01 X 20.0252 Y 27.4362 Z 0.0000
G01 X 19.3540 Y 26.7173 Z 0.0000
G01 X 18.5493 Y 26.0255 Z 0.0000
G01 X 17.6637 Y 25.4390 Z 0.0000
G01 X 16.7109 Y 24.9688 Z 0.0000
G01 X 15.7077 Y 24.6210 Z 0.0000
G01 X 14.6705 Y 24.3958 Z 0.0000
G01 X 13.9000 Y 24.3402 Z 0.0000
G01 X 13.1265 Y 24.3302 Z 0.0000
G01 X 12.3556 Y 24.3652 Z 0.0000
G01 X 12.3556 Y 24.3653 Z 0.0000
G00 Z 7.0000

(End cutting path id: path358)


(Start cutting path id: path358)
(Change tool to Default tool)

G00 Z 7.0000
G00 X 7.8997 Y 26.2873

G01 Z 0.0000 F 100.0000(Penetrate)
G01 X 7.2506 Y 26.8962 Z 0.0000 F 400.0000
G01 X 6.6533 Y 27.5543 Z 0.0000
G01 X 6.1637 Y 28.2512 Z 0.0000
G01 X 5.7385 Y 28.9908 Z 0.0000
G01 X 5.4083 Y 29.7062 Z 0.0000
G01 X 5.1484 Y 30.4501 Z 0.0000
G01 X 4.9641 Y 31.2159 Z 0.0000
G01 X 4.8640 Y 31.7210 Z 0.0000
G01 X 3.9074 Y 31.7289 Z 0.0000
G01 X 2.9507 Y 31.7368 Z 0.0000
G01 X 1.9940 Y 31.7447 Z 0.0000
G01 X 1.0374 Y 31.7526 Z 0.0000
G01 X 1.4760 Y 32.3523 Z 0.0000
G01 X 1.9147 Y 32.9521 Z 0.0000
G01 X 2.3533 Y 33.5518 Z 0.0000
G01 X 2.7919 Y 34.1516 Z 0.0000
G01 X 3.8349 Y 34.1596 Z 0.0000
G01 X 4.8778 Y 34.1676 Z 0.0000
G01 X 4.9328 Y 34.4749 Z 0.0000
G01 X 5.1619 Y 35.4169 Z 0.0000
G01 X 5.4999 Y 36.3254 Z 0.0000
G01 X 5.9379 Y 37.1915 Z 0.0000
G01 X 6.4671 Y 38.0030 Z 0.0000
G01 X 7.0835 Y 38.7529 Z 0.0000
G01 X 7.8433 Y 39.4780 Z 0.0000
G01 X 8.6879 Y 40.1040 Z 0.0000
G01 X 9.5994 Y 40.6239 Z 0.0000
G01 X 10.5668 Y 41.0314 Z 0.0000
G01 X 11.5790 Y 41.3154 Z 0.0000
G01 X 12.4799 Y 41.4531 Z 0.0000
G01 X 13.3903 Y 41.4978 Z 0.0000
G01 X 14.3006 Y 41.4538 Z 0.0000
G01 X 15.2006 Y 41.3162 Z 0.0000
G01 X 15.7632 Y 41.1729 Z 0.0000
G01 X 16.3119 Y 40.9873 Z 0.0000
G01 X 15.8198 Y 40.4792 Z 0.0000
G01 X 15.3213 Y 39.9784 Z 0.0000
G01 X 14.8260 Y 39.4833 Z 0.0000
G01 X 14.3308 Y 38.9882 Z 0.0000
G01 X 14.0296 Y 39.0237 Z 0.0000
G01 X 12.9917 Y 39.0514 Z 0.0000
G01 X 11.9653 Y 38.8943 Z 0.0000
G01 X 10.9808 Y 38.5626 Z 0.0000
G01 X 10.0651 Y 38.0708 Z 0.0000
G01 X 9.2442 Y 37.4364 Z 0.0000
G01 X 8.5385 Y 36.6755 Z 0.0000
G01 X 7.9690 Y 35.8066 Z 0.0000
G01 X 7.5558 Y 34.8533 Z 0.0000
G01 X 7.3550 Y 34.0789 Z 0.0000
G01 X 7.2516 Y 33.2852 Z 0.0000
G01 X 7.2529 Y 32.4857 Z 0.0000
G01 X 7.3720 Y 31.6457 Z 0.0000
G01 X 7.6019 Y 30.8287 Z 0.0000
G01 X 7.9447 Y 30.0519 Z 0.0000
G01 X 8.3881 Y 29.3286 Z 0.0000
G01 X 9.0221 Y 28.6085 Z 0.0000
G01 X 9.7305 Y 27.9641 Z 0.0000
G01 X 9.9973 Y 27.7679 Z 0.0000
G01 X 9.4280 Y 27.1734 Z 0.0000
G01 X 8.8442 Y 26.5915 Z 0.0000
G01 X 8.2471 Y 26.0230 Z 0.0000
G01 X 7.8997 Y 26.2866 Z 0.0000
G01 X 7.8997 Y 26.2873 Z 0.0000
G00 Z 7.0000

(End cutting path id: path358)


(Start cutting path id: path358)
(Change tool to Default tool)

G00 Z 7.0000
G00 X 66.7378 Y 26.9592

G01 Z 0.0000 F 100.0000(Penetrate)
G01 X 65.7693 Y 27.1431 Z 0.0000 F 400.0000
G01 X 64.8445 Y 27.4876 Z 0.0000
G01 X 63.9978 Y 27.9922 Z 0.0000
G01 X 63.1962 Y 28.6873 Z 0.0000
G01 X 62.5361 Y 29.5173 Z 0.0000
G01 X 62.0355 Y 30.4518 Z 0.0000
G01 X 61.7058 Y 31.4595 Z 0.0000
G01 X 61.5544 Y 32.5094 Z 0.0000
G01 X 61.5858 Y 33.5688 Z 0.0000
G01 X 61.8014 Y 34.6076 Z 0.0000
G01 X 62.1969 Y 35.5923 Z 0.0000
G01 X 62.7197 Y 36.4429 Z 0.0000
G01 X 63.3861 Y 37.1877 Z 0.0000
G01 X 64.0474 Y 37.7372 Z 0.0000
G01 X 64.7848 Y 38.1804 Z 0.0000
G01 X 65.5826 Y 38.5026 Z 0.0000
G01 X 66.4225 Y 38.6964 Z 0.0000
G01 X 67.2428 Y 38.7427 Z 0.0000
G01 X 68.0632 Y 38.6964 Z 0.0000
G01 X 68.9029 Y 38.5028 Z 0.0000
G01 X 69.7020 Y 38.1799 Z 0.0000
G01 X 70.4418 Y 37.7343 Z 0.0000
G01 X 71.1051 Y 37.1824 Z 0.0000
G01 X 71.8161 Y 36.3748 Z 0.0000
G01 X 72.3604 Y 35.4457 Z 0.0000
G01 X 72.6865 Y 34.6088 Z 0.0000
G01 X 72.8790 Y 33.7309 Z 0.0000
G01 X 72.9402 Y 32.8353 Z 0.0000
G01 X 72.8509 Y 31.7902 Z 0.0000
G01 X 72.5821 Y 30.7764 Z 0.0000
G01 X 72.1409 Y 29.8257 Z 0.0000
G01 X 71.5395 Y 28.9675 Z 0.0000
G01 X 70.7937 Y 28.2288 Z 0.0000
G01 X 69.9272 Y 27.6385 Z 0.0000
G01 X 68.9654 Y 27.2187 Z 0.0000
G01 X 67.9436 Y 26.9871 Z 0.0000
G01 X 67.3409 Y 26.9466 Z 0.0000
G01 X 66.7378 Y 26.9592 Z 0.0000
G01 X 66.7378 Y 26.9592 Z 0.0000
G00 Z 7.0000

(End cutting path id: path358)


(Start cutting path id: path358)
(Change tool to Default tool)

G00 Z 7.0000
G00 X 67.9281 Y 29.1340

G01 Z 0.0000 F 100.0000(Penetrate)
G01 X 68.9249 Y 29.4972 Z 0.0000 F 400.0000
G01 X 69.7696 Y 30.1406 Z 0.0000
G01 X 70.4021 Y 30.9772 Z 0.0000
G01 X 70.7817 Y 31.9535 Z 0.0000
G01 X 70.8810 Y 32.9953 Z 0.0000
G01 X 70.6971 Y 34.0276 Z 0.0000
G01 X 70.3468 Y 34.8185 Z 0.0000
G01 X 69.8183 Y 35.5022 Z 0.0000
G01 X 69.1578 Y 36.0611 Z 0.0000
G01 X 68.3791 Y 36.4367 Z 0.0000
G01 X 67.4039 Y 36.6232 Z 0.0000
G01 X 66.4163 Y 36.5313 Z 0.0000
G01 X 65.4947 Y 36.1606 Z 0.0000
G01 X 64.7100 Y 35.5509 Z 0.0000
G01 X 64.3121 Y 35.0894 Z 0.0000
G01 X 64.0056 Y 34.5619 Z 0.0000
G01 X 63.6707 Y 33.5789 Z 0.0000
G01 X 63.6114 Y 32.5428 Z 0.0000
G01 X 63.8322 Y 31.5279 Z 0.0000
G01 X 64.3142 Y 30.6094 Z 0.0000
G01 X 65.0262 Y 29.8540 Z 0.0000
G01 X 65.9208 Y 29.3268 Z 0.0000
G01 X 66.9272 Y 29.0737 Z 0.0000
G01 X 67.9281 Y 29.1340 Z 0.0000
G01 X 67.9281 Y 29.1340 Z 0.0000
G00 Z 7.0000

(End cutting path id: path358)


(Start cutting path id: path358)
(Change tool to Default tool)

G00 Z 7.0000
G00 X 44.2631 Y 27.0850

G01 Z 0.0000 F 100.0000(Penetrate)
G01 X 43.6840 Y 27.1656 Z 0.0000 F 400.0000
G01 X 43.1110 Y 27.2743 Z 0.0000
G01 X 42.4653 Y 27.4510 Z 0.0000
G01 X 41.8349 Y 27.6750 Z 0.0000
G01 X 42.0849 Y 28.5331 Z 0.0000
G01 X 42.4188 Y 29.4349 Z 0.0000
G01 X 42.4512 Y 29.5162 Z 0.0000
G01 X 42.7480 Y 29.4128 Z 0.0000
G01 X 43.4592 Y 29.2097 Z 0.0000
G01 X 44.1835 Y 29.0675 Z 0.0000
G01 X 44.9880 Y 29.0235 Z 0.0000
G01 X 45.7852 Y 29.1246 Z 0.0000
G01 X 46.3533 Y 29.4579 Z 0.0000
G01 X 46.7376 Y 29.9900 Z 0.0000
G01 X 46.8462 Y 30.7484 Z 0.0000
G01 X 46.5294 Y 31.4384 Z 0.0000
G01 X 45.7286 Y 31.9014 Z 0.0000
G01 X 44.8629 Y 32.2439 Z 0.0000
G01 X 43.9102 Y 32.6565 Z 0.0000
G01 X 43.0372 Y 33.2156 Z 0.0000
G01 X 42.4208 Y 34.0428 Z 0.0000
G01 X 42.1594 Y 35.0091 Z 0.0000
G01 X 42.1432 Y 35.6117 Z 0.0000
G01 X 42.2098 Y 36.2113 Z 0.0000
G01 X 42.5294 Y 37.0167 Z 0.0000
G01 X 43.0583 Y 37.7041 Z 0.0000
G01 X 43.7512 Y 38.2222 Z 0.0000
G01 X 44.5565 Y 38.5443 Z 0.0000
G01 X 45.6245 Y 38.6464 Z 0.0000
G01 X 46.6963 Y 38.5595 Z 0.0000
G01 X 47.7503 Y 38.3473 Z 0.0000
G01 X 48.1855 Y 38.2257 Z 0.0000
G01 X 47.9259 Y 37.3278 Z 0.0000
G01 X 47.6564 Y 36.4274 Z 0.0000
G01 X 47.3619 Y 36.4899 Z 0.0000
G01 X 46.6298 Y 36.6364 Z 0.0000
G01 X 45.8867 Y 36.7048 Z 0.0000
G01 X 45.1463 Y 36.6375 Z 0.0000
G01 X 44.6032 Y 36.3257 Z 0.0000
G01 X 44.2740 Y 35.7970 Z 0.0000
G01 X 44.2468 Y 35.2309 Z 0.0000
G01 X 44.5402 Y 34.7493 Z 0.0000
G01 X 45.1835 Y 34.3897 Z 0.0000
G01 X 45.8794 Y 34.1401 Z 0.0000
G01 X 46.8853 Y 33.7754 Z 0.0000
G01 X 47.8129 Y 33.2491 Z 0.0000
G01 X 48.5002 Y 32.4824 Z 0.0000
G01 X 48.8656 Y 31.5157 Z 0.0000
G01 X 48.9348 Y 30.6663 Z 0.0000
G01 X 48.8780 Y 29.8180 Z 0.0000
G01 X 48.5626 Y 28.9588 Z 0.0000
G01 X 48.0274 Y 28.2157 Z 0.0000
G01 X 47.4475 Y 27.7213 Z 0.0000
G01 X 46.7751 Y 27.3652 Z 0.0000
G01 X 46.0466 Y 27.1437 Z 0.0000
G01 X 45.1554 Y 27.0818 Z 0.0000
G01 X 44.2631 Y 27.0849 Z 0.0000
G01 X 44.2631 Y 27.0850 Z 0.0000
G00 Z 7.0000

(End cutting path id: path358)


(Start cutting path id: path358)
(Change tool to Default tool)

G00 Z 7.0000
G00 X 29.2243 Y 27.4202

G01 Z 0.0000 F 100.0000(Penetrate)
G01 X 29.5816 Y 28.3613 Z 0.0000 F 400.0000
G01 X 29.9384 Y 29.3014 Z 0.0000
G01 X 30.2952 Y 30.2414 Z 0.0000
G01 X 30.6523 Y 31.1820 Z 0.0000
G01 X 31.0089 Y 32.1218 Z 0.0000
G01 X 31.3660 Y 33.0626 Z 0.0000
G01 X 31.7127 Y 33.9761 Z 0.0000
G01 X 32.0588 Y 34.8880 Z 0.0000
G01 X 32.4056 Y 35.8017 Z 0.0000
G01 X 32.7519 Y 36.7143 Z 0.0000
G01 X 33.0980 Y 37.6262 Z 0.0000
G01 X 33.4445 Y 38.5392 Z 0.0000
G01 X 34.3533 Y 38.5392 Z 0.0000
G01 X 35.2622 Y 38.5392 Z 0.0000
G01 X 35.6189 Y 37.5993 Z 0.0000
G01 X 35.9750 Y 36.6611 Z 0.0000
G01 X 36.3318 Y 35.7211 Z 0.0000
G01 X 36.6882 Y 34.7822 Z 0.0000
G01 X 37.0443 Y 33.8440 Z 0.0000
G01 X 37.4008 Y 32.9047 Z 0.0000
G01 X 37.7576 Y 31.9648 Z 0.0000
G01 X 38.1137 Y 31.0267 Z 0.0000
G01 X 38.4705 Y 30.0867 Z 0.0000
G01 X 38.8269 Y 29.1478 Z 0.0000
G01 X 39.1830 Y 28.2096 Z 0.0000
G01 X 39.5395 Y 27.2703 Z 0.0000
G01 X 38.9854 Y 27.2663 Z 0.0000
G01 X 38.4312 Y 27.2623 Z 0.0000
G01 X 37.8669 Y 27.2618 Z 0.0000
G01 X 37.3051 Y 27.2834 Z 0.0000
G01 X 37.0389 Y 28.0184 Z 0.0000
G01 X 36.7760 Y 28.7556 Z 0.0000
G01 X 36.5146 Y 29.4914 Z 0.0000
G01 X 36.2570 Y 30.2139 Z 0.0000
G01 X 35.9957 Y 30.9334 Z 0.0000
G01 X 35.7097 Y 31.6422 Z 0.0000
G01 X 35.3596 Y 31.1730 Z 0.0000
G01 X 35.0144 Y 30.6987 Z 0.0000
G01 X 34.6830 Y 30.2410 Z 0.0000
G01 X 34.3516 Y 29.7832 Z 0.0000
G01 X 33.3318 Y 29.7821 Z 0.0000
G01 X 32.3120 Y 29.7810 Z 0.0000
G01 X 32.2549 Y 29.6469 Z 0.0000
G01 X 32.0219 Y 29.0172 Z 0.0000
G01 X 31.7940 Y 28.3843 Z 0.0000
G01 X 31.5921 Y 27.8200 Z 0.0000
G01 X 31.3902 Y 27.2558 Z 0.0000
G01 X 30.8329 Y 27.2558 Z 0.0000
G01 X 30.2757 Y 27.2558 Z 0.0000
G01 X 29.7184 Y 27.2558 Z 0.0000
G01 X 29.1612 Y 27.2558 Z 0.0000
G01 X 29.2243 Y 27.4215 Z 0.0000
G01 X 29.2243 Y 27.4202 Z 0.0000
G00 Z 7.0000

(End cutting path id: path358)


(Start cutting path id: path358)
(Change tool to Default tool)

G00 Z 7.0000
G00 X 35.7163 Y 31.7447

G01 Z 0.0000 F 100.0000(Penetrate)
G01 X 35.3812 Y 32.6875 Z 0.0000 F 400.0000
G01 X 35.0469 Y 33.6307 Z 0.0000
G01 X 34.7129 Y 34.5681 Z 0.0000
G01 X 34.3708 Y 35.5007 Z 0.0000
G01 X 34.0157 Y 34.5631 Z 0.0000
G01 X 33.6737 Y 33.6215 Z 0.0000
G01 X 33.3355 Y 32.6774 Z 0.0000
G01 X 33.0099 Y 31.7289 Z 0.0000
G01 X 33.6894 Y 31.7084 Z 0.0000
G01 X 34.3707 Y 31.7052 Z 0.0000
G01 X 35.0468 Y 31.7070 Z 0.0000
G01 X 35.7163 Y 31.7447 Z 0.0000
G01 X 35.7163 Y 31.7447 Z 0.0000
G00 Z 7.0000

(End cutting path id: path358)


(Start cutting path id: path358)
(Change tool to Default tool)

G00 Z 7.0000
G00 X 54.5377 Y 31.9262

G01 Z 0.0000 F 100.0000(Penetrate)
G01 X 54.5377 Y 32.8603 Z 0.0000 F 400.0000
G01 X 54.5377 Y 33.7951 Z 0.0000
G01 X 54.5377 Y 34.7285 Z 0.0000
G01 X 54.5377 Y 35.6636 Z 0.0000
G01 X 54.5377 Y 36.5979 Z 0.0000
G01 X 53.6933 Y 36.5979 Z 0.0000
G01 X 52.8490 Y 36.5979 Z 0.0000
G01 X 52.0046 Y 36.5979 Z 0.0000
G01 X 51.1602 Y 36.5979 Z 0.0000
G01 X 51.1602 Y 37.5764 Z 0.0000
G01 X 51.1602 Y 38.5549 Z 0.0000
G01 X 52.0439 Y 38.5549 Z 0.0000
G01 X 52.9281 Y 38.5549 Z 0.0000
G01 X 53.8111 Y 38.5549 Z 0.0000
G01 X 54.6956 Y 38.5549 Z 0.0000
G01 X 55.5794 Y 38.5549 Z 0.0000
G01 X 56.4630 Y 38.5549 Z 0.0000
G01 X 57.3472 Y 38.5549 Z 0.0000
G01 X 58.2302 Y 38.5549 Z 0.0000
G01 X 59.1147 Y 38.5549 Z 0.0000
G01 X 59.9986 Y 38.5549 Z 0.0000
G01 X 59.9986 Y 37.5764 Z 0.0000
G01 X 59.9986 Y 36.5979 Z 0.0000
G01 X 59.1542 Y 36.5979 Z 0.0000
G01 X 58.3098 Y 36.5979 Z 0.0000
G01 X 57.4654 Y 36.5979 Z 0.0000
G01 X 56.6210 Y 36.5979 Z 0.0000
G01 X 56.6210 Y 35.6637 Z 0.0000
G01 X 56.6210 Y 34.7290 Z 0.0000
G01 X 56.6210 Y 33.7956 Z 0.0000
G01 X 56.6210 Y 32.8605 Z 0.0000
G01 X 56.6210 Y 31.9262 Z 0.0000
G01 X 56.6210 Y 30.9920 Z 0.0000
G01 X 56.6210 Y 30.0573 Z 0.0000
G01 X 56.6210 Y 29.1239 Z 0.0000
G01 X 56.6210 Y 28.1888 Z 0.0000
G01 X 56.6210 Y 27.2545 Z 0.0000
G01 X 55.5794 Y 27.2545 Z 0.0000
G01 X 54.5377 Y 27.2545 Z 0.0000
G01 X 54.5377 Y 28.1886 Z 0.0000
G01 X 54.5377 Y 29.1234 Z 0.0000
G01 X 54.5377 Y 30.0568 Z 0.0000
G01 X 54.5377 Y 30.9919 Z 0.0000
G01 X 54.5377 Y 31.9262 Z 0.0000
G00 Z 7.0000

(End cutting path id: path358)


(Start cutting path id: path358)
(Change tool to Default tool)

G00 Z 7.0000
G00 X 76.1601 Y 32.9047

G01 Z 0.0000 F 100.0000(Penetrate)
G01 X 76.1601 Y 33.8473 Z 0.0000 F 400.0000
G01 X 76.1601 Y 34.7880 Z 0.0000
G01 X 76.1601 Y 35.7307 Z 0.0000
G01 X 76.1601 Y 36.6722 Z 0.0000
G01 X 76.1601 Y 37.6130 Z 0.0000
G01 X 76.1601 Y 38.5549 Z 0.0000
G01 X 77.1189 Y 38.5545 Z 0.0000
G01 X 78.0777 Y 38.5541 Z 0.0000
G01 X 78.8473 Y 38.5515 Z 0.0000
G01 X 79.6177 Y 38.5437 Z 0.0000
G01 X 80.3868 Y 38.5230 Z 0.0000
G01 X 81.2377 Y 38.3775 Z 0.0000
G01 X 82.0424 Y 38.0645 Z 0.0000
G01 X 82.7565 Y 37.5799 Z 0.0000
G01 X 83.3354 Y 36.9407 Z 0.0000
G01 X 83.6540 Y 36.3694 Z 0.0000
G01 X 83.8852 Y 35.7562 Z 0.0000
G01 X 83.9692 Y 34.7670 Z 0.0000
G01 X 83.8840 Y 33.7727 Z 0.0000
G01 X 83.6267 Y 33.1058 Z 0.0000
G01 X 83.2288 Y 32.4594 Z 0.0000
G01 X 82.7023 Y 31.9147 Z 0.0000
G01 X 82.0715 Y 31.4930 Z 0.0000
G01 X 81.8434 Y 31.3694 Z 0.0000
G01 X 82.3372 Y 30.6889 Z 0.0000
G01 X 82.8321 Y 30.0069 Z 0.0000
G01 X 83.3263 Y 29.3260 Z 0.0000
G01 X 83.8220 Y 28.6421 Z 0.0000
G01 X 84.3169 Y 27.9572 Z 0.0000
G01 X 84.8091 Y 27.2685 Z 0.0000
G01 X 85.0679 Y 27.2652 Z 0.0000
G01 X 84.8091 Y 27.2685 Z 0.0000
G01 X 83.9735 Y 27.2646 Z 0.0000
G01 X 83.1359 Y 27.2607 Z 0.0000
G01 X 82.2996 Y 27.2568 Z 0.0000
G01 X 81.7951 Y 27.9533 Z 0.0000
G01 X 81.2899 Y 28.6506 Z 0.0000
G01 X 80.7842 Y 29.3486 Z 0.0000
G01 X 80.2794 Y 30.0453 Z 0.0000
G01 X 79.7749 Y 30.7417 Z 0.0000
G01 X 79.2697 Y 31.4391 Z 0.0000
G01 X 78.7640 Y 32.1370 Z 0.0000
G01 X 78.2593 Y 32.8337 Z 0.0000
G01 X 78.2566 Y 31.9048 Z 0.0000
G01 X 78.2539 Y 30.9736 Z 0.0000
G01 X 78.2512 Y 30.0440 Z 0.0000
G01 X 78.2485 Y 29.1151 Z 0.0000
G01 X 78.2458 Y 28.1839 Z 0.0000
G01 X 78.2431 Y 27.2543 Z 0.0000
G01 X 77.2016 Y 27.2543 Z 0.0000
G01 X 76.1601 Y 27.2543 Z 0.0000
G01 X 76.1601 Y 28.1968 Z 0.0000
G01 X 76.1601 Y 29.1376 Z 0.0000
G01 X 76.1601 Y 30.0803 Z 0.0000
G01 X 76.1601 Y 31.0217 Z 0.0000
G01 X 76.1601 Y 31.9626 Z 0.0000
G01 X 76.1601 Y 32.9045 Z 0.0000
G01 X 76.1599 Y 32.9048 Z 0.0000
G00 Z 7.0000

(End cutting path id: path358)


(Start cutting path id: path358)
(Change tool to Default tool)

G00 Z 7.0000
G00 X 80.6736 Y 32.9962

G01 Z 0.0000 F 100.0000(Penetrate)
G01 X 81.4810 Y 33.4564 Z 0.0000 F 400.0000
G01 X 81.8491 Y 34.0592 Z 0.0000
G01 X 81.9355 Y 34.7671 Z 0.0000
G01 X 81.8889 Y 35.3277 Z 0.0000
G01 X 81.5913 Y 35.9517 Z 0.0000
G01 X 81.0525 Y 36.3867 Z 0.0000
G01 X 80.2148 Y 36.6031 Z 0.0000
G01 X 79.3401 Y 36.6217 Z 0.0000
G01 X 78.2432 Y 36.6338 Z 0.0000
G01 X 78.2432 Y 35.7003 Z 0.0000
G01 X 78.2432 Y 34.7668 Z 0.0000
G01 X 78.2432 Y 33.8332 Z 0.0000
G01 X 78.2432 Y 32.8997 Z 0.0000
G01 X 79.3401 Y 32.9125 Z 0.0000
G01 X 80.0095 Y 32.9227 Z 0.0000
G01 X 80.6735 Y 32.9962 Z 0.0000
G01 X 80.6735 Y 32.9962 Z 0.0000
G00 Z 7.0000

(End cutting path id: path358)


(Start cutting path id: path358)
(Change tool to Default tool)

G00 Z 7.0000
G00 X 9.9434 Y 29.4404

G01 Z 0.0000 F 100.0000(Penetrate)
G01 X 9.5134 Y 29.8706 Z 0.0000 F 400.0000
G01 X 9.0835 Y 30.3007 Z 0.0000
G01 X 9.7699 Y 30.9871 Z 0.0000
G01 X 10.4568 Y 31.6739 Z 0.0000
G01 X 11.1426 Y 32.3598 Z 0.0000
G01 X 11.8297 Y 33.0468 Z 0.0000
G01 X 12.5162 Y 33.7334 Z 0.0000
G01 X 13.2065 Y 34.4229 Z 0.0000
G01 X 13.8967 Y 35.1111 Z 0.0000
G01 X 14.5890 Y 35.7996 Z 0.0000
G01 X 15.2813 Y 36.4855 Z 0.0000
G01 X 15.9807 Y 37.1660 Z 0.0000
G01 X 16.4279 Y 36.7459 Z 0.0000
G01 X 16.8643 Y 36.3136 Z 0.0000
G01 X 17.2903 Y 35.8874 Z 0.0000
G01 X 17.7163 Y 35.4613 Z 0.0000
G01 X 17.0283 Y 34.7733 Z 0.0000
G01 X 16.3399 Y 34.0849 Z 0.0000
G01 X 15.6525 Y 33.3974 Z 0.0000
G01 X 14.9639 Y 32.7088 Z 0.0000
G01 X 14.2758 Y 32.0207 Z 0.0000
G01 X 13.5857 Y 31.3309 Z 0.0000
G01 X 12.8956 Y 30.6418 Z 0.0000
G01 X 12.2045 Y 29.9526 Z 0.0000
G01 X 11.5133 Y 29.2646 Z 0.0000
G01 X 10.8193 Y 28.5801 Z 0.0000
G01 X 10.3783 Y 29.0075 Z 0.0000
G01 X 9.9434 Y 29.4404 Z 0.0000
G01 X 9.9434 Y 29.4404 Z 0.0000
G00 Z 7.0000

(End cutting path id: path358)



(Footer)
M5
G00 X0.0000 Y0.0000
M2
(Using default footer. To add your own footer create file "footer" in the output dir.)
(end)
%