%
(Header)
(Generated by gcodetools from Inkscape.)
(Using default header. To add your own header create file "header" in the output dir.)
M3
(Header end.)
G21 (All units in mm)

(Start cutting path id: path354)
(Change tool to Default tool)

G00 Z 7.0000
G00 X 38.0414 Y 21.5382

G01 Z 0.0000 F 100.0000(Penetrate)
G01 X 36.9608 Y 21.5839 Z 0.0000 F 400.0000
G01 X 35.8813 Y 21.6354 Z 0.0000
G01 X 34.8019 Y 21.6932 Z 0.0000
G01 X 33.7233 Y 21.7577 Z 0.0000
G01 X 32.6458 Y 21.8293 Z 0.0000
G01 X 31.5682 Y 21.9087 Z 0.0000
G01 X 30.4920 Y 21.9963 Z 0.0000
G01 X 29.4155 Y 22.0928 Z 0.0000
G01 X 28.3402 Y 22.1985 Z 0.0000
G01 X 27.2659 Y 22.3139 Z 0.0000
G01 X 26.1918 Y 22.4398 Z 0.0000
G01 X 25.1202 Y 22.5761 Z 0.0000
G01 X 24.0500 Y 22.7236 Z 0.0000
G01 X 22.9816 Y 22.8823 Z 0.0000
G01 X 21.9143 Y 23.0528 Z 0.0000
G01 X 20.8490 Y 23.2350 Z 0.0000
G01 X 19.7866 Y 23.4289 Z 0.0000
G01 X 18.7247 Y 23.6347 Z 0.0000
G01 X 17.7643 Y 23.8306 Z 0.0000
G01 X 16.8064 Y 24.0364 Z 0.0000
G01 X 15.8523 Y 24.2555 Z 0.0000
G01 X 14.9004 Y 24.4916 Z 0.0000
G01 X 13.9541 Y 24.7460 Z 0.0000
G01 X 13.0129 Y 25.0184 Z 0.0000
G01 X 12.0756 Y 25.3067 Z 0.0000
G01 X 11.1431 Y 25.6070 Z 0.0000
G01 X 10.1810 Y 25.9307 Z 0.0000
G01 X 9.2266 Y 26.2741 Z 0.0000
G01 X 8.2814 Y 26.6460 Z 0.0000
G01 X 7.3508 Y 27.0505 Z 0.0000
G01 X 6.4341 Y 27.4859 Z 0.0000
G01 X 5.4903 Y 27.9771 Z 0.0000
G01 X 4.5731 Y 28.5161 Z 0.0000
G01 X 3.6937 Y 29.1137 Z 0.0000
G01 X 2.8676 Y 29.7851 Z 0.0000
G01 X 2.1244 Y 30.5458 Z 0.0000
G01 X 1.5088 Y 31.4105 Z 0.0000
G01 X 1.0820 Y 32.3833 Z 0.0000
G01 X 0.9812 Y 33.3390 Z 0.0000
G01 X 1.0744 Y 34.2974 Z 0.0000
G01 X 1.4321 Y 35.1855 Z 0.0000
G01 X 1.9681 Y 35.9795 Z 0.0000
G01 X 2.6127 Y 36.6901 Z 0.0000
G01 X 3.3421 Y 37.3466 Z 0.0000
G01 X 4.1275 Y 37.9351 Z 0.0000
G01 X 4.9539 Y 38.4655 Z 0.0000
G01 X 5.8098 Y 38.9470 Z 0.0000
G01 X 6.6874 Y 39.3879 Z 0.0000
G01 X 7.5802 Y 39.7945 Z 0.0000
G01 X 8.4863 Y 40.1733 Z 0.0000
G01 X 9.4012 Y 40.5280 Z 0.0000
G01 X 10.3226 Y 40.8624 Z 0.0000
G01 X 11.3621 Y 41.2147 Z 0.0000
G01 X 12.4101 Y 41.5444 Z 0.0000
G01 X 13.4641 Y 41.8528 Z 0.0000
G01 X 14.5229 Y 42.1416 Z 0.0000
G01 X 15.5864 Y 42.4121 Z 0.0000
G01 X 16.6552 Y 42.6658 Z 0.0000
G01 X 17.7257 Y 42.9031 Z 0.0000
G01 X 18.8009 Y 43.1257 Z 0.0000
G01 X 19.8783 Y 43.3340 Z 0.0000
G01 X 20.9585 Y 43.5289 Z 0.0000
G01 X 22.0411 Y 43.7110 Z 0.0000
G01 X 23.1257 Y 43.8810 Z 0.0000
G01 X 24.2120 Y 44.0393 Z 0.0000
G01 X 25.2990 Y 44.1864 Z 0.0000
G01 X 26.3873 Y 44.3228 Z 0.0000
G01 X 27.4774 Y 44.4490 Z 0.0000
G01 X 28.5685 Y 44.5654 Z 0.0000
G01 X 29.6608 Y 44.6722 Z 0.0000
G01 X 30.7537 Y 44.7698 Z 0.0000
G01 X 31.8483 Y 44.8584 Z 0.0000
G01 X 32.9431 Y 44.9385 Z 0.0000
G01 X 34.0393 Y 45.0102 Z 0.0000
G01 X 35.1346 Y 45.0735 Z 0.0000
G01 X 36.2301 Y 45.1290 Z 0.0000
G01 X 37.3279 Y 45.1767 Z 0.0000
G01 X 38.3715 Y 45.2064 Z 0.0000
G01 X 39.4157 Y 45.2240 Z 0.0000
G01 X 40.4592 Y 45.2351 Z 0.0000
G01 X 41.5043 Y 45.2422 Z 0.0000
G01 X 42.5496 Y 45.2452 Z 0.0000
G01 X 43.5942 Y 45.2454 Z 0.0000
G01 X 44.6379 Y 45.2424 Z 0.0000
G01 X 45.6822 Y 45.2364 Z 0.0000
G01 X 46.7276 Y 45.2256 Z 0.0000
G01 X 47.7709 Y 45.2085 Z 0.0000
G01 X 48.8150 Y 45.1787 Z 0.0000
G01 X 49.9065 Y 45.1303 Z 0.0000
G01 X 50.9974 Y 45.0745 Z 0.0000
G01 X 52.0885 Y 45.0111 Z 0.0000
G01 X 53.1781 Y 44.9399 Z 0.0000
G01 X 54.2663 Y 44.8607 Z 0.0000
G01 X 55.3546 Y 44.7731 Z 0.0000
G01 X 56.4416 Y 44.6770 Z 0.0000
G01 X 57.5292 Y 44.5718 Z 0.0000
G01 X 58.6148 Y 44.4575 Z 0.0000
G01 X 59.7000 Y 44.3335 Z 0.0000
G01 X 60.7836 Y 44.1995 Z 0.0000
G01 X 61.8662 Y 44.0551 Z 0.0000
G01 X 62.9470 Y 43.8998 Z 0.0000
G01 X 64.0259 Y 43.7331 Z 0.0000
G01 X 65.1031 Y 43.5544 Z 0.0000
G01 X 66.1786 Y 43.3631 Z 0.0000
G01 X 67.2511 Y 43.1587 Z 0.0000
G01 X 68.3212 Y 42.9402 Z 0.0000
G01 X 69.3879 Y 42.7069 Z 0.0000
G01 X 70.4513 Y 42.4578 Z 0.0000
G01 X 71.5099 Y 42.1921 Z 0.0000
G01 X 72.5654 Y 41.9081 Z 0.0000
G01 X 73.6138 Y 41.6053 Z 0.0000
G01 X 74.6570 Y 41.2815 Z 0.0000
G01 X 75.6922 Y 40.9355 Z 0.0000
G01 X 76.7203 Y 40.5647 Z 0.0000
G01 X 77.7371 Y 40.1677 Z 0.0000
G01 X 78.7435 Y 39.7410 Z 0.0000
G01 X 79.6859 Y 39.3025 Z 0.0000
G01 X 80.6100 Y 38.8239 Z 0.0000
G01 X 81.5083 Y 38.2991 Z 0.0000
G01 X 82.3717 Y 37.7199 Z 0.0000
G01 X 83.1873 Y 37.0743 Z 0.0000
G01 X 83.9309 Y 36.3491 Z 0.0000
G01 X 84.5644 Y 35.5279 Z 0.0000
G01 X 85.0251 Y 34.5980 Z 0.0000
G01 X 85.1549 Y 33.8111 Z 0.0000
G01 X 85.1660 Y 33.0127 Z 0.0000
G01 X 85.0617 Y 32.2238 Z 0.0000
G01 X 84.6811 Y 31.3868 Z 0.0000
G01 X 84.1440 Y 30.6400 Z 0.0000
G01 X 83.5145 Y 29.9691 Z 0.0000
G01 X 82.8232 Y 29.3624 Z 0.0000
G01 X 82.0859 Y 28.8113 Z 0.0000
G01 X 81.3125 Y 28.3112 Z 0.0000
G01 X 80.3805 Y 27.7881 Z 0.0000
G01 X 79.4240 Y 27.3135 Z 0.0000
G01 X 78.4478 Y 26.8760 Z 0.0000
G01 X 77.4588 Y 26.4703 Z 0.0000
G01 X 76.4598 Y 26.0917 Z 0.0000
G01 X 75.4509 Y 25.7364 Z 0.0000
G01 X 74.4362 Y 25.4030 Z 0.0000
G01 X 73.4145 Y 25.0891 Z 0.0000
G01 X 72.3867 Y 24.7935 Z 0.0000
G01 X 71.3542 Y 24.5154 Z 0.0000
G01 X 70.3180 Y 24.2543 Z 0.0000
G01 X 69.2785 Y 24.0098 Z 0.0000
G01 X 68.2346 Y 23.7812 Z 0.0000
G01 X 67.1871 Y 23.5686 Z 0.0000
G01 X 66.1121 Y 23.3657 Z 0.0000
G01 X 65.0341 Y 23.1752 Z 0.0000
G01 X 63.9534 Y 22.9968 Z 0.0000
G01 X 62.8717 Y 22.8303 Z 0.0000
G01 X 61.7890 Y 22.6752 Z 0.0000
G01 X 60.7045 Y 22.5310 Z 0.0000
G01 X 59.6177 Y 22.3972 Z 0.0000
G01 X 58.5294 Y 22.2735 Z 0.0000
G01 X 57.4403 Y 22.1596 Z 0.0000
G01 X 56.3511 Y 22.0553 Z 0.0000
G01 X 55.2602 Y 21.9600 Z 0.0000
G01 X 54.1700 Y 21.8735 Z 0.0000
G01 X 53.0784 Y 21.7954 Z 0.0000
G01 X 51.9867 Y 21.7255 Z 0.0000
G01 X 50.8938 Y 21.6634 Z 0.0000
G01 X 49.8010 Y 21.6089 Z 0.0000
G01 X 48.7079 Y 21.5617 Z 0.0000
G01 X 47.6405 Y 21.5373 Z 0.0000
G01 X 46.5736 Y 21.5245 Z 0.0000
G01 X 45.5070 Y 21.5165 Z 0.0000
G01 X 44.4412 Y 21.5105 Z 0.0000
G01 X 43.3746 Y 21.5075 Z 0.0000
G01 X 42.3088 Y 21.5065 Z 0.0000
G01 X 41.2424 Y 21.5073 Z 0.0000
G01 X 40.1754 Y 21.5113 Z 0.0000
G01 X 39.1080 Y 21.5193 Z 0.0000
G01 X 38.0414 Y 21.5398 Z 0.0000
G01 X 38.0414 Y 21.5395 Z 0.0000
G00 Z 7.0000

(End cutting path id: path354)


(Start cutting path id: path354)
(Change tool to Default tool)

G00 Z 7.0000
G00 X 15.1295 Y 31.7241

G01 Z 0.0000 F 100.0000(Penetrate)
G01 X 15.5654 Y 32.6605 Z 0.0000 F 400.0000
G01 X 16.0097 Y 33.5932 Z 0.0000
G01 X 16.5656 Y 34.4500 Z 0.0000
G01 X 17.5010 Y 34.5275 Z 0.0000
G01 X 18.4419 Y 34.5416 Z 0.0000
G01 X 19.3838 Y 34.5456 Z 0.0000
G01 X 20.2510 Y 34.5476 Z 0.0000
G01 X 21.1202 Y 34.5496 Z 0.0000
G01 X 21.9880 Y 34.5516 Z 0.0000
G01 X 22.3609 Y 35.3879 Z 0.0000
G01 X 22.7797 Y 36.3515 Z 0.0000
G01 X 21.9422 Y 36.4647 Z 0.0000
G01 X 21.0510 Y 36.4667 Z 0.0000
G01 X 20.1599 Y 36.4637 Z 0.0000
G01 X 19.2676 Y 36.4587 Z 0.0000
G01 X 18.2903 Y 36.4527 Z 0.0000
G01 X 17.3149 Y 36.4447 Z 0.0000
G01 X 16.3377 Y 36.4274 Z 0.0000
G01 X 15.3796 Y 36.2855 Z 0.0000
G01 X 14.7735 Y 35.8776 Z 0.0000
G01 X 14.2856 Y 35.3325 Z 0.0000
G01 X 13.9167 Y 34.5830 Z 0.0000
G01 X 13.5640 Y 33.8266 Z 0.0000
G01 X 13.2165 Y 33.0668 Z 0.0000
G01 X 12.9122 Y 32.3957 Z 0.0000
G01 X 12.6071 Y 31.7229 Z 0.0000
G01 X 12.3025 Y 31.0512 Z 0.0000
G01 X 11.5355 Y 31.0935 Z 0.0000
G01 X 11.9430 Y 32.0218 Z 0.0000
G01 X 12.3589 Y 32.9459 Z 0.0000
G01 X 12.7767 Y 33.8694 Z 0.0000
G01 X 13.1957 Y 34.7921 Z 0.0000
G01 X 13.6156 Y 35.7131 Z 0.0000
G01 X 14.0376 Y 36.6339 Z 0.0000
G01 X 14.4663 Y 37.5517 Z 0.0000
G01 X 14.6949 Y 37.9367 Z 0.0000
G01 X 15.2442 Y 38.1228 Z 0.0000
G01 X 16.2813 Y 38.1767 Z 0.0000
G01 X 17.3192 Y 38.1857 Z 0.0000
G01 X 18.3582 Y 38.1865 Z 0.0000
G01 X 19.3976 Y 38.1862 Z 0.0000
G01 X 20.4573 Y 38.1862 Z 0.0000
G01 X 21.5167 Y 38.1862 Z 0.0000
G01 X 22.5755 Y 38.1862 Z 0.0000
G01 X 23.6350 Y 38.1862 Z 0.0000
G01 X 24.0601 Y 39.1216 Z 0.0000
G01 X 24.5090 Y 40.1205 Z 0.0000
G01 X 23.4825 Y 40.1600 Z 0.0000
G01 X 22.4543 Y 40.1722 Z 0.0000
G01 X 21.4256 Y 40.1792 Z 0.0000
G01 X 20.3956 Y 40.1832 Z 0.0000
G01 X 19.3668 Y 40.1842 Z 0.0000
G01 X 18.3293 Y 40.1843 Z 0.0000
G01 X 17.2913 Y 40.1838 Z 0.0000
G01 X 16.2533 Y 40.1808 Z 0.0000
G01 X 15.2150 Y 40.1678 Z 0.0000
G01 X 14.1789 Y 40.1121 Z 0.0000
G01 X 13.3143 Y 39.8396 Z 0.0000
G01 X 12.6950 Y 39.1713 Z 0.0000
G01 X 12.2536 Y 38.2708 Z 0.0000
G01 X 11.8280 Y 37.3620 Z 0.0000
G01 X 11.4063 Y 36.4524 Z 0.0000
G01 X 10.9868 Y 35.5421 Z 0.0000
G01 X 10.5683 Y 34.6300 Z 0.0000
G01 X 10.1516 Y 33.7183 Z 0.0000
G01 X 9.7358 Y 32.8047 Z 0.0000
G01 X 9.3216 Y 31.8907 Z 0.0000
G01 X 8.9098 Y 30.9766 Z 0.0000
G01 X 8.5011 Y 30.0602 Z 0.0000
G01 X 8.1108 Y 29.1372 Z 0.0000
G01 X 9.0707 Y 29.0694 Z 0.0000
G01 X 10.0404 Y 29.0664 Z 0.0000
G01 X 11.0092 Y 29.0704 Z 0.0000
G01 X 11.9753 Y 29.0764 Z 0.0000
G01 X 12.9424 Y 29.0824 Z 0.0000
G01 X 13.9076 Y 29.0884 Z 0.0000
G01 X 14.3149 Y 29.9669 Z 0.0000
G01 X 14.7226 Y 30.8462 Z 0.0000
G01 X 15.1295 Y 31.7239 Z 0.0000
G00 Z 7.0000

(End cutting path id: path354)


(Start cutting path id: path354)
(Change tool to Default tool)

G00 Z 7.0000
G00 X 23.6649 Y 31.6307

G01 Z 0.0000 F 100.0000(Penetrate)
G01 X 24.0836 Y 32.5464 Z 0.0000 F 400.0000
G01 X 24.5091 Y 33.4589 Z 0.0000
G01 X 24.9564 Y 34.3597 Z 0.0000
G01 X 25.8458 Y 34.5106 Z 0.0000
G01 X 26.7710 Y 34.5239 Z 0.0000
G01 X 27.6948 Y 34.5319 Z 0.0000
G01 X 28.5658 Y 34.5389 Z 0.0000
G01 X 29.4389 Y 34.5459 Z 0.0000
G01 X 30.3106 Y 34.5529 Z 0.0000
G01 X 30.5460 Y 35.0676 Z 0.0000
G01 X 30.9985 Y 36.0283 Z 0.0000
G01 X 31.2154 Y 36.4742 Z 0.0000
G01 X 30.3711 Y 36.4742 Z 0.0000
G01 X 29.5258 Y 36.4742 Z 0.0000
G01 X 28.6797 Y 36.4742 Z 0.0000
G01 X 27.8352 Y 36.4742 Z 0.0000
G01 X 26.8918 Y 36.4738 Z 0.0000
G01 X 25.9473 Y 36.4708 Z 0.0000
G01 X 25.0027 Y 36.4574 Z 0.0000
G01 X 24.0720 Y 36.3308 Z 0.0000
G01 X 23.3773 Y 35.9129 Z 0.0000
G01 X 22.8459 Y 35.3006 Z 0.0000
G01 X 22.4157 Y 34.4263 Z 0.0000
G01 X 21.9985 Y 33.5443 Z 0.0000
G01 X 21.5855 Y 32.6623 Z 0.0000
G01 X 21.1744 Y 31.7782 Z 0.0000
G01 X 20.7654 Y 30.8923 Z 0.0000
G01 X 20.3603 Y 30.0057 Z 0.0000
G01 X 19.9665 Y 29.1139 Z 0.0000
G01 X 20.7858 Y 29.0617 Z 0.0000
G01 X 21.4935 Y 29.0537 Z 0.0000
G01 X 22.4960 Y 29.0537 Z 0.0000
G01 X 22.8852 Y 29.9120 Z 0.0000
G01 X 23.2754 Y 30.7723 Z 0.0000
G01 X 23.6649 Y 31.6313 Z 0.0000
G00 Z 7.0000

(End cutting path id: path354)


(Start cutting path id: path354)
(Change tool to Default tool)

G00 Z 7.0000
G00 X 37.2009 Y 29.1614

G01 Z 0.0000 F 100.0000(Penetrate)
G01 X 37.9158 Y 29.5116 Z 0.0000 F 400.0000
G01 X 38.4941 Y 30.0567 Z 0.0000
G01 X 38.9289 Y 30.8700 Z 0.0000
G01 X 39.3261 Y 31.7021 Z 0.0000
G01 X 39.7113 Y 32.5395 Z 0.0000
G01 X 40.0873 Y 33.3819 Z 0.0000
G01 X 40.4507 Y 34.2283 Z 0.0000
G01 X 40.7711 Y 35.0920 Z 0.0000
G01 X 40.7213 Y 35.6402 Z 0.0000
G01 X 40.3678 Y 36.1310 Z 0.0000
G01 X 39.8472 Y 36.4381 Z 0.0000
G01 X 38.9063 Y 36.4607 Z 0.0000
G01 X 37.9645 Y 36.4647 Z 0.0000
G01 X 37.0226 Y 36.4640 Z 0.0000
G01 X 36.0793 Y 36.4600 Z 0.0000
G01 X 35.1972 Y 36.4550 Z 0.0000
G01 X 34.3140 Y 36.4500 Z 0.0000
G01 X 33.4300 Y 36.4450 Z 0.0000
G01 X 32.5476 Y 36.4400 Z 0.0000
G01 X 32.1709 Y 36.2698 Z 0.0000
G01 X 31.4208 Y 35.6606 Z 0.0000
G01 X 30.9354 Y 34.8088 Z 0.0000
G01 X 30.5122 Y 33.9237 Z 0.0000
G01 X 30.1039 Y 33.0322 Z 0.0000
G01 X 29.7529 Y 32.2566 Z 0.0000
G01 X 29.4096 Y 31.4779 Z 0.0000
G01 X 29.1041 Y 30.6854 Z 0.0000
G01 X 29.1256 Y 29.8584 Z 0.0000
G01 X 29.7650 Y 29.1896 Z 0.0000
G01 X 30.6749 Y 29.0738 Z 0.0000
G01 X 31.5980 Y 29.0612 Z 0.0000
G01 X 32.5207 Y 29.0582 Z 0.0000
G01 X 33.4443 Y 29.0573 Z 0.0000
G01 X 34.3849 Y 29.0578 Z 0.0000
G01 X 35.3250 Y 29.0618 Z 0.0000
G01 X 36.2658 Y 29.0763 Z 0.0000
G01 X 37.2009 Y 29.1634 Z 0.0000
G01 X 37.2009 Y 29.1634 Z 0.0000
G00 Z 7.0000

(End cutting path id: path354)


(Start cutting path id: path354)
(Change tool to Default tool)

G00 Z 7.0000
G00 X 31.9173 Y 31.1010

G01 Z 0.0000 F 100.0000(Penetrate)
G01 X 32.1436 Y 32.0016 Z 0.0000 F 400.0000
G01 X 32.5297 Y 32.8787 Z 0.0000
G01 X 32.9056 Y 33.6973 Z 0.0000
G01 X 33.3824 Y 34.4498 Z 0.0000
G01 X 34.1207 Y 34.5354 Z 0.0000
G01 X 34.8684 Y 34.5474 Z 0.0000
G01 X 35.6167 Y 34.5495 Z 0.0000
G01 X 36.4504 Y 34.5474 Z 0.0000
G01 X 37.2835 Y 34.5286 Z 0.0000
G01 X 37.8480 Y 34.4323 Z 0.0000
G01 X 37.9117 Y 34.2041 Z 0.0000
G01 X 37.5903 Y 33.4185 Z 0.0000
G01 X 37.2333 Y 32.6480 Z 0.0000
G01 X 36.8628 Y 31.8853 Z 0.0000
G01 X 36.4548 Y 31.1427 Z 0.0000
G01 X 35.6914 Y 31.0668 Z 0.0000
G01 X 34.9222 Y 31.0557 Z 0.0000
G01 X 34.1512 Y 31.0537 Z 0.0000
G01 X 33.4065 Y 31.0567 Z 0.0000
G01 X 32.6608 Y 31.0667 Z 0.0000
G01 X 31.9173 Y 31.1017 Z 0.0000
G01 X 31.9173 Y 31.1017 Z 0.0000
G00 Z 7.0000

(End cutting path id: path354)


(Start cutting path id: path354)
(Change tool to Default tool)

G00 Z 7.0000
G00 X 43.1939 Y 31.7498

G01 Z 0.0000 F 100.0000(Penetrate)
G01 X 43.6027 Y 32.6476 Z 0.0000 F 400.0000
G01 X 44.0118 Y 33.5462 Z 0.0000
G01 X 44.4202 Y 34.4432 Z 0.0000
G01 X 45.1665 Y 34.4492 Z 0.0000
G01 X 45.9146 Y 34.4552 Z 0.0000
G01 X 46.6615 Y 34.4612 Z 0.0000
G01 X 47.5789 Y 34.4682 Z 0.0000
G01 X 48.4949 Y 34.4572 Z 0.0000
G01 X 49.0308 Y 34.3346 Z 0.0000
G01 X 48.9726 Y 33.9975 Z 0.0000
G01 X 48.5939 Y 33.1523 Z 0.0000
G01 X 48.2097 Y 32.3111 Z 0.0000
G01 X 47.8230 Y 31.4699 Z 0.0000
G01 X 47.4674 Y 30.6937 Z 0.0000
G01 X 47.1165 Y 29.9167 Z 0.0000
G01 X 46.7816 Y 29.1332 Z 0.0000
G01 X 47.6017 Y 29.0530 Z 0.0000
G01 X 48.4340 Y 29.0580 Z 0.0000
G01 X 49.2555 Y 29.1448 Z 0.0000
G01 X 49.7315 Y 30.1150 Z 0.0000
G01 X 50.1833 Y 31.0982 Z 0.0000
G01 X 50.6277 Y 32.0842 Z 0.0000
G01 X 51.0667 Y 33.0736 Z 0.0000
G01 X 51.4981 Y 34.0650 Z 0.0000
G01 X 51.9008 Y 35.0673 Z 0.0000
G01 X 51.6919 Y 35.8932 Z 0.0000
G01 X 51.0067 Y 36.4014 Z 0.0000
G01 X 49.9506 Y 36.4524 Z 0.0000
G01 X 48.8927 Y 36.4671 Z 0.0000
G01 X 47.8350 Y 36.4741 Z 0.0000
G01 X 46.7756 Y 36.4761 Z 0.0000
G01 X 45.7851 Y 36.4762 Z 0.0000
G01 X 44.7934 Y 36.4763 Z 0.0000
G01 X 43.8007 Y 36.4764 Z 0.0000
G01 X 42.8098 Y 36.4765 Z 0.0000
G01 X 42.3700 Y 35.5044 Z 0.0000
G01 X 41.9301 Y 34.5322 Z 0.0000
G01 X 41.5182 Y 33.6235 Z 0.0000
G01 X 41.1058 Y 32.7160 Z 0.0000
G01 X 40.6921 Y 31.8075 Z 0.0000
G01 X 40.2772 Y 30.8993 Z 0.0000
G01 X 39.8801 Y 30.0209 Z 0.0000
G01 X 39.5040 Y 29.1335 Z 0.0000
G01 X 40.1133 Y 29.0628 Z 0.0000
G01 X 40.7359 Y 29.0568 Z 0.0000
G01 X 41.3518 Y 29.0568 Z 0.0000
G01 X 41.9677 Y 29.0568 Z 0.0000
G01 X 42.3765 Y 29.9546 Z 0.0000
G01 X 42.7856 Y 30.8532 Z 0.0000
G01 X 43.1939 Y 31.7502 Z 0.0000
G00 Z 7.0000

(End cutting path id: path354)


(Start cutting path id: path354)
(Change tool to Default tool)

G00 Z 7.0000
G00 X 53.1111 Y 29.1459

G01 Z 0.0000 F 100.0000(Penetrate)
G01 X 53.4777 Y 29.9130 Z 0.0000 F 400.0000
G01 X 53.8344 Y 30.6846 Z 0.0000
G01 X 54.1889 Y 31.4580 Z 0.0000
G01 X 54.5416 Y 32.2317 Z 0.0000
G01 X 54.9531 Y 33.1368 Z 0.0000
G01 X 55.3650 Y 34.0418 Z 0.0000
G01 X 55.7778 Y 34.9481 Z 0.0000
G01 X 56.1910 Y 35.8527 Z 0.0000
G01 X 56.4784 Y 36.4770 Z 0.0000
G01 X 55.8434 Y 36.4770 Z 0.0000
G01 X 55.2083 Y 36.4770 Z 0.0000
G01 X 54.5733 Y 36.4770 Z 0.0000
G01 X 53.9383 Y 36.4770 Z 0.0000
G01 X 53.5702 Y 35.6654 Z 0.0000
G01 X 53.2022 Y 34.8538 Z 0.0000
G01 X 52.7908 Y 33.9491 Z 0.0000
G01 X 52.3783 Y 33.0453 Z 0.0000
G01 X 51.9651 Y 32.1418 Z 0.0000
G01 X 51.5503 Y 31.2376 Z 0.0000
G01 X 51.2349 Y 30.5455 Z 0.0000
G01 X 50.9249 Y 29.8513 Z 0.0000
G01 X 50.6344 Y 29.1507 Z 0.0000
G01 X 51.4530 Y 29.0543 Z 0.0000
G01 X 52.2874 Y 29.0544 Z 0.0000
G01 X 53.1111 Y 29.1456 Z 0.0000
G01 X 53.1111 Y 29.1459 Z 0.0000
G00 Z 7.0000

(End cutting path id: path354)


(Start cutting path id: path354)
(Change tool to Default tool)

G00 Z 7.0000
G00 X 63.7951 Y 29.3011

G01 Z 0.0000 F 100.0000(Penetrate)
G01 X 64.4617 Y 29.7693 Z 0.0000 F 400.0000
G01 X 64.9524 Y 30.4188 Z 0.0000
G01 X 65.3643 Y 31.2868 Z 0.0000
G01 X 65.7598 Y 32.1604 Z 0.0000
G01 X 66.0879 Y 32.9049 Z 0.0000
G01 X 66.4188 Y 33.6465 Z 0.0000
G01 X 66.7512 Y 34.3888 Z 0.0000
G01 X 67.0666 Y 35.0943 Z 0.0000
G01 X 67.3800 Y 35.8005 Z 0.0000
G01 X 67.6866 Y 36.5114 Z 0.0000
G01 X 66.8193 Y 36.5429 Z 0.0000
G01 X 65.9894 Y 36.5479 Z 0.0000
G01 X 65.1538 Y 36.5471 Z 0.0000
G01 X 64.9612 Y 36.1020 Z 0.0000
G01 X 64.5318 Y 35.1349 Z 0.0000
G01 X 64.0974 Y 34.1699 Z 0.0000
G01 X 63.6610 Y 33.2065 Z 0.0000
G01 X 63.2230 Y 32.2450 Z 0.0000
G01 X 62.7774 Y 31.2868 Z 0.0000
G01 X 62.6872 Y 31.1262 Z 0.0000
G01 X 61.9159 Y 31.1262 Z 0.0000
G01 X 61.1428 Y 31.1262 Z 0.0000
G01 X 60.3709 Y 31.1262 Z 0.0000
G01 X 59.5847 Y 31.1270 Z 0.0000
G01 X 58.7986 Y 31.1330 Z 0.0000
G01 X 58.0547 Y 31.2511 Z 0.0000
G01 X 58.4165 Y 32.1548 Z 0.0000
G01 X 58.8029 Y 33.0490 Z 0.0000
G01 X 59.1962 Y 33.9402 Z 0.0000
G01 X 59.5795 Y 34.8025 Z 0.0000
G01 X 59.9607 Y 35.6636 Z 0.0000
G01 X 60.3378 Y 36.5282 Z 0.0000
G01 X 59.7122 Y 36.5390 Z 0.0000
G01 X 59.0850 Y 36.5320 Z 0.0000
G01 X 58.4587 Y 36.5220 Z 0.0000
G01 X 57.8323 Y 36.5120 Z 0.0000
G01 X 57.3902 Y 35.5488 Z 0.0000
G01 X 56.9482 Y 34.5859 Z 0.0000
G01 X 56.5060 Y 33.6224 Z 0.0000
G01 X 56.1398 Y 32.8224 Z 0.0000
G01 X 55.7777 Y 32.0215 Z 0.0000
G01 X 55.4272 Y 31.2145 Z 0.0000
G01 X 55.1767 Y 30.3760 Z 0.0000
G01 X 55.5760 Y 29.4066 Z 0.0000
G01 X 56.5627 Y 29.0904 Z 0.0000
G01 X 57.6302 Y 29.0697 Z 0.0000
G01 X 58.6987 Y 29.0705 Z 0.0000
G01 X 59.7670 Y 29.0755 Z 0.0000
G01 X 60.6669 Y 29.0795 Z 0.0000
G01 X 61.5679 Y 29.0835 Z 0.0000
G01 X 62.4698 Y 29.0875 Z 0.0000
G01 X 63.3701 Y 29.0915 Z 0.0000
G01 X 63.7951 Y 29.3005 Z 0.0000
G00 Z 7.0000

(End cutting path id: path354)


(Start cutting path id: path354)
(Change tool to Default tool)

G00 Z 7.0000
G00 X 74.6374 Y 29.2537

G01 Z 0.0000 F 100.0000(Penetrate)
G01 X 75.3032 Y 29.6692 Z 0.0000 F 400.0000
G01 X 75.7748 Y 30.2994 Z 0.0000
G01 X 76.1422 Y 30.9982 Z 0.0000
G01 X 76.4482 Y 31.6407 Z 0.0000
G01 X 76.7165 Y 32.3001 Z 0.0000
G01 X 76.6688 Y 32.8471 Z 0.0000
G01 X 76.4164 Y 33.3364 Z 0.0000
G01 X 75.6506 Y 33.7225 Z 0.0000
G01 X 74.7573 Y 33.7596 Z 0.0000
G01 X 73.8645 Y 33.7646 Z 0.0000
G01 X 72.9700 Y 33.7649 Z 0.0000
G01 X 72.0146 Y 33.7669 Z 0.0000
G01 X 71.0599 Y 33.7774 Z 0.0000
G01 X 70.1125 Y 33.8387 Z 0.0000
G01 X 70.5077 Y 34.5049 Z 0.0000
G01 X 71.4300 Y 34.5342 Z 0.0000
G01 X 72.3536 Y 34.5443 Z 0.0000
G01 X 73.2784 Y 34.5493 Z 0.0000
G01 X 74.2030 Y 34.5513 Z 0.0000
G01 X 75.0970 Y 34.5518 Z 0.0000
G01 X 75.9921 Y 34.5523 Z 0.0000
G01 X 76.8881 Y 34.5528 Z 0.0000
G01 X 77.7824 Y 34.5533 Z 0.0000
G01 X 78.2105 Y 35.4905 Z 0.0000
G01 X 78.6634 Y 36.4899 Z 0.0000
G01 X 77.7742 Y 36.5238 Z 0.0000
G01 X 76.8816 Y 36.5318 Z 0.0000
G01 X 75.9885 Y 36.5348 Z 0.0000
G01 X 75.0961 Y 36.5344 Z 0.0000
G01 X 74.2041 Y 36.5314 Z 0.0000
G01 X 73.3075 Y 36.5274 Z 0.0000
G01 X 72.4103 Y 36.5234 Z 0.0000
G01 X 71.5144 Y 36.5194 Z 0.0000
G01 X 70.6169 Y 36.5154 Z 0.0000
G01 X 69.7201 Y 36.5114 Z 0.0000
G01 X 69.3128 Y 36.3468 Z 0.0000
G01 X 68.6522 Y 35.8943 Z 0.0000
G01 X 68.1972 Y 35.2291 Z 0.0000
G01 X 67.8383 Y 34.5052 Z 0.0000
G01 X 67.5667 Y 33.8728 Z 0.0000
G01 X 67.3486 Y 33.2222 Z 0.0000
G01 X 67.4674 Y 32.5883 Z 0.0000
G01 X 67.8687 Y 32.0800 Z 0.0000
G01 X 68.1391 Y 31.8737 Z 0.0000
G01 X 69.1101 Y 31.8667 Z 0.0000
G01 X 70.0821 Y 31.8597 Z 0.0000
G01 X 71.0522 Y 31.8527 Z 0.0000
G01 X 72.0239 Y 31.8437 Z 0.0000
G01 X 72.9960 Y 31.8280 Z 0.0000
G01 X 73.9653 Y 31.7879 Z 0.0000
G01 X 73.7839 Y 31.4335 Z 0.0000
G01 X 73.6025 Y 31.1240 Z 0.0000
G01 X 72.6955 Y 31.1240 Z 0.0000
G01 X 71.7873 Y 31.1240 Z 0.0000
G01 X 70.8783 Y 31.1240 Z 0.0000
G01 X 69.9710 Y 31.1240 Z 0.0000
G01 X 69.0473 Y 31.1231 Z 0.0000
G01 X 68.1238 Y 31.1191 Z 0.0000
G01 X 67.2004 Y 31.1079 Z 0.0000
G01 X 66.2834 Y 31.0346 Z 0.0000
G01 X 65.8260 Y 30.0807 Z 0.0000
G01 X 65.4035 Y 29.1112 Z 0.0000
G01 X 66.2908 Y 29.0789 Z 0.0000
G01 X 67.1799 Y 29.0709 Z 0.0000
G01 X 68.0691 Y 29.0679 Z 0.0000
G01 X 68.9562 Y 29.0680 Z 0.0000
G01 X 69.8449 Y 29.0710 Z 0.0000
G01 X 70.7330 Y 29.0750 Z 0.0000
G01 X 71.6217 Y 29.0790 Z 0.0000
G01 X 72.5091 Y 29.0830 Z 0.0000
G01 X 73.3981 Y 29.0870 Z 0.0000
G01 X 74.2864 Y 29.0910 Z 0.0000
G01 X 74.6374 Y 29.2533 Z 0.0000
G00 Z 7.0000

(End cutting path id: path354)


(Start cutting path id: path354)
(Change tool to Default tool)

G00 Z 7.0000
G00 X 57.2758 Y 38.2191

G01 Z 0.0000 F 100.0000(Penetrate)
G01 X 57.6979 Y 39.2018 Z 0.0000 F 400.0000
G01 X 57.0753 Y 39.2440 Z 0.0000
G01 X 56.4477 Y 39.2420 Z 0.0000
G01 X 55.8227 Y 39.2320 Z 0.0000
G01 X 55.1976 Y 39.2220 Z 0.0000
G01 X 54.7711 Y 38.3031 Z 0.0000
G01 X 54.3445 Y 37.3205 Z 0.0000
G01 X 54.9691 Y 37.2746 Z 0.0000
G01 X 55.5991 Y 37.2756 Z 0.0000
G01 X 56.2264 Y 37.2856 Z 0.0000
G01 X 56.8537 Y 37.2956 Z 0.0000
G01 X 57.2758 Y 38.2182 Z 0.0000
G00 Z 7.0000

(End cutting path id: path354)



(Footer)
M5
G00 X0.0000 Y0.0000
M2
(Using default footer. To add your own footer create file "footer" in the output dir.)
(end)
%