%
(Header)
(Generated by gcodetools from Inkscape.)
(Using default header. To add your own header create file "header" in the output dir.)
M3
(Header end.)
G21 (All units in mm)

(Start cutting path id: path16917-7-2)
(Change tool to Default tool)

G00 Z 7.0000
G00 X 42.3942 Y 41.1761

G01 Z 0.0000 F 100.0000(Penetrate)
G01 X 41.8893 Y 41.3926 Z 0.0000 F 400.0000
G00 Z 7.0000

(End cutting path id: path16917-7-2)


(Start cutting path id: path16917-7-2)
(Change tool to Default tool)

G00 Z 7.0000
G00 X 53.8062 Y 28.1924

G01 Z 0.0000 F 100.0000(Penetrate)
G01 X 53.7534 Y 26.9828 Z 0.0000 F 400.0000
G01 X 53.6905 Y 25.7735 Z 0.0000
G01 X 53.6162 Y 24.5643 Z 0.0000
G01 X 53.5293 Y 23.3559 Z 0.0000
G01 X 53.4287 Y 22.1495 Z 0.0000
G01 X 53.3129 Y 20.9447 Z 0.0000
G01 X 53.1807 Y 19.7416 Z 0.0000
G01 X 53.0309 Y 18.5399 Z 0.0000
G01 X 52.8625 Y 17.3411 Z 0.0000
G01 X 52.6747 Y 16.1443 Z 0.0000
G01 X 52.4672 Y 14.9512 Z 0.0000
G01 X 52.2399 Y 13.7609 Z 0.0000
G01 X 52.0025 Y 12.6144 Z 0.0000
G01 X 51.7417 Y 11.4719 Z 0.0000
G01 X 51.4486 Y 10.3372 Z 0.0000
G01 X 51.1212 Y 9.2131 Z 0.0000
G01 X 50.7664 Y 8.0968 Z 0.0000
G01 X 50.3554 Y 6.9013 Z 0.0000
G01 X 49.8921 Y 5.7255 Z 0.0000
G01 X 49.3627 Y 4.5787 Z 0.0000
G01 X 48.8395 Y 3.5970 Z 0.0000
G01 X 48.2398 Y 2.6600 Z 0.0000
G01 X 47.5373 Y 1.7976 Z 0.0000
G01 X 46.6992 Y 1.0690 Z 0.0000
G01 X 45.7039 Y 0.5802 Z 0.0000
G01 X 44.9899 Y 0.5048 Z 0.0000
G01 X 44.2738 Y 0.5745 Z 0.0000
G01 X 43.3046 Y 1.0287 Z 0.0000
G01 X 42.4862 Y 1.7238 Z 0.0000
G01 X 41.7701 Y 2.5577 Z 0.0000
G01 X 41.1601 Y 3.4725 Z 0.0000
G01 X 40.6322 Y 4.4378 Z 0.0000
G01 X 40.1672 Y 5.4344 Z 0.0000
G01 X 39.7501 Y 6.4513 Z 0.0000
G01 X 39.3692 Y 7.4837 Z 0.0000
G01 X 39.0306 Y 8.4940 Z 0.0000
G01 X 38.7202 Y 9.5131 Z 0.0000
G01 X 38.4352 Y 10.5396 Z 0.0000
G01 X 38.1735 Y 11.5719 Z 0.0000
G01 X 37.9329 Y 12.6093 Z 0.0000
G01 X 37.7120 Y 13.6503 Z 0.0000
G01 X 37.4753 Y 14.8792 Z 0.0000
G01 X 37.2616 Y 16.1123 Z 0.0000
G01 X 37.0693 Y 17.3484 Z 0.0000
G01 X 36.8968 Y 18.5882 Z 0.0000
G01 X 36.7430 Y 19.8309 Z 0.0000
G01 X 36.6202 Y 20.9456 Z 0.0000
G01 X 36.5107 Y 22.0623 Z 0.0000
G01 X 36.4142 Y 23.1795 Z 0.0000
G01 X 36.3299 Y 24.2986 Z 0.0000
G01 X 36.2573 Y 25.4182 Z 0.0000
G01 X 36.1962 Y 26.5388 Z 0.0000
G01 X 36.1460 Y 27.6593 Z 0.0000
G01 X 36.1156 Y 28.8845 Z 0.0000
G01 X 36.1014 Y 30.1112 Z 0.0000
G01 X 36.0951 Y 31.3375 Z 0.0000
G01 X 36.0948 Y 32.5639 Z 0.0000
G01 X 36.1006 Y 33.7893 Z 0.0000
G01 X 36.1143 Y 35.0153 Z 0.0000
G01 X 36.1446 Y 36.2413 Z 0.0000
G01 X 36.2032 Y 37.5091 Z 0.0000
G01 X 36.2754 Y 38.7769 Z 0.0000
G01 X 36.3617 Y 40.0424 Z 0.0000
G01 X 36.4630 Y 41.3074 Z 0.0000
G01 X 36.5799 Y 42.5712 Z 0.0000
G01 X 36.7134 Y 43.8326 Z 0.0000
G01 X 36.8647 Y 45.0931 Z 0.0000
G01 X 37.0347 Y 46.3513 Z 0.0000
G01 X 37.2248 Y 47.6062 Z 0.0000
G01 X 37.4366 Y 48.8583 Z 0.0000
G01 X 37.6717 Y 50.1055 Z 0.0000
G01 X 37.9323 Y 51.3476 Z 0.0000
G01 X 38.2208 Y 52.5833 Z 0.0000
G01 X 38.5399 Y 53.8110 Z 0.0000
G01 X 38.8934 Y 55.0296 Z 0.0000
G01 X 39.2855 Y 56.2367 Z 0.0000
G01 X 39.7212 Y 57.4284 Z 0.0000
G01 X 40.2071 Y 58.6008 Z 0.0000
G01 X 40.7453 Y 59.7209 Z 0.0000
G01 X 41.3672 Y 60.7975 Z 0.0000
G01 X 42.0977 Y 61.8016 Z 0.0000
G01 X 42.9766 Y 62.6770 Z 0.0000
G01 X 44.0494 Y 63.2938 Z 0.0000
G01 X 44.9347 Y 63.4030 Z 0.0000
G01 X 45.8232 Y 63.3211 Z 0.0000
G01 X 46.7347 Y 62.8474 Z 0.0000
G01 X 47.5071 Y 62.1658 Z 0.0000
G01 X 48.1719 Y 61.3768 Z 0.0000
G01 X 48.7463 Y 60.5201 Z 0.0000
G01 X 49.3381 Y 59.4284 Z 0.0000
G01 X 49.8529 Y 58.2990 Z 0.0000
G01 X 50.3122 Y 57.1444 Z 0.0000
G01 X 50.7262 Y 55.9741 Z 0.0000
G01 X 51.1025 Y 54.7898 Z 0.0000
G01 X 51.4447 Y 53.5961 Z 0.0000
G01 X 51.7559 Y 52.3931 Z 0.0000
G01 X 52.0373 Y 51.1828 Z 0.0000
G01 X 52.2894 Y 49.9671 Z 0.0000
G01 X 52.5200 Y 48.7240 Z 0.0000
G01 X 52.7284 Y 47.4774 Z 0.0000
G01 X 52.9158 Y 46.2281 Z 0.0000
G01 X 53.0835 Y 44.9759 Z 0.0000
G01 X 53.2325 Y 43.7213 Z 0.0000
G01 X 53.3639 Y 42.4651 Z 0.0000
G01 X 53.4786 Y 41.2068 Z 0.0000
G01 X 53.5777 Y 39.9465 Z 0.0000
G01 X 53.6618 Y 38.6860 Z 0.0000
G01 X 53.7319 Y 37.4244 Z 0.0000
G01 X 53.7887 Y 36.1613 Z 0.0000
G01 X 53.8116 Y 35.0237 Z 0.0000
G01 X 53.8221 Y 33.8853 Z 0.0000
G01 X 53.8280 Y 32.7474 Z 0.0000
G01 X 53.8306 Y 31.6091 Z 0.0000
G01 X 53.8298 Y 30.4707 Z 0.0000
G01 X 53.8245 Y 29.3321 Z 0.0000
G01 X 53.8060 Y 28.1924 Z 0.0000
G01 X 53.8063 Y 28.1924 Z 0.0000
G00 Z 7.0000

(End cutting path id: path16917-7-2)


(Start cutting path id: path16917-7-2)
(Change tool to Default tool)

G00 Z 7.0000
G00 X 43.3983 Y 57.2780

G01 Z 0.0000 F 100.0000(Penetrate)
G01 X 43.3983 Y 56.1838 Z 0.0000 F 400.0000
G01 X 43.3983 Y 55.0889 Z 0.0000
G01 X 43.3983 Y 53.9945 Z 0.0000
G01 X 43.3983 Y 52.8997 Z 0.0000
G01 X 43.5552 Y 51.9001 Z 0.0000
G01 X 44.3932 Y 51.3524 Z 0.0000
G01 X 45.2940 Y 51.0871 Z 0.0000
G01 X 45.3881 Y 51.9872 Z 0.0000
G01 X 45.3881 Y 53.0762 Z 0.0000
G01 X 45.3881 Y 54.1648 Z 0.0000
G01 X 45.3881 Y 55.2537 Z 0.0000
G01 X 45.4195 Y 56.0906 Z 0.0000
G01 X 46.0806 Y 55.9612 Z 0.0000
G01 X 46.7730 Y 55.5809 Z 0.0000
G01 X 47.4657 Y 55.0121 Z 0.0000
G01 X 47.4657 Y 54.1413 Z 0.0000
G01 X 47.4657 Y 53.0816 Z 0.0000
G01 X 47.4657 Y 52.0222 Z 0.0000
G01 X 47.4657 Y 50.9626 Z 0.0000
G01 X 47.4657 Y 49.9039 Z 0.0000
G00 Z 7.0000

(End cutting path id: path16917-7-2)


(Start cutting path id: path16917-7-2)
(Change tool to Default tool)

G00 Z 7.0000
G00 X 43.3690 Y 43.7004

G01 Z 0.0000 F 100.0000(Penetrate)
G01 X 44.3936 Y 43.2686 Z 0.0000 F 400.0000
G01 X 45.4178 Y 42.8370 Z 0.0000
G01 X 46.4415 Y 42.4056 Z 0.0000
G01 X 47.2775 Y 42.2250 Z 0.0000
G01 X 47.4657 Y 43.0330 Z 0.0000
G01 X 47.4657 Y 44.0927 Z 0.0000
G01 X 47.4657 Y 45.1521 Z 0.0000
G01 X 47.4657 Y 46.2117 Z 0.0000
G01 X 47.3402 Y 47.2076 Z 0.0000
G01 X 46.4558 Y 47.7314 Z 0.0000
G01 X 45.4462 Y 48.1923 Z 0.0000
G01 X 44.4372 Y 48.6530 Z 0.0000
G01 X 43.4276 Y 49.1139 Z 0.0000
G00 Z 7.0000

(End cutting path id: path16917-7-2)


(Start cutting path id: path16917-7-2)
(Change tool to Default tool)

G00 Z 7.0000
G00 X 47.4657 Y 38.9600

G01 Z 0.0000 F 100.0000(Penetrate)
G01 X 46.4558 Y 39.4137 Z 0.0000 F 400.0000
G01 X 45.4462 Y 39.8673 Z 0.0000
G01 X 44.4372 Y 40.3206 Z 0.0000
G01 X 43.4276 Y 40.7742 Z 0.0000
G00 Z 7.0000

(End cutting path id: path16917-7-2)


(Start cutting path id: path16917-7-2)
(Change tool to Default tool)

G00 Z 7.0000
G00 X 47.4365 Y 30.6496

G01 Z 0.0000 F 100.0000(Penetrate)
G01 X 46.4266 Y 31.1106 Z 0.0000 F 400.0000
G01 X 45.4169 Y 31.5715 Z 0.0000
G01 X 44.4079 Y 32.0321 Z 0.0000
G01 X 43.3983 Y 32.4931 Z 0.0000
G01 X 43.3983 Y 33.5521 Z 0.0000
G01 X 43.3983 Y 34.6118 Z 0.0000
G01 X 43.3983 Y 35.6712 Z 0.0000
G01 X 43.3983 Y 36.7308 Z 0.0000
G01 X 43.5866 Y 37.4757 Z 0.0000
G01 X 44.4155 Y 37.3504 Z 0.0000
G01 X 45.4325 Y 36.9114 Z 0.0000
G01 X 46.4488 Y 36.4727 Z 0.0000
G01 X 47.4657 Y 36.0338 Z 0.0000
G00 Z 7.0000

(End cutting path id: path16917-7-2)


(Start cutting path id: path16917-7-2)
(Change tool to Default tool)

G00 Z 7.0000
G00 X 46.4237 Y 22.9970

G01 Z 0.0000 F 100.0000(Penetrate)
G01 X 45.4141 Y 23.4300 Z 0.0000 F 400.0000
G01 X 44.4062 Y 23.8642 Z 0.0000
G01 X 43.5552 Y 24.3625 Z 0.0000
G01 X 43.3983 Y 25.3237 Z 0.0000
G01 X 43.3983 Y 26.3483 Z 0.0000
G01 X 43.3983 Y 27.3725 Z 0.0000
G01 X 43.3983 Y 28.3970 Z 0.0000
G01 X 43.5238 Y 29.2637 Z 0.0000
G01 X 44.4082 Y 28.9742 Z 0.0000
G01 X 45.4178 Y 28.5279 Z 0.0000
G01 X 46.4268 Y 28.0819 Z 0.0000
G01 X 47.3109 Y 27.5101 Z 0.0000
G01 X 47.4365 Y 26.6233 Z 0.0000
G01 X 47.4365 Y 25.6104 Z 0.0000
G01 X 47.4365 Y 24.5979 Z 0.0000
G01 X 47.4365 Y 23.5851 Z 0.0000
G01 X 47.2482 Y 22.8243 Z 0.0000
G01 X 46.4237 Y 22.9970 Z 0.0000
G00 Z 7.0000

(End cutting path id: path16917-7-2)


(Start cutting path id: path16917-7-2)
(Change tool to Default tool)

G00 Z 7.0000
G00 X 47.4657 Y 16.1649

G01 Z 0.0000 F 100.0000(Penetrate)
G01 X 46.6465 Y 16.5452 Z 0.0000 F 400.0000
G01 X 45.8269 Y 16.9258 Z 0.0000
G01 X 45.0075 Y 17.3062 Z 0.0000
G01 X 44.1879 Y 17.6867 Z 0.0000
G01 X 43.5259 Y 18.1610 Z 0.0000
G01 X 43.3690 Y 19.0695 Z 0.0000
G01 X 43.3690 Y 20.0718 Z 0.0000
G01 X 43.3690 Y 21.0735 Z 0.0000
G01 X 43.3690 Y 22.0758 Z 0.0000
G00 Z 7.0000

(End cutting path id: path16917-7-2)


(Start cutting path id: path16917-7-2)
(Change tool to Default tool)

G00 Z 7.0000
G00 X 40.5891 Y 17.0720

G01 Z 0.0000 F 100.0000(Penetrate)
G01 X 40.6139 Y 15.9558 Z 0.0000 F 400.0000
G01 X 40.6146 Y 14.8388 Z 0.0000
G01 X 40.6111 Y 13.7221 Z 0.0000
G01 X 40.6053 Y 12.6050 Z 0.0000
G01 X 40.5979 Y 11.4886 Z 0.0000
G01 X 40.8087 Y 10.4338 Z 0.0000
G01 X 41.5548 Y 9.9445 Z 0.0000
G01 X 42.5203 Y 9.5182 Z 0.0000
G01 X 43.4863 Y 9.0917 Z 0.0000
G01 X 44.4515 Y 8.6655 Z 0.0000
G01 X 45.4174 Y 8.2390 Z 0.0000
G01 X 46.3825 Y 7.8128 Z 0.0000
G01 X 47.3486 Y 7.3863 Z 0.0000
G01 X 47.3486 Y 8.1763 Z 0.0000
G01 X 47.3486 Y 8.9662 Z 0.0000
G01 X 47.3486 Y 9.7565 Z 0.0000
G01 X 46.3533 Y 10.2175 Z 0.0000
G01 X 45.3583 Y 10.6785 Z 0.0000
G01 X 44.3639 Y 11.1391 Z 0.0000
G01 X 43.5572 Y 11.6628 Z 0.0000
G01 X 43.3689 Y 12.7123 Z 0.0000
G01 X 43.3689 Y 13.8244 Z 0.0000
G01 X 43.3689 Y 14.9358 Z 0.0000
G01 X 43.3689 Y 16.0478 Z 0.0000
G00 Z 7.0000

(End cutting path id: path16917-7-2)



(Footer)
M5
G00 X0.0000 Y0.0000
M2
(Using default footer. To add your own footer create file "footer" in the output dir.)
(end)
%