%
(Header)
(Generated by gcodetools from Inkscape.)
(Using default header. To add your own header create file "header" in the output dir.)
M3
(Header end.)
G21 (All units in mm)

(Start cutting path id: path21)
(Change tool to Default tool)

G00 Z7.000000
G00 X49.729486 Y13.074570

G01 Z0.000000 F100.0(Penetrate)
G01 X48.940983 Y13.371450 Z0.000000 F400.000000
G01 X48.327461 Y13.834020 Z0.000000
G01 X47.902213 Y14.399333 Z0.000000
G01 X47.701184 Y15.095760 Z0.000000
G01 X47.644814 Y15.471670 Z0.000000
G01 X48.795258 Y15.473670 Z0.000000
G01 X49.945703 Y15.475670 Z0.000000
G01 X50.091830 Y15.137260 Z0.000000
G01 X50.401361 Y14.652790 Z0.000000
G01 X50.898651 Y14.449382 Z0.000000
G01 X51.445871 Y14.516498 Z0.000000
G01 X51.842139 Y14.783079 Z0.000000
G01 X51.886574 Y15.178070 Z0.000000
G01 X51.434701 Y15.569685 Z0.000000
G01 X50.342155 Y15.826750 Z0.000000
G01 X49.115419 Y16.106059 Z0.000000
G01 X48.352237 Y16.554620 Z0.000000
G01 X47.911277 Y17.107989 Z0.000000
G01 X47.783486 Y17.813420 Z0.000000
G01 X47.877079 Y18.472735 Z0.000000
G01 X48.171092 Y19.016916 Z0.000000
G01 X48.668728 Y19.449920 Z0.000000
G01 X49.373188 Y19.775700 Z0.000000
G01 X50.099040 Y19.966012 Z0.000000
G01 X50.992349 Y20.001600 Z0.000000
G01 X52.210348 Y19.883041 Z0.000000
G01 X53.120795 Y19.538700 Z0.000000
G01 X53.729188 Y18.965332 Z0.000000
G01 X54.041023 Y18.159690 Z0.000000
G01 X54.095783 Y17.854160 Z0.000000
G01 X52.998817 Y17.854160 Z0.000000
G01 X51.901860 Y17.854160 Z0.000000
G01 X51.728823 Y18.134140 Z0.000000
G01 X51.297089 Y18.493820 Z0.000000
G01 X50.725605 Y18.554460 Z0.000000
G01 X50.338662 Y18.375313 Z0.000000
G01 X50.177597 Y18.098590 Z0.000000
G01 X50.243377 Y17.912761 Z0.000000
G01 X50.472770 Y17.757531 Z0.000000
G01 X51.614724 Y17.452390 Z0.000000
G01 X53.065569 Y17.087660 Z0.000000
G01 X53.603806 Y16.780710 Z0.000000
G01 X53.981333 Y16.372703 Z0.000000
G01 X54.205812 Y15.851817 Z0.000000
G01 X54.284905 Y15.206230 Z0.000000
G01 X54.205268 Y14.529442 Z0.000000
G01 X53.938458 Y13.981446 Z0.000000
G01 X53.470819 Y13.543920 Z0.000000
G01 X52.788692 Y13.198540 Z0.000000
G01 X51.291302 Y12.991544 Z0.000000
G01 X49.729486 Y13.074820 Z0.000000
G01 X49.729486 Y13.074570 Z0.000000
G00 Z7.000000

(End cutting path id: path21)


(Start cutting path id: path21)
(Change tool to Default tool)

G00 Z7.000000
G00 X24.046459 Y13.162870

G01 Z0.000000 F100.0(Penetrate)
G01 X23.314658 Y13.483576 Z0.000000 F400.000000
G01 X22.796782 Y14.002718 Z0.000000
G01 X22.531257 Y14.662472 Z0.000000
G01 X22.556503 Y15.405020 Z0.000000
G01 X22.836904 Y16.046247 Z0.000000
G01 X23.354834 Y16.544267 Z0.000000
G01 X24.143783 Y16.921512 Z0.000000
G01 X25.237241 Y17.200410 Z0.000000
G01 X26.516187 Y17.536373 Z0.000000
G01 X26.738674 Y17.739142 Z0.000000
G01 X26.794312 Y18.023880 Z0.000000
G01 X26.737738 Y18.246941 Z0.000000
G01 X26.529518 Y18.425130 Z0.000000
G01 X26.135531 Y18.566089 Z0.000000
G01 X25.748075 Y18.527885 Z0.000000
G01 X25.404296 Y18.322873 Z0.000000
G01 X25.141341 Y17.963410 Z0.000000
G01 X24.969394 Y17.609490 Z0.000000
G01 X23.844981 Y17.609490 Z0.000000
G01 X22.720568 Y17.609490 Z0.000000
G01 X22.721057 Y17.874280 Z0.000000
G01 X22.868893 Y18.581140 Z0.000000
G01 X23.287106 Y19.186899 Z0.000000
G01 X23.941584 Y19.657333 Z0.000000
G01 X24.798212 Y19.958220 Z0.000000
G01 X26.174234 Y20.105356 Z0.000000
G01 X27.422838 Y19.959980 Z0.000000
G01 X28.426895 Y19.550919 Z0.000000
G01 X29.069274 Y18.907000 Z0.000000
G01 X29.318022 Y17.845093 Z0.000000
G01 X29.398635 Y15.689250 Z0.000000
G01 X29.485795 Y14.163640 Z0.000000
G01 X29.734838 Y13.417610 Z0.000000
G01 X29.790785 Y13.309443 Z0.000000
G01 X29.657837 Y13.246514 Z0.000000
G01 X28.566424 Y13.210470 Z0.000000
G01 X27.323932 Y13.211120 Z0.000000
G01 X27.141146 Y13.531240 Z0.000000
G01 X26.958360 Y13.851370 Z0.000000
G01 X26.544584 Y13.572910 Z0.000000
G01 X25.831147 Y13.216820 Z0.000000
G01 X24.905430 Y13.097811 Z0.000000
G01 X24.046493 Y13.162920 Z0.000000
G01 X24.046459 Y13.162870 Z0.000000
G00 Z7.000000

(End cutting path id: path21)


(Start cutting path id: path21)
(Change tool to Default tool)

G00 Z7.000000
G00 X26.333585 Y14.828380

G01 Z0.000000 F100.0(Penetrate)
G01 X26.713221 Y15.262391 Z0.000000 F400.000000
G01 X26.930411 Y15.948410 Z0.000000
G01 X26.959552 Y16.194003 Z0.000000
G01 X26.877815 Y16.276050 Z0.000000
G01 X25.905304 Y15.950410 Z0.000000
G01 X25.089683 Y15.519088 Z0.000000
G01 X24.968992 Y15.297168 Z0.000000
G01 X25.015315 Y15.046290 Z0.000000
G01 X25.228429 Y14.784666 Z0.000000
G01 X25.544723 Y14.656963 Z0.000000
G01 X26.333585 Y14.828620 Z0.000000
G01 X26.333585 Y14.828380 Z0.000000
G00 Z7.000000

(End cutting path id: path21)


(Start cutting path id: path21)
(Change tool to Default tool)

G00 Z7.000000
G00 X41.867161 Y13.176640

G01 Z0.000000 F100.0(Penetrate)
G01 X41.093681 Y13.538901 Z0.000000 F400.000000
G01 X40.577145 Y14.118160 Z0.000000
G01 X40.426249 Y14.520840 Z0.000000
G01 X40.420697 Y15.100370 Z0.000000
G01 X40.489894 Y15.666496 Z0.000000
G01 X40.670762 Y16.037330 Z0.000000
G01 X41.037066 Y16.430427 Z0.000000
G01 X41.559616 Y16.744259 Z0.000000
G01 X43.321860 Y17.247510 Z0.000000
G01 X44.442139 Y17.617490 Z0.000000
G01 X44.629463 Y18.020366 Z0.000000
G01 X44.441929 Y18.369549 Z0.000000
G01 X44.009029 Y18.553722 Z0.000000
G01 X43.460253 Y18.461570 Z0.000000
G01 X43.085036 Y18.143082 Z0.000000
G01 X42.926335 Y17.735750 Z0.000000
G01 X42.715378 Y17.632034 Z0.000000
G01 X41.744949 Y17.609490 Z0.000000
G01 X40.563564 Y17.609490 Z0.000000
G01 X40.563564 Y17.928630 Z0.000000
G01 X40.706486 Y18.551274 Z0.000000
G01 X41.028265 Y19.118560 Z0.000000
G01 X41.972772 Y19.735611 Z0.000000
G01 X43.291931 Y20.062838 Z0.000000
G01 X44.716160 Y20.067613 Z0.000000
G01 X45.975875 Y19.717310 Z0.000000
G01 X46.627345 Y19.312809 Z0.000000
G01 X47.004029 Y18.769310 Z0.000000
G01 X47.178369 Y18.131440 Z0.000000
G01 X47.250736 Y16.224420 Z0.000000
G01 X47.351772 Y14.141860 Z0.000000
G01 X47.581521 Y13.417610 Z0.000000
G01 X47.633278 Y13.309105 Z0.000000
G01 X47.498352 Y13.246136 Z0.000000
G01 X46.401846 Y13.209850 Z0.000000
G01 X45.151816 Y13.209850 Z0.000000
G01 X44.998246 Y13.495010 Z0.000000
G01 X44.776235 Y13.761825 Z0.000000
G01 X44.595612 Y13.697140 Z0.000000
G01 X44.086564 Y13.389318 Z0.000000
G01 X43.295100 Y13.135660 Z0.000000
G01 X42.558461 Y13.058533 Z0.000000
G01 X41.867161 Y13.176660 Z0.000000
G01 X41.867161 Y13.176640 Z0.000000
G00 Z7.000000

(End cutting path id: path21)


(Start cutting path id: path21)
(Change tool to Default tool)

G00 Z7.000000
G00 X44.148458 Y14.827410

G01 Z0.000000 F100.0(Penetrate)
G01 X44.524336 Y15.229380 Z0.000000 F400.000000
G01 X44.738022 Y15.773919 Z0.000000
G01 X44.758082 Y16.226740 Z0.000000
G01 X43.929243 Y16.015152 Z0.000000
G01 X42.991034 Y15.598170 Z0.000000
G01 X42.852514 Y15.286578 Z0.000000
G01 X42.909074 Y14.945960 Z0.000000
G01 X43.213358 Y14.719060 Z0.000000
G01 X43.674928 Y14.634684 Z0.000000
G01 X44.148458 Y14.827410 Z0.000000
G01 X44.148458 Y14.827410 Z0.000000
G00 Z7.000000

(End cutting path id: path21)


(Start cutting path id: path21)
(Change tool to Default tool)

G00 Z7.000000
G00 X56.125262 Y13.177500

G01 Z0.000000 F100.0(Penetrate)
G01 X55.470668 Y13.477717 Z0.000000 F400.000000
G01 X54.949148 Y13.974180 Z0.000000
G01 X54.811382 Y14.302583 Z0.000000
G01 X54.780927 Y14.994240 Z0.000000
G01 X54.814869 Y15.715778 Z0.000000
G01 X55.010102 Y16.089450 Z0.000000
G01 X55.950718 Y16.785177 Z0.000000
G01 X57.584243 Y17.241520 Z0.000000
G01 X58.535092 Y17.502369 Z0.000000
G01 X58.930668 Y17.873100 Z0.000000
G01 X58.912203 Y18.186692 Z0.000000
G01 X58.678593 Y18.428092 Z0.000000
G01 X58.307986 Y18.550277 Z0.000000
G01 X57.878528 Y18.506220 Z0.000000
G01 X57.447292 Y18.215319 Z0.000000
G01 X57.265911 Y17.802190 Z0.000000
G01 X57.265911 Y17.609490 Z0.000000
G01 X56.033291 Y17.609490 Z0.000000
G01 X54.800672 Y17.609490 Z0.000000
G01 X54.857252 Y18.037230 Z0.000000
G01 X55.117124 Y18.817857 Z0.000000
G01 X55.667771 Y19.413659 Z0.000000
G01 X56.512482 Y19.827014 Z0.000000
G01 X57.654548 Y20.060300 Z0.000000
G01 X59.478262 Y19.988499 Z0.000000
G01 X60.228688 Y19.742399 Z0.000000
G01 X60.833365 Y19.364510 Z0.000000
G01 X61.173244 Y18.986337 Z0.000000
G01 X61.376279 Y18.434415 Z0.000000
G01 X61.537993 Y16.020730 Z0.000000
G01 X61.625693 Y14.273825 Z0.000000
G01 X61.868167 Y13.352430 Z0.000000
G01 X61.730467 Y13.231595 Z0.000000
G01 X60.695377 Y13.209850 Z0.000000
G01 X59.463339 Y13.209850 Z0.000000
G01 X59.301911 Y13.474640 Z0.000000
G01 X59.105624 Y13.820910 Z0.000000
G01 X59.003457 Y13.812910 Z0.000000
G01 X58.488338 Y13.455337 Z0.000000
G01 X57.734585 Y13.169600 Z0.000000
G01 X56.910396 Y13.059937 Z0.000000
G01 X56.125265 Y13.177600 Z0.000000
G01 X56.125262 Y13.177500 Z0.000000
G00 Z7.000000

(End cutting path id: path21)


(Start cutting path id: path21)
(Change tool to Default tool)

G00 Z7.000000
G00 X58.444413 Y14.827520

G01 Z0.000000 F100.0(Penetrate)
G01 X58.840805 Y15.232460 Z0.000000 F400.000000
G01 X59.099342 Y16.224020 Z0.000000
G01 X57.447203 Y15.704310 Z0.000000
G01 X57.191967 Y15.478851 Z0.000000
G01 X57.125168 Y15.201940 Z0.000000
G01 X57.241866 Y14.928097 Z0.000000
G01 X57.537123 Y14.711840 Z0.000000
G01 X57.962556 Y14.643519 Z0.000000
G01 X58.444417 Y14.827520 Z0.000000
G01 X58.444413 Y14.827520 Z0.000000
G00 Z7.000000

(End cutting path id: path21)


(Start cutting path id: path21)
(Change tool to Default tool)

G00 Z7.000000
G00 X13.676859 Y17.690960

G01 Z0.000000 F100.0(Penetrate)
G01 X13.676859 Y22.172080 Z0.000000 F400.000000
G01 X14.980456 Y22.172080 Z0.000000
G01 X16.284054 Y22.172080 Z0.000000
G01 X16.284054 Y20.873290 Z0.000000
G01 X16.350534 Y19.533410 Z0.000000
G01 X17.755049 Y20.832200 Z0.000000
G01 X19.093081 Y22.172080 Z0.000000
G01 X20.753053 Y22.172080 Z0.000000
G01 X22.413026 Y22.172080 Z0.000000
G01 X20.721432 Y20.418240 Z0.000000
G01 X19.029837 Y18.664400 Z0.000000
G01 X19.791909 Y17.546250 Z0.000000
G01 X21.637273 Y14.860460 Z0.000000
G01 X22.720564 Y13.251330 Z0.000000
G01 X20.988164 Y13.209830 Z0.000000
G01 X19.255764 Y13.209830 Z0.000000
G01 X18.197650 Y14.918440 Z0.000000
G01 X17.071294 Y16.629410 Z0.000000
G01 X16.646785 Y16.244760 Z0.000000
G01 X16.290520 Y15.857760 Z0.000000
G01 X16.287320 Y14.533790 Z0.000000
G01 X16.284120 Y13.209830 Z0.000000
G01 X14.980522 Y13.209830 Z0.000000
G01 X13.676925 Y13.209830 Z0.000000
G01 X13.676859 Y17.690960 Z0.000000
G00 Z7.000000

(End cutting path id: path21)


(Start cutting path id: path21)
(Change tool to Default tool)

G00 Z7.000000
G00 X31.477918 Y13.311690

G01 Z0.000000 F100.0(Penetrate)
G01 X29.516497 Y19.076040 Z0.000000 F400.000000
G01 X29.321146 Y19.687100 Z0.000000
G01 X30.664259 Y19.662900 Z0.000000
G01 X32.008703 Y19.543360 Z0.000000
G01 X32.919869 Y16.713230 Z0.000000
G01 X32.986549 Y16.815080 Z0.000000
G01 X33.419550 Y18.261260 Z0.000000
G01 X33.852399 Y19.605590 Z0.000000
G01 X35.005237 Y19.628190 Z0.000000
G01 X36.158074 Y19.650790 Z0.000000
G01 X36.278563 Y19.220830 Z0.000000
G01 X36.964614 Y16.876200 Z0.000000
G01 X37.043354 Y16.672520 Z0.000000
G01 X37.139434 Y16.916940 Z0.000000
G01 X37.644415 Y18.403860 Z0.000000
G01 X38.053316 Y19.646350 Z0.000000
G01 X39.308435 Y19.646350 Z0.000000
G01 X40.563554 Y19.574650 Z0.000000
G01 X39.749053 Y16.916960 Z0.000000
G01 X39.009298 Y14.574560 Z0.000000
G01 X38.580121 Y13.209860 Z0.000000
G01 X37.337070 Y13.209860 Z0.000000
G01 X36.094009 Y13.209860 Z0.000000
G01 X35.965104 Y13.637600 Z0.000000
G01 X35.063252 Y16.285910 Z0.000000
G01 X34.918382 Y16.041490 Z0.000000
G01 X34.577308 Y14.839350 Z0.000000
G01 X34.210578 Y13.556120 Z0.000000
G01 X34.120768 Y13.209860 Z0.000000
G01 X32.817754 Y13.209860 Z0.000000
G01 X31.477918 Y13.311700 Z0.000000
G01 X31.477918 Y13.311690 Z0.000000
G00 Z7.000000

(End cutting path id: path21)


(Start cutting path id: path21)
(Change tool to Default tool)

G00 Z7.000000
G00 X62.317352 Y17.731700

G01 Z0.000000 F100.0(Penetrate)
G01 X62.317352 Y22.253550 Z0.000000 F400.000000
G01 X63.580212 Y22.253550 Z0.000000
G01 X64.843073 Y22.253550 Z0.000000
G01 X64.843073 Y20.271000 Z0.000000
G01 X64.891383 Y18.240130 Z0.000000
G01 X65.544999 Y18.919090 Z0.000000
G01 X66.150304 Y19.646360 Z0.000000
G01 X67.669351 Y19.646360 Z0.000000
G01 X69.126228 Y19.585260 Z0.000000
G01 X67.058939 Y17.324050 Z0.000000
G01 X68.342168 Y15.248200 Z0.000000
G01 X69.650090 Y13.243490 Z0.000000
G01 X68.163173 Y13.213390 Z0.000000
G01 X66.676257 Y13.217390 Z0.000000
G01 X65.983721 Y14.313410 Z0.000000
G01 X65.222769 Y15.409770 Z0.000000
G01 X65.001424 Y15.226800 Z0.000000
G01 X64.875998 Y14.909220 Z0.000000
G01 X64.845783 Y14.126880 Z0.000000
G01 X64.843083 Y13.210300 Z0.000000
G01 X63.580222 Y13.210300 Z0.000000
G01 X62.317362 Y13.210300 Z0.000000
G01 X62.317352 Y17.731700 Z0.000000
G00 Z7.000000

(End cutting path id: path21)


(Start cutting path id: path21)
(Change tool to Default tool)

G00 Z7.000000
G00 X70.057347 Y16.448470

G01 Z0.000000 F100.0(Penetrate)
G01 X70.057265 Y19.687100 Z0.000000 F400.000000
G01 X71.320243 Y19.662700 Z0.000000
G01 X72.583221 Y19.638400 Z0.000000
G01 X72.583221 Y16.424130 Z0.000000
G01 X72.583221 Y13.209860 Z0.000000
G01 X71.320360 Y13.209860 Z0.000000
G01 X70.057500 Y13.209860 Z0.000000
G01 X70.057418 Y16.448480 Z0.000000
G01 X70.057347 Y16.448470 Z0.000000
G00 Z7.000000

(End cutting path id: path21)


(Start cutting path id: path21)
(Change tool to Default tool)

G00 Z7.000000
G00 X70.057464 Y21.316590

G01 Z0.000000 F100.0(Penetrate)
G01 X70.057464 Y22.172080 Z0.000000 F400.000000
G01 X71.320324 Y22.172080 Z0.000000
G01 X72.583185 Y22.172080 Z0.000000
G01 X72.583185 Y21.316590 Z0.000000
G01 X72.583185 Y20.461110 Z0.000000
G01 X71.320324 Y20.461110 Z0.000000
G01 X70.057464 Y20.461110 Z0.000000
G01 X70.057464 Y21.316590 Z0.000000
G00 Z7.000000

(End cutting path id: path21)


(Start cutting path id: path21)
(Change tool to Default tool)

G00 Z7.000000
G00 X13.676859 Y37.529370

G01 Z0.000000 F100.0(Penetrate)
G01 X13.676859 Y47.264890 Z0.000000 F400.000000
G01 X22.475490 Y47.285990 Z0.000000
G01 X31.274121 Y47.307090 Z0.000000
G01 X31.295141 Y42.663020 Z0.000000
G01 X31.316161 Y38.018950 Z0.000000
G01 X32.660496 Y38.018950 Z0.000000
G01 X36.474113 Y38.184050 Z0.000000
G01 X40.159255 Y38.648980 Z0.000000
G01 X43.447628 Y39.368182 Z0.000000
G01 X46.070941 Y40.296100 Z0.000000
G01 X47.556587 Y41.095700 Z0.000000
G01 X48.858915 Y42.014038 Z0.000000
G01 X49.878311 Y42.970667 Z0.000000
G01 X50.515162 Y43.885140 Z0.000000
G01 X50.755026 Y44.879504 Z0.000000
G01 X50.555342 Y45.843290 Z0.000000
G01 X49.917444 Y46.652436 Z0.000000
G01 X49.247116 Y47.197110 Z0.000000
G01 X49.199635 Y47.225687 Z0.000000
G01 X49.529749 Y47.248801 Z0.000000
G01 X51.451182 Y47.279594 Z0.000000
G01 X61.237805 Y47.286110 Z0.000000
G01 X72.583180 Y47.265210 Z0.000000
G01 X72.583180 Y47.078930 Z0.000000
G01 X71.937047 Y44.943740 Z0.000000
G01 X71.033324 Y43.439745 Z0.000000
G01 X69.746247 Y41.988136 Z0.000000
G01 X68.172945 Y40.682540 Z0.000000
G01 X66.410546 Y39.616580 Z0.000000
G01 X63.338153 Y38.404116 Z0.000000
G01 X59.811995 Y37.610100 Z0.000000
G01 X59.477268 Y37.489940 Z0.000000
G01 X59.594315 Y37.407880 Z0.000000
G01 X63.431146 Y36.482460 Z0.000000
G01 X66.278967 Y35.346251 Z0.000000
G01 X68.604341 Y34.031961 Z0.000000
G01 X70.424592 Y32.527811 Z0.000000
G01 X71.757047 Y30.822020 Z0.000000
G01 X72.264744 Y29.625412 Z0.000000
G01 X72.558143 Y28.343800 Z0.000000
G01 X72.606813 Y27.793850 Z0.000000
G01 X60.557086 Y27.794850 Z0.000000
G01 X51.466907 Y27.816110 Z0.000000
G01 X48.629570 Y27.879550 Z0.000000
G01 X49.159157 Y28.174110 Z0.000000
G01 X50.531377 Y29.172320 Z0.000000
G01 X51.127542 Y29.879209 Z0.000000
G01 X51.456911 Y30.631109 Z0.000000
G01 X51.514409 Y31.407966 Z0.000000
G01 X51.294963 Y32.189730 Z0.000000
G01 X50.518510 Y33.156679 Z0.000000
G01 X49.342454 Y34.100820 Z0.000000
G01 X47.681548 Y34.926599 Z0.000000
G01 X45.457840 Y35.765154 Z0.000000
G01 X43.032638 Y36.494619 Z0.000000
G01 X40.767246 Y36.993130 Z0.000000
G01 X37.125445 Y37.406194 Z0.000000
G01 X32.864184 Y37.592750 Z0.000000
G01 X31.316162 Y37.611250 Z0.000000
G01 X31.295162 Y32.702390 Z0.000000
G01 X31.274152 Y27.793530 Z0.000000
G01 X22.475503 Y27.793530 Z0.000000
G01 X13.676854 Y27.793530 Z0.000000
G01 X13.676859 Y37.529370 Z0.000000
G00 Z7.000000

(End cutting path id: path21)


(Footer)
M5
G00 X0.0000 Y0.0000
M2
(Using default footer. To add your own footer create file "footer" in the output dir.)
(end)
%