%
(Header)
(Generated by gcodetools from Inkscape.)
(Using default header. To add your own header create file "header" in the output dir.)
M3
(Header end.)
G21 (All units in mm)

(Start cutting path id: path21)
(Change tool to Default tool)

G00 Z 7.0000
G00 X 45.8246 Y 20.4580

G01 Z 0.0000 F 100.0000(Penetrate)
G01 X 45.0874 Y 20.8573 Z 0.0000 F 400.0000
G01 X 44.7582 Y 21.5207 Z 0.0000
G01 X 44.7285 Y 21.7183 Z 0.0000
G01 X 45.3334 Y 21.7193 Z 0.0000
G01 X 45.9383 Y 21.7203 Z 0.0000
G01 X 46.0151 Y 21.5424 Z 0.0000
G01 X 46.1778 Y 21.2876 Z 0.0000
G01 X 46.4393 Y 21.1807 Z 0.0000
G01 X 46.7270 Y 21.2160 Z 0.0000
G01 X 46.9354 Y 21.3562 Z 0.0000
G01 X 46.9587 Y 21.5638 Z 0.0000
G01 X 46.7211 Y 21.7697 Z 0.0000
G01 X 46.1467 Y 21.9049 Z 0.0000
G01 X 45.5017 Y 22.0517 Z 0.0000
G01 X 45.1005 Y 22.2876 Z 0.0000
G01 X 44.8686 Y 22.5785 Z 0.0000
G01 X 44.8014 Y 22.9494 Z 0.0000
G01 X 45.0052 Y 23.5822 Z 0.0000
G01 X 45.6372 Y 23.9811 Z 0.0000
G01 X 46.4886 Y 24.0999 Z 0.0000
G01 X 47.1289 Y 24.0375 Z 0.0000
G01 X 47.6076 Y 23.8564 Z 0.0000
G01 X 47.9275 Y 23.5550 Z 0.0000
G01 X 48.0915 Y 23.1315 Z 0.0000
G01 X 48.1203 Y 22.9708 Z 0.0000
G01 X 47.5435 Y 22.9708 Z 0.0000
G01 X 46.9668 Y 22.9708 Z 0.0000
G01 X 46.8758 Y 23.1181 Z 0.0000
G01 X 46.6488 Y 23.3072 Z 0.0000
G01 X 46.3483 Y 23.3390 Z 0.0000
G01 X 46.0602 Y 23.0994 Z 0.0000
G01 X 46.2154 Y 22.9200 Z 0.0000
G01 X 46.8158 Y 22.7596 Z 0.0000
G01 X 47.5786 Y 22.5678 Z 0.0000
G01 X 48.0601 Y 22.1919 Z 0.0000
G01 X 48.2197 Y 21.5786 Z 0.0000
G01 X 48.0375 Y 20.9347 Z 0.0000
G01 X 47.4330 Y 20.5230 Z 0.0000
G01 X 46.6457 Y 20.4142 Z 0.0000
G01 X 45.8246 Y 20.4580 Z 0.0000
G01 X 45.8246 Y 20.4580 Z 0.0000
G00 Z 7.0000

(End cutting path id: path21)


(Start cutting path id: path21)
(Change tool to Default tool)

G00 Z 7.0000
G00 X 42.8902 Y 21.3796

G01 Z 0.0000 F 100.0000(Penetrate)
G01 X 43.0879 Y 21.5909 Z 0.0000 F 400.0000
G01 X 43.2107 Y 22.1153 Z 0.0000
G01 X 42.2817 Y 21.7848 Z 0.0000
G01 X 42.2386 Y 21.4419 Z 0.0000
G01 X 42.3986 Y 21.3226 Z 0.0000
G01 X 42.8902 Y 21.3796 Z 0.0000
G01 X 42.8902 Y 21.3796 Z 0.0000
G00 Z 7.0000

(End cutting path id: path21)


(Start cutting path id: path21)
(Change tool to Default tool)

G00 Z 7.0000
G00 X 41.6908 Y 20.5116

G01 Z 0.0000 F 100.0000(Penetrate)
G01 X 41.2841 Y 20.7021 Z 0.0000 F 400.0000
G01 X 41.0125 Y 21.0067 Z 0.0000
G01 X 40.9303 Y 21.5231 Z 0.0000
G01 X 41.0617 Y 22.0157 Z 0.0000
G01 X 41.5291 Y 22.3874 Z 0.0000
G01 X 42.4556 Y 22.6520 Z 0.0000
G01 X 43.0446 Y 22.8465 Z 0.0000
G01 X 43.1431 Y 23.0583 Z 0.0000
G01 X 43.0445 Y 23.2419 Z 0.0000
G01 X 42.8169 Y 23.3388 Z 0.0000
G01 X 42.5284 Y 23.2903 Z 0.0000
G01 X 42.2477 Y 22.9087 Z 0.0000
G01 X 41.6265 Y 22.8423 Z 0.0000
G01 X 41.0054 Y 22.8423 Z 0.0000
G01 X 41.0054 Y 23.0101 Z 0.0000
G01 X 41.2497 Y 23.6357 Z 0.0000
G01 X 41.7463 Y 23.9601 Z 0.0000
G01 X 42.4399 Y 24.1322 Z 0.0000
G01 X 43.1887 Y 24.1347 Z 0.0000
G01 X 43.8510 Y 23.9505 Z 0.0000
G01 X 44.1936 Y 23.7378 Z 0.0000
G01 X 44.3916 Y 23.4521 Z 0.0000
G01 X 44.5213 Y 22.1140 Z 0.0000
G01 X 44.5744 Y 21.0191 Z 0.0000
G01 X 44.6952 Y 20.6383 Z 0.0000
G01 X 44.6515 Y 20.5481 Z 0.0000
G01 X 44.0750 Y 20.5291 Z 0.0000
G01 X 43.4178 Y 20.5291 Z 0.0000
G01 X 43.3370 Y 20.6790 Z 0.0000
G01 X 43.1253 Y 20.7853 Z 0.0000
G01 X 42.4415 Y 20.4901 Z 0.0000
G01 X 41.6908 Y 20.5116 Z 0.0000
G01 X 41.6908 Y 20.5116 Z 0.0000
G00 Z 7.0000

(End cutting path id: path21)


(Start cutting path id: path21)
(Change tool to Default tool)

G00 Z 7.0000
G00 X 36.2284 Y 20.5826

G01 Z 0.0000 F 100.0000(Penetrate)
G01 X 35.1971 Y 23.6134 Z 0.0000 F 400.0000
G01 X 35.0944 Y 23.9347 Z 0.0000
G01 X 35.8006 Y 23.9219 Z 0.0000
G01 X 36.5075 Y 23.8591 Z 0.0000
G01 X 36.9865 Y 22.3711 Z 0.0000
G01 X 37.0216 Y 22.4246 Z 0.0000
G01 X 37.2493 Y 23.1850 Z 0.0000
G01 X 37.4768 Y 23.8918 Z 0.0000
G01 X 38.0830 Y 23.9037 Z 0.0000
G01 X 38.6891 Y 23.9156 Z 0.0000
G01 X 38.7524 Y 23.6895 Z 0.0000
G01 X 39.1132 Y 22.4568 Z 0.0000
G01 X 39.1546 Y 22.3497 Z 0.0000
G01 X 39.2051 Y 22.4782 Z 0.0000
G01 X 39.4706 Y 23.2600 Z 0.0000
G01 X 39.6856 Y 23.9133 Z 0.0000
G01 X 40.3455 Y 23.9133 Z 0.0000
G01 X 41.0054 Y 23.8756 Z 0.0000
G01 X 40.5771 Y 22.4782 Z 0.0000
G01 X 40.1882 Y 21.2466 Z 0.0000
G01 X 39.9625 Y 20.5291 Z 0.0000
G01 X 39.3090 Y 20.5291 Z 0.0000
G01 X 38.6554 Y 20.5291 Z 0.0000
G01 X 38.5876 Y 20.7540 Z 0.0000
G01 X 38.1135 Y 22.1464 Z 0.0000
G01 X 38.0373 Y 22.0179 Z 0.0000
G01 X 37.8580 Y 21.3859 Z 0.0000
G01 X 37.6652 Y 20.7112 Z 0.0000
G01 X 37.6179 Y 20.5291 Z 0.0000
G01 X 36.9328 Y 20.5291 Z 0.0000
G01 X 36.2284 Y 20.5826 Z 0.0000
G01 X 36.2284 Y 20.5826 Z 0.0000
G00 Z 7.0000

(End cutting path id: path21)


(Start cutting path id: path21)
(Change tool to Default tool)

G00 Z 7.0000
G00 X 33.5236 Y 21.3801

G01 Z 0.0000 F 100.0000(Penetrate)
G01 X 33.8374 Y 21.9689 Z 0.0000 F 400.0000
G01 X 33.8098 Y 22.1412 Z 0.0000
G01 X 33.2985 Y 21.9699 Z 0.0000
G01 X 32.8696 Y 21.7431 Z 0.0000
G01 X 32.8305 Y 21.4945 Z 0.0000
G01 X 33.1089 Y 21.2898 Z 0.0000
G01 X 33.5236 Y 21.3801 Z 0.0000
G01 X 33.5236 Y 21.3801 Z 0.0000
G00 Z 7.0000

(End cutting path id: path21)


(Start cutting path id: path21)
(Change tool to Default tool)

G00 Z 7.0000
G00 X 32.3211 Y 20.5044

G01 Z 0.0000 F 100.0000(Penetrate)
G01 X 31.9364 Y 20.6730 Z 0.0000 F 400.0000
G01 X 31.6641 Y 20.9460 Z 0.0000
G01 X 31.5245 Y 21.2928 Z 0.0000
G01 X 31.5378 Y 21.6833 Z 0.0000
G01 X 31.9575 Y 22.2822 Z 0.0000
G01 X 32.9472 Y 22.6272 Z 0.0000
G01 X 33.6196 Y 22.8039 Z 0.0000
G01 X 33.7659 Y 23.0602 Z 0.0000
G01 X 33.6267 Y 23.2711 Z 0.0000
G01 X 33.2158 Y 23.3252 Z 0.0000
G01 X 32.8968 Y 23.0284 Z 0.0000
G01 X 32.8064 Y 22.8423 Z 0.0000
G01 X 32.2152 Y 22.8423 Z 0.0000
G01 X 31.6240 Y 22.8423 Z 0.0000
G01 X 31.6243 Y 22.9815 Z 0.0000
G01 X 31.7020 Y 23.3532 Z 0.0000
G01 X 31.9219 Y 23.6717 Z 0.0000
G01 X 32.7164 Y 24.0772 Z 0.0000
G01 X 33.4399 Y 24.1546 Z 0.0000
G01 X 34.0963 Y 24.0781 Z 0.0000
G01 X 34.6242 Y 23.8631 Z 0.0000
G01 X 34.9620 Y 23.5245 Z 0.0000
G01 X 35.1352 Y 21.8327 Z 0.0000
G01 X 35.3119 Y 20.6383 Z 0.0000
G01 X 35.2714 Y 20.5483 Z 0.0000
G01 X 34.6976 Y 20.5294 Z 0.0000
G01 X 34.0443 Y 20.5298 Z 0.0000
G01 X 33.9482 Y 20.6981 Z 0.0000
G01 X 33.8521 Y 20.8664 Z 0.0000
G01 X 33.6346 Y 20.7200 Z 0.0000
G01 X 33.2595 Y 20.5328 Z 0.0000
G01 X 32.3211 Y 20.5044 Z 0.0000
G01 X 32.3211 Y 20.5044 Z 0.0000
G00 Z 7.0000

(End cutting path id: path21)


(Start cutting path id: path21)
(Change tool to Default tool)

G00 Z 7.0000
G00 X 26.8691 Y 22.8851

G01 Z 0.0000 F 100.0000(Penetrate)
G01 X 26.8691 Y 25.2412 Z 0.0000 F 400.0000
G01 X 27.5545 Y 25.2412 Z 0.0000
G01 X 28.2399 Y 25.2412 Z 0.0000
G01 X 28.2399 Y 24.5583 Z 0.0000
G01 X 28.2748 Y 23.8539 Z 0.0000
G01 X 29.0133 Y 24.5367 Z 0.0000
G01 X 29.7168 Y 25.2412 Z 0.0000
G01 X 30.5895 Y 25.2412 Z 0.0000
G01 X 31.4623 Y 25.2412 Z 0.0000
G01 X 30.5729 Y 24.3191 Z 0.0000
G01 X 29.6835 Y 23.3969 Z 0.0000
G01 X 30.0842 Y 22.8090 Z 0.0000
G01 X 31.0544 Y 21.3969 Z 0.0000
G01 X 31.6240 Y 20.5509 Z 0.0000
G01 X 30.7132 Y 20.5291 Z 0.0000
G01 X 29.8023 Y 20.5291 Z 0.0000
G01 X 29.2460 Y 21.4274 Z 0.0000
G01 X 28.6538 Y 22.3270 Z 0.0000
G01 X 28.4306 Y 22.1248 Z 0.0000
G01 X 28.2433 Y 21.9213 Z 0.0000
G01 X 28.2416 Y 21.2252 Z 0.0000
G01 X 28.2399 Y 20.5291 Z 0.0000
G01 X 27.5545 Y 20.5291 Z 0.0000
G01 X 26.8691 Y 20.5291 Z 0.0000
G01 X 26.8691 Y 22.8851 Z 0.0000
G00 Z 7.0000

(End cutting path id: path21)


(Start cutting path id: path21)
(Change tool to Default tool)

G00 Z 7.0000
G00 X 26.8691 Y 33.3156

G01 Z 0.0000 F 100.0000(Penetrate)
G01 X 26.8691 Y 38.4343 Z 0.0000 F 400.0000
G01 X 31.4952 Y 38.4454 Z 0.0000
G01 X 36.1212 Y 38.4565 Z 0.0000
G01 X 36.1323 Y 36.0148 Z 0.0000
G01 X 36.1433 Y 33.5731 Z 0.0000
G01 X 36.8502 Y 33.5731 Z 0.0000
G01 X 38.8553 Y 33.6599 Z 0.0000
G01 X 40.7928 Y 33.9043 Z 0.0000
G01 X 42.5217 Y 34.2825 Z 0.0000
G01 X 43.9010 Y 34.7703 Z 0.0000
G01 X 45.3669 Y 35.6736 Z 0.0000
G01 X 46.2377 Y 36.6574 Z 0.0000
G01 X 46.3638 Y 37.1802 Z 0.0000
G01 X 46.2588 Y 37.6869 Z 0.0000
G01 X 45.5710 Y 38.3987 Z 0.0000
G01 X 45.7196 Y 38.4259 Z 0.0000
G01 X 46.7298 Y 38.4421 Z 0.0000
G01 X 51.8753 Y 38.4455 Z 0.0000
G01 X 57.8404 Y 38.4345 Z 0.0000
G01 X 57.8404 Y 38.3366 Z 0.0000
G01 X 57.5007 Y 37.2140 Z 0.0000
G01 X 57.0256 Y 36.4232 Z 0.0000
G01 X 56.3489 Y 35.6600 Z 0.0000
G01 X 55.5217 Y 34.9735 Z 0.0000
G01 X 54.5950 Y 34.4131 Z 0.0000
G01 X 52.9797 Y 33.7756 Z 0.0000
G01 X 51.1257 Y 33.3581 Z 0.0000
G01 X 50.9497 Y 33.2950 Z 0.0000
G01 X 51.0112 Y 33.2518 Z 0.0000
G01 X 53.0285 Y 32.7653 Z 0.0000
G01 X 54.5259 Y 32.1679 Z 0.0000
G01 X 55.7485 Y 31.4768 Z 0.0000
G01 X 56.7055 Y 30.6860 Z 0.0000
G01 X 57.4061 Y 29.7891 Z 0.0000
G01 X 57.8273 Y 28.4862 Z 0.0000
G01 X 57.8529 Y 28.1970 Z 0.0000
G01 X 51.5174 Y 28.1977 Z 0.0000
G01 X 45.2463 Y 28.2423 Z 0.0000
G01 X 45.5247 Y 28.3971 Z 0.0000
G01 X 46.2462 Y 28.9220 Z 0.0000
G01 X 46.7328 Y 29.6890 Z 0.0000
G01 X 46.6477 Y 30.5084 Z 0.0000
G01 X 46.2394 Y 31.0168 Z 0.0000
G01 X 45.6211 Y 31.5132 Z 0.0000
G01 X 43.5787 Y 32.3883 Z 0.0000
G01 X 41.1125 Y 33.0339 Z 0.0000
G01 X 36.9573 Y 33.3492 Z 0.0000
G01 X 36.1433 Y 33.3592 Z 0.0000
G01 X 36.1323 Y 30.7783 Z 0.0000
G01 X 36.1213 Y 28.1973 Z 0.0000
G01 X 31.4952 Y 28.1973 Z 0.0000
G01 X 26.8691 Y 28.1973 Z 0.0000
G01 X 26.8691 Y 33.3156 Z 0.0000
G00 Z 7.0000

(End cutting path id: path21)


(Start cutting path id: path21)
(Change tool to Default tool)

G00 Z 7.0000
G00 X 49.1873 Y 20.5121

G01 Z 0.0000 F 100.0000(Penetrate)
G01 X 48.5689 Y 20.9309 Z 0.0000 F 400.0000
G01 X 48.4805 Y 21.4673 Z 0.0000
G01 X 48.6010 Y 22.0431 Z 0.0000
G01 X 49.0955 Y 22.4089 Z 0.0000
G01 X 49.9544 Y 22.6488 Z 0.0000
G01 X 50.4543 Y 22.7860 Z 0.0000
G01 X 50.6623 Y 22.9809 Z 0.0000
G01 X 50.5298 Y 23.2727 Z 0.0000
G01 X 50.1091 Y 23.3138 Z 0.0000
G01 X 49.7870 Y 22.9436 Z 0.0000
G01 X 49.7870 Y 22.8423 Z 0.0000
G01 X 49.1389 Y 22.8423 Z 0.0000
G01 X 48.4909 Y 22.8423 Z 0.0000
G01 X 48.5206 Y 23.0672 Z 0.0000
G01 X 48.6573 Y 23.4776 Z 0.0000
G01 X 48.9468 Y 23.7909 Z 0.0000
G01 X 49.9914 Y 24.1309 Z 0.0000
G01 X 50.9502 Y 24.0931 Z 0.0000
G01 X 51.6627 Y 23.7650 Z 0.0000
G01 X 51.9481 Y 23.2760 Z 0.0000
G01 X 52.0332 Y 22.0070 Z 0.0000
G01 X 52.2068 Y 20.6041 Z 0.0000
G01 X 51.5901 Y 20.5291 Z 0.0000
G01 X 50.9424 Y 20.5291 Z 0.0000
G01 X 50.8575 Y 20.6683 Z 0.0000
G01 X 50.7543 Y 20.8503 Z 0.0000
G01 X 50.7006 Y 20.8463 Z 0.0000
G01 X 50.0334 Y 20.5081 Z 0.0000
G01 X 49.1873 Y 20.5121 Z 0.0000
G01 X 49.1873 Y 20.5121 Z 0.0000
G00 Z 7.0000

(End cutting path id: path21)


(Start cutting path id: path21)
(Change tool to Default tool)

G00 Z 7.0000
G00 X 50.4067 Y 21.3796

G01 Z 0.0000 F 100.0000(Penetrate)
G01 X 50.6151 Y 21.5925 Z 0.0000 F 400.0000
G01 X 50.7510 Y 22.1139 Z 0.0000
G01 X 49.8823 Y 21.8406 Z 0.0000
G01 X 49.7130 Y 21.5765 Z 0.0000
G01 X 49.9296 Y 21.3188 Z 0.0000
G01 X 50.4066 Y 21.3796 Z 0.0000
G01 X 50.4067 Y 21.3796 Z 0.0000
G00 Z 7.0000

(End cutting path id: path21)


(Start cutting path id: path21)
(Change tool to Default tool)

G00 Z 7.0000
G00 X 52.4429 Y 22.9066

G01 Z 0.0000 F 100.0000(Penetrate)
G01 X 52.4429 Y 25.2840 Z 0.0000 F 400.0000
G01 X 53.1069 Y 25.2840 Z 0.0000
G01 X 53.7709 Y 25.2840 Z 0.0000
G01 X 53.7709 Y 24.2416 Z 0.0000
G01 X 53.7963 Y 23.1739 Z 0.0000
G01 X 54.1400 Y 23.5309 Z 0.0000
G01 X 54.4582 Y 23.9132 Z 0.0000
G01 X 55.2569 Y 23.9132 Z 0.0000
G01 X 56.0229 Y 23.8811 Z 0.0000
G01 X 54.9359 Y 22.6922 Z 0.0000
G01 X 55.6106 Y 21.6008 Z 0.0000
G01 X 56.2983 Y 20.5468 Z 0.0000
G01 X 55.5165 Y 20.5310 Z 0.0000
G01 X 54.7347 Y 20.5330 Z 0.0000
G01 X 54.3706 Y 21.1092 Z 0.0000
G01 X 53.9705 Y 21.6857 Z 0.0000
G01 X 53.8542 Y 21.5895 Z 0.0000
G01 X 53.7723 Y 21.0112 Z 0.0000
G01 X 53.7709 Y 20.5293 Z 0.0000
G01 X 53.1069 Y 20.5293 Z 0.0000
G01 X 52.4429 Y 20.5293 Z 0.0000
G01 X 52.4429 Y 22.9066 Z 0.0000
G00 Z 7.0000

(End cutting path id: path21)


(Start cutting path id: path21)
(Change tool to Default tool)

G00 Z 7.0000
G00 X 56.5124 Y 22.2319

G01 Z 0.0000 F 100.0000(Penetrate)
G01 X 56.5124 Y 23.9347 Z 0.0000 F 400.0000
G01 X 57.1764 Y 23.9218 Z 0.0000
G01 X 57.8405 Y 23.9091 Z 0.0000
G01 X 57.8405 Y 22.2191 Z 0.0000
G01 X 57.8405 Y 20.5291 Z 0.0000
G01 X 57.1765 Y 20.5291 Z 0.0000
G01 X 56.5125 Y 20.5291 Z 0.0000
G01 X 56.5125 Y 22.2319 Z 0.0000
G01 X 56.5124 Y 22.2319 Z 0.0000
G00 Z 7.0000

(End cutting path id: path21)


(Start cutting path id: path21)
(Change tool to Default tool)

G00 Z 7.0000
G00 X 56.5125 Y 24.7914

G01 Z 0.0000 F 100.0000(Penetrate)
G01 X 56.5125 Y 25.2412 Z 0.0000 F 400.0000
G01 X 57.1765 Y 25.2412 Z 0.0000
G01 X 57.8404 Y 25.2412 Z 0.0000
G01 X 57.8404 Y 24.7914 Z 0.0000
G01 X 57.8404 Y 24.3416 Z 0.0000
G01 X 57.1765 Y 24.3416 Z 0.0000
G01 X 56.5125 Y 24.3416 Z 0.0000
G01 X 56.5125 Y 24.7914 Z 0.0000
G00 Z 7.0000

(End cutting path id: path21)



(Footer)
M5
G00 X0.0000 Y0.0000
M2
(Using default footer. To add your own footer create file "footer" in the output dir.)
(end)
%