%
(Header)
(Generated by gcodetools from Inkscape.)
(Using default header. To add your own header create file "header" in the output dir.)
M3
(Header end.)
G21 (All units in mm)

(Start cutting path id: path21)
(Change tool to Default tool)

G00 Z 7.0000
G00 X 49.7295 Y 13.0746

G01 Z 0.0000 F 100.0000(Penetrate)
G01 X 48.9410 Y 13.3714 Z 0.0000 F 400.0000
G01 X 48.3275 Y 13.8340 Z 0.0000
G01 X 47.9022 Y 14.3993 Z 0.0000
G01 X 47.7012 Y 15.0958 Z 0.0000
G01 X 47.6448 Y 15.4717 Z 0.0000
G01 X 48.7953 Y 15.4737 Z 0.0000
G01 X 49.9457 Y 15.4757 Z 0.0000
G01 X 50.0918 Y 15.1373 Z 0.0000
G01 X 50.4014 Y 14.6528 Z 0.0000
G01 X 50.8987 Y 14.4494 Z 0.0000
G01 X 51.4459 Y 14.5165 Z 0.0000
G01 X 51.8421 Y 14.7831 Z 0.0000
G01 X 51.8866 Y 15.1781 Z 0.0000
G01 X 51.4347 Y 15.5697 Z 0.0000
G01 X 50.3422 Y 15.8268 Z 0.0000
G01 X 49.1154 Y 16.1061 Z 0.0000
G01 X 48.3522 Y 16.5546 Z 0.0000
G01 X 47.9113 Y 17.1080 Z 0.0000
G01 X 47.7835 Y 17.8134 Z 0.0000
G01 X 47.8771 Y 18.4727 Z 0.0000
G01 X 48.1711 Y 19.0169 Z 0.0000
G01 X 48.6687 Y 19.4499 Z 0.0000
G01 X 49.3732 Y 19.7757 Z 0.0000
G01 X 50.0990 Y 19.9660 Z 0.0000
G01 X 50.9923 Y 20.0016 Z 0.0000
G01 X 52.2103 Y 19.8830 Z 0.0000
G01 X 53.1208 Y 19.5387 Z 0.0000
G01 X 53.7292 Y 18.9653 Z 0.0000
G01 X 54.0410 Y 18.1597 Z 0.0000
G01 X 54.0958 Y 17.8542 Z 0.0000
G01 X 52.9988 Y 17.8542 Z 0.0000
G01 X 51.9019 Y 17.8542 Z 0.0000
G01 X 51.7288 Y 18.1341 Z 0.0000
G01 X 51.2971 Y 18.4938 Z 0.0000
G01 X 50.7256 Y 18.5545 Z 0.0000
G01 X 50.3387 Y 18.3753 Z 0.0000
G01 X 50.1776 Y 18.0986 Z 0.0000
G01 X 50.2434 Y 17.9128 Z 0.0000
G01 X 50.4728 Y 17.7575 Z 0.0000
G01 X 51.6147 Y 17.4524 Z 0.0000
G01 X 53.0656 Y 17.0877 Z 0.0000
G01 X 53.6038 Y 16.7807 Z 0.0000
G01 X 53.9813 Y 16.3727 Z 0.0000
G01 X 54.2058 Y 15.8518 Z 0.0000
G01 X 54.2849 Y 15.2062 Z 0.0000
G01 X 54.2053 Y 14.5294 Z 0.0000
G01 X 53.9385 Y 13.9814 Z 0.0000
G01 X 53.4708 Y 13.5439 Z 0.0000
G01 X 52.7887 Y 13.1985 Z 0.0000
G01 X 51.2913 Y 12.9915 Z 0.0000
G01 X 49.7295 Y 13.0748 Z 0.0000
G01 X 49.7295 Y 13.0746 Z 0.0000
G00 Z 7.0000

(End cutting path id: path21)


(Start cutting path id: path21)
(Change tool to Default tool)

G00 Z 7.0000
G00 X 24.0465 Y 13.1629

G01 Z 0.0000 F 100.0000(Penetrate)
G01 X 23.3147 Y 13.4836 Z 0.0000 F 400.0000
G01 X 22.7968 Y 14.0027 Z 0.0000
G01 X 22.5313 Y 14.6625 Z 0.0000
G01 X 22.5565 Y 15.4050 Z 0.0000
G01 X 22.8369 Y 16.0462 Z 0.0000
G01 X 23.3548 Y 16.5443 Z 0.0000
G01 X 24.1438 Y 16.9215 Z 0.0000
G01 X 25.2372 Y 17.2004 Z 0.0000
G01 X 26.5162 Y 17.5364 Z 0.0000
G01 X 26.7387 Y 17.7391 Z 0.0000
G01 X 26.7943 Y 18.0239 Z 0.0000
G01 X 26.7377 Y 18.2469 Z 0.0000
G01 X 26.5295 Y 18.4251 Z 0.0000
G01 X 26.1355 Y 18.5661 Z 0.0000
G01 X 25.7481 Y 18.5279 Z 0.0000
G01 X 25.4043 Y 18.3229 Z 0.0000
G01 X 25.1413 Y 17.9634 Z 0.0000
G01 X 24.9694 Y 17.6095 Z 0.0000
G01 X 23.8450 Y 17.6095 Z 0.0000
G01 X 22.7206 Y 17.6095 Z 0.0000
G01 X 22.7211 Y 17.8743 Z 0.0000
G01 X 22.8689 Y 18.5811 Z 0.0000
G01 X 23.2871 Y 19.1869 Z 0.0000
G01 X 23.9416 Y 19.6573 Z 0.0000
G01 X 24.7982 Y 19.9582 Z 0.0000
G01 X 26.1742 Y 20.1054 Z 0.0000
G01 X 27.4228 Y 19.9600 Z 0.0000
G01 X 28.4269 Y 19.5509 Z 0.0000
G01 X 29.0693 Y 18.9070 Z 0.0000
G01 X 29.3180 Y 17.8451 Z 0.0000
G01 X 29.3986 Y 15.6892 Z 0.0000
G01 X 29.4858 Y 14.1636 Z 0.0000
G01 X 29.7348 Y 13.4176 Z 0.0000
G01 X 29.7908 Y 13.3094 Z 0.0000
G01 X 29.6578 Y 13.2465 Z 0.0000
G01 X 28.5664 Y 13.2105 Z 0.0000
G01 X 27.3239 Y 13.2111 Z 0.0000
G01 X 27.1411 Y 13.5312 Z 0.0000
G01 X 26.9584 Y 13.8514 Z 0.0000
G01 X 26.5446 Y 13.5729 Z 0.0000
G01 X 25.8311 Y 13.2168 Z 0.0000
G01 X 24.9054 Y 13.0978 Z 0.0000
G01 X 24.0465 Y 13.1629 Z 0.0000
G01 X 24.0465 Y 13.1629 Z 0.0000
G00 Z 7.0000

(End cutting path id: path21)


(Start cutting path id: path21)
(Change tool to Default tool)

G00 Z 7.0000
G00 X 26.3336 Y 14.8284

G01 Z 0.0000 F 100.0000(Penetrate)
G01 X 26.7132 Y 15.2624 Z 0.0000 F 400.0000
G01 X 26.9304 Y 15.9484 Z 0.0000
G01 X 26.9596 Y 16.1940 Z 0.0000
G01 X 26.8778 Y 16.2761 Z 0.0000
G01 X 25.9053 Y 15.9504 Z 0.0000
G01 X 25.0897 Y 15.5191 Z 0.0000
G01 X 24.9690 Y 15.2972 Z 0.0000
G01 X 25.0153 Y 15.0463 Z 0.0000
G01 X 25.2284 Y 14.7847 Z 0.0000
G01 X 25.5447 Y 14.6570 Z 0.0000
G01 X 26.3336 Y 14.8286 Z 0.0000
G01 X 26.3336 Y 14.8284 Z 0.0000
G00 Z 7.0000

(End cutting path id: path21)


(Start cutting path id: path21)
(Change tool to Default tool)

G00 Z 7.0000
G00 X 41.8672 Y 13.1766

G01 Z 0.0000 F 100.0000(Penetrate)
G01 X 41.0937 Y 13.5389 Z 0.0000 F 400.0000
G01 X 40.5771 Y 14.1182 Z 0.0000
G01 X 40.4262 Y 14.5208 Z 0.0000
G01 X 40.4207 Y 15.1004 Z 0.0000
G01 X 40.4899 Y 15.6665 Z 0.0000
G01 X 40.6708 Y 16.0373 Z 0.0000
G01 X 41.0371 Y 16.4304 Z 0.0000
G01 X 41.5596 Y 16.7443 Z 0.0000
G01 X 43.3219 Y 17.2475 Z 0.0000
G01 X 44.4421 Y 17.6175 Z 0.0000
G01 X 44.6295 Y 18.0204 Z 0.0000
G01 X 44.4419 Y 18.3695 Z 0.0000
G01 X 44.0090 Y 18.5537 Z 0.0000
G01 X 43.4603 Y 18.4616 Z 0.0000
G01 X 43.0850 Y 18.1431 Z 0.0000
G01 X 42.9263 Y 17.7357 Z 0.0000
G01 X 42.7154 Y 17.6320 Z 0.0000
G01 X 41.7449 Y 17.6095 Z 0.0000
G01 X 40.5636 Y 17.6095 Z 0.0000
G01 X 40.5636 Y 17.9286 Z 0.0000
G01 X 40.7065 Y 18.5513 Z 0.0000
G01 X 41.0283 Y 19.1186 Z 0.0000
G01 X 41.9728 Y 19.7356 Z 0.0000
G01 X 43.2919 Y 20.0628 Z 0.0000
G01 X 44.7162 Y 20.0676 Z 0.0000
G01 X 45.9759 Y 19.7173 Z 0.0000
G01 X 46.6273 Y 19.3128 Z 0.0000
G01 X 47.0040 Y 18.7693 Z 0.0000
G01 X 47.1784 Y 18.1314 Z 0.0000
G01 X 47.2507 Y 16.2244 Z 0.0000
G01 X 47.3518 Y 14.1419 Z 0.0000
G01 X 47.5815 Y 13.4176 Z 0.0000
G01 X 47.6333 Y 13.3091 Z 0.0000
G01 X 47.4984 Y 13.2461 Z 0.0000
G01 X 46.4018 Y 13.2098 Z 0.0000
G01 X 45.1518 Y 13.2098 Z 0.0000
G01 X 44.9982 Y 13.4950 Z 0.0000
G01 X 44.7762 Y 13.7618 Z 0.0000
G01 X 44.5956 Y 13.6971 Z 0.0000
G01 X 44.0866 Y 13.3893 Z 0.0000
G01 X 43.2951 Y 13.1357 Z 0.0000
G01 X 42.5585 Y 13.0585 Z 0.0000
G01 X 41.8672 Y 13.1767 Z 0.0000
G01 X 41.8672 Y 13.1766 Z 0.0000
G00 Z 7.0000

(End cutting path id: path21)


(Start cutting path id: path21)
(Change tool to Default tool)

G00 Z 7.0000
G00 X 44.1485 Y 14.8274

G01 Z 0.0000 F 100.0000(Penetrate)
G01 X 44.5243 Y 15.2294 Z 0.0000 F 400.0000
G01 X 44.7380 Y 15.7739 Z 0.0000
G01 X 44.7581 Y 16.2267 Z 0.0000
G01 X 43.9292 Y 16.0152 Z 0.0000
G01 X 42.9910 Y 15.5982 Z 0.0000
G01 X 42.8525 Y 15.2866 Z 0.0000
G01 X 42.9091 Y 14.9460 Z 0.0000
G01 X 43.2134 Y 14.7191 Z 0.0000
G01 X 43.6749 Y 14.6347 Z 0.0000
G01 X 44.1485 Y 14.8274 Z 0.0000
G01 X 44.1485 Y 14.8274 Z 0.0000
G00 Z 7.0000

(End cutting path id: path21)


(Start cutting path id: path21)
(Change tool to Default tool)

G00 Z 7.0000
G00 X 56.1253 Y 13.1775

G01 Z 0.0000 F 100.0000(Penetrate)
G01 X 55.4707 Y 13.4777 Z 0.0000 F 400.0000
G01 X 54.9491 Y 13.9742 Z 0.0000
G01 X 54.8114 Y 14.3026 Z 0.0000
G01 X 54.7809 Y 14.9942 Z 0.0000
G01 X 54.8149 Y 15.7158 Z 0.0000
G01 X 55.0101 Y 16.0894 Z 0.0000
G01 X 55.9507 Y 16.7852 Z 0.0000
G01 X 57.5842 Y 17.2415 Z 0.0000
G01 X 58.5351 Y 17.5024 Z 0.0000
G01 X 58.9307 Y 17.8731 Z 0.0000
G01 X 58.9122 Y 18.1867 Z 0.0000
G01 X 58.6786 Y 18.4281 Z 0.0000
G01 X 58.3080 Y 18.5503 Z 0.0000
G01 X 57.8785 Y 18.5062 Z 0.0000
G01 X 57.4473 Y 18.2153 Z 0.0000
G01 X 57.2659 Y 17.8022 Z 0.0000
G01 X 57.2659 Y 17.6095 Z 0.0000
G01 X 56.0333 Y 17.6095 Z 0.0000
G01 X 54.8007 Y 17.6095 Z 0.0000
G01 X 54.8573 Y 18.0372 Z 0.0000
G01 X 55.1171 Y 18.8179 Z 0.0000
G01 X 55.6678 Y 19.4137 Z 0.0000
G01 X 56.5125 Y 19.8270 Z 0.0000
G01 X 57.6545 Y 20.0603 Z 0.0000
G01 X 59.4783 Y 19.9885 Z 0.0000
G01 X 60.2287 Y 19.7424 Z 0.0000
G01 X 60.8334 Y 19.3645 Z 0.0000
G01 X 61.1732 Y 18.9863 Z 0.0000
G01 X 61.3763 Y 18.4344 Z 0.0000
G01 X 61.5380 Y 16.0207 Z 0.0000
G01 X 61.6257 Y 14.2738 Z 0.0000
G01 X 61.8682 Y 13.3524 Z 0.0000
G01 X 61.7305 Y 13.2316 Z 0.0000
G01 X 60.6954 Y 13.2098 Z 0.0000
G01 X 59.4633 Y 13.2098 Z 0.0000
G01 X 59.3019 Y 13.4746 Z 0.0000
G01 X 59.1056 Y 13.8209 Z 0.0000
G01 X 59.0035 Y 13.8129 Z 0.0000
G01 X 58.4883 Y 13.4553 Z 0.0000
G01 X 57.7346 Y 13.1696 Z 0.0000
G01 X 56.9104 Y 13.0599 Z 0.0000
G01 X 56.1253 Y 13.1776 Z 0.0000
G01 X 56.1253 Y 13.1775 Z 0.0000
G00 Z 7.0000

(End cutting path id: path21)


(Start cutting path id: path21)
(Change tool to Default tool)

G00 Z 7.0000
G00 X 58.4444 Y 14.8275

G01 Z 0.0000 F 100.0000(Penetrate)
G01 X 58.8408 Y 15.2325 Z 0.0000 F 400.0000
G01 X 59.0993 Y 16.2240 Z 0.0000
G01 X 57.4472 Y 15.7043 Z 0.0000
G01 X 57.1920 Y 15.4789 Z 0.0000
G01 X 57.1252 Y 15.2019 Z 0.0000
G01 X 57.2419 Y 14.9281 Z 0.0000
G01 X 57.5371 Y 14.7118 Z 0.0000
G01 X 57.9626 Y 14.6435 Z 0.0000
G01 X 58.4444 Y 14.8275 Z 0.0000
G01 X 58.4444 Y 14.8275 Z 0.0000
G00 Z 7.0000

(End cutting path id: path21)


(Start cutting path id: path21)
(Change tool to Default tool)

G00 Z 7.0000
G00 X 13.6769 Y 17.6910

G01 Z 0.0000 F 100.0000(Penetrate)
G01 X 13.6769 Y 22.1721 Z 0.0000 F 400.0000
G01 X 14.9805 Y 22.1721 Z 0.0000
G01 X 16.2841 Y 22.1721 Z 0.0000
G01 X 16.2841 Y 20.8733 Z 0.0000
G01 X 16.3505 Y 19.5334 Z 0.0000
G01 X 17.7550 Y 20.8322 Z 0.0000
G01 X 19.0931 Y 22.1721 Z 0.0000
G01 X 20.7531 Y 22.1721 Z 0.0000
G01 X 22.4130 Y 22.1721 Z 0.0000
G01 X 20.7214 Y 20.4182 Z 0.0000
G01 X 19.0298 Y 18.6644 Z 0.0000
G01 X 19.7919 Y 17.5463 Z 0.0000
G01 X 21.6373 Y 14.8605 Z 0.0000
G01 X 22.7206 Y 13.2513 Z 0.0000
G01 X 20.9882 Y 13.2098 Z 0.0000
G01 X 19.2558 Y 13.2098 Z 0.0000
G01 X 18.1976 Y 14.9184 Z 0.0000
G01 X 17.0713 Y 16.6294 Z 0.0000
G01 X 16.6468 Y 16.2448 Z 0.0000
G01 X 16.2905 Y 15.8578 Z 0.0000
G01 X 16.2873 Y 14.5338 Z 0.0000
G01 X 16.2841 Y 13.2098 Z 0.0000
G01 X 14.9805 Y 13.2098 Z 0.0000
G01 X 13.6769 Y 13.2098 Z 0.0000
G01 X 13.6769 Y 17.6910 Z 0.0000
G00 Z 7.0000

(End cutting path id: path21)


(Start cutting path id: path21)
(Change tool to Default tool)

G00 Z 7.0000
G00 X 31.4779 Y 13.3117

G01 Z 0.0000 F 100.0000(Penetrate)
G01 X 29.5165 Y 19.0760 Z 0.0000 F 400.0000
G01 X 29.3211 Y 19.6871 Z 0.0000
G01 X 30.6643 Y 19.6629 Z 0.0000
G01 X 32.0087 Y 19.5434 Z 0.0000
G01 X 32.9199 Y 16.7132 Z 0.0000
G01 X 32.9865 Y 16.8151 Z 0.0000
G01 X 33.4196 Y 18.2613 Z 0.0000
G01 X 33.8524 Y 19.6056 Z 0.0000
G01 X 35.0052 Y 19.6282 Z 0.0000
G01 X 36.1581 Y 19.6508 Z 0.0000
G01 X 36.2786 Y 19.2208 Z 0.0000
G01 X 36.9646 Y 16.8762 Z 0.0000
G01 X 37.0434 Y 16.6725 Z 0.0000
G01 X 37.1394 Y 16.9169 Z 0.0000
G01 X 37.6444 Y 18.4039 Z 0.0000
G01 X 38.0533 Y 19.6464 Z 0.0000
G01 X 39.3084 Y 19.6464 Z 0.0000
G01 X 40.5636 Y 19.5746 Z 0.0000
G01 X 39.7491 Y 16.9170 Z 0.0000
G01 X 39.0093 Y 14.5746 Z 0.0000
G01 X 38.5801 Y 13.2099 Z 0.0000
G01 X 37.3371 Y 13.2099 Z 0.0000
G01 X 36.0940 Y 13.2099 Z 0.0000
G01 X 35.9651 Y 13.6376 Z 0.0000
G01 X 35.0633 Y 16.2859 Z 0.0000
G01 X 34.9184 Y 16.0415 Z 0.0000
G01 X 34.5773 Y 14.8393 Z 0.0000
G01 X 34.2106 Y 13.5561 Z 0.0000
G01 X 34.1208 Y 13.2099 Z 0.0000
G01 X 32.8178 Y 13.2099 Z 0.0000
G01 X 31.4779 Y 13.3117 Z 0.0000
G01 X 31.4779 Y 13.3117 Z 0.0000
G00 Z 7.0000

(End cutting path id: path21)


(Start cutting path id: path21)
(Change tool to Default tool)

G00 Z 7.0000
G00 X 62.3174 Y 17.7317

G01 Z 0.0000 F 100.0000(Penetrate)
G01 X 62.3174 Y 22.2536 Z 0.0000 F 400.0000
G01 X 63.5802 Y 22.2536 Z 0.0000
G01 X 64.8431 Y 22.2536 Z 0.0000
G01 X 64.8431 Y 20.2710 Z 0.0000
G01 X 64.8914 Y 18.2401 Z 0.0000
G01 X 65.5450 Y 18.9191 Z 0.0000
G01 X 66.1503 Y 19.6464 Z 0.0000
G01 X 67.6694 Y 19.6464 Z 0.0000
G01 X 69.1262 Y 19.5853 Z 0.0000
G01 X 67.0589 Y 17.3240 Z 0.0000
G01 X 68.3422 Y 15.2482 Z 0.0000
G01 X 69.6501 Y 13.2435 Z 0.0000
G01 X 68.1632 Y 13.2134 Z 0.0000
G01 X 66.6763 Y 13.2174 Z 0.0000
G01 X 65.9837 Y 14.3134 Z 0.0000
G01 X 65.2228 Y 15.4098 Z 0.0000
G01 X 65.0014 Y 15.2268 Z 0.0000
G01 X 64.8760 Y 14.9092 Z 0.0000
G01 X 64.8458 Y 14.1269 Z 0.0000
G01 X 64.8431 Y 13.2103 Z 0.0000
G01 X 63.5802 Y 13.2103 Z 0.0000
G01 X 62.3174 Y 13.2103 Z 0.0000
G01 X 62.3174 Y 17.7317 Z 0.0000
G00 Z 7.0000

(End cutting path id: path21)


(Start cutting path id: path21)
(Change tool to Default tool)

G00 Z 7.0000
G00 X 70.0573 Y 16.4485

G01 Z 0.0000 F 100.0000(Penetrate)
G01 X 70.0573 Y 19.6871 Z 0.0000 F 400.0000
G01 X 71.3202 Y 19.6627 Z 0.0000
G01 X 72.5832 Y 19.6384 Z 0.0000
G01 X 72.5832 Y 16.4241 Z 0.0000
G01 X 72.5832 Y 13.2099 Z 0.0000
G01 X 71.3204 Y 13.2099 Z 0.0000
G01 X 70.0575 Y 13.2099 Z 0.0000
G01 X 70.0574 Y 16.4485 Z 0.0000
G01 X 70.0573 Y 16.4485 Z 0.0000
G00 Z 7.0000

(End cutting path id: path21)


(Start cutting path id: path21)
(Change tool to Default tool)

G00 Z 7.0000
G00 X 70.0575 Y 21.3166

G01 Z 0.0000 F 100.0000(Penetrate)
G01 X 70.0575 Y 22.1721 Z 0.0000 F 400.0000
G01 X 71.3203 Y 22.1721 Z 0.0000
G01 X 72.5832 Y 22.1721 Z 0.0000
G01 X 72.5832 Y 21.3166 Z 0.0000
G01 X 72.5832 Y 20.4611 Z 0.0000
G01 X 71.3203 Y 20.4611 Z 0.0000
G01 X 70.0575 Y 20.4611 Z 0.0000
G01 X 70.0575 Y 21.3166 Z 0.0000
G00 Z 7.0000

(End cutting path id: path21)


(Start cutting path id: path21)
(Change tool to Default tool)

G00 Z 7.0000
G00 X 13.6769 Y 37.5294

G01 Z 0.0000 F 100.0000(Penetrate)
G01 X 13.6769 Y 47.2649 Z 0.0000 F 400.0000
G01 X 22.4755 Y 47.2860 Z 0.0000
G01 X 31.2741 Y 47.3071 Z 0.0000
G01 X 31.2951 Y 42.6630 Z 0.0000
G01 X 31.3162 Y 38.0189 Z 0.0000
G01 X 32.6605 Y 38.0189 Z 0.0000
G01 X 36.4741 Y 38.1840 Z 0.0000
G01 X 40.1593 Y 38.6490 Z 0.0000
G01 X 43.4476 Y 39.3682 Z 0.0000
G01 X 46.0709 Y 40.2961 Z 0.0000
G01 X 47.5566 Y 41.0957 Z 0.0000
G01 X 48.8589 Y 42.0140 Z 0.0000
G01 X 49.8783 Y 42.9707 Z 0.0000
G01 X 50.5152 Y 43.8851 Z 0.0000
G01 X 50.7550 Y 44.8795 Z 0.0000
G01 X 50.5553 Y 45.8433 Z 0.0000
G01 X 49.9174 Y 46.6524 Z 0.0000
G01 X 49.2471 Y 47.1971 Z 0.0000
G01 X 49.1996 Y 47.2257 Z 0.0000
G01 X 49.5297 Y 47.2488 Z 0.0000
G01 X 51.4512 Y 47.2796 Z 0.0000
G01 X 61.2378 Y 47.2861 Z 0.0000
G01 X 72.5832 Y 47.2652 Z 0.0000
G01 X 72.5832 Y 47.0789 Z 0.0000
G01 X 71.9370 Y 44.9437 Z 0.0000
G01 X 71.0333 Y 43.4397 Z 0.0000
G01 X 69.7462 Y 41.9881 Z 0.0000
G01 X 68.1729 Y 40.6825 Z 0.0000
G01 X 66.4105 Y 39.6166 Z 0.0000
G01 X 63.3382 Y 38.4041 Z 0.0000
G01 X 59.8120 Y 37.6101 Z 0.0000
G01 X 59.4773 Y 37.4899 Z 0.0000
G01 X 59.5943 Y 37.4079 Z 0.0000
G01 X 63.4311 Y 36.4825 Z 0.0000
G01 X 66.2790 Y 35.3463 Z 0.0000
G01 X 68.6043 Y 34.0320 Z 0.0000
G01 X 70.4246 Y 32.5278 Z 0.0000
G01 X 71.7570 Y 30.8220 Z 0.0000
G01 X 72.2647 Y 29.6254 Z 0.0000
G01 X 72.5581 Y 28.3438 Z 0.0000
G01 X 72.6068 Y 27.7938 Z 0.0000
G01 X 60.5571 Y 27.7949 Z 0.0000
G01 X 51.4669 Y 27.8161 Z 0.0000
G01 X 48.6296 Y 27.8795 Z 0.0000
G01 X 49.1592 Y 28.1741 Z 0.0000
G01 X 50.5314 Y 29.1723 Z 0.0000
G01 X 51.1275 Y 29.8792 Z 0.0000
G01 X 51.4569 Y 30.6311 Z 0.0000
G01 X 51.5144 Y 31.4080 Z 0.0000
G01 X 51.2950 Y 32.1897 Z 0.0000
G01 X 50.5185 Y 33.1567 Z 0.0000
G01 X 49.3425 Y 34.1008 Z 0.0000
G01 X 47.6815 Y 34.9266 Z 0.0000
G01 X 45.4578 Y 35.7652 Z 0.0000
G01 X 43.0326 Y 36.4946 Z 0.0000
G01 X 40.7672 Y 36.9931 Z 0.0000
G01 X 37.1254 Y 37.4062 Z 0.0000
G01 X 32.8642 Y 37.5928 Z 0.0000
G01 X 31.3162 Y 37.6112 Z 0.0000
G01 X 31.2952 Y 32.7024 Z 0.0000
G01 X 31.2742 Y 27.7935 Z 0.0000
G01 X 22.4755 Y 27.7935 Z 0.0000
G01 X 13.6769 Y 27.7935 Z 0.0000
G01 X 13.6769 Y 37.5294 Z 0.0000
G00 Z 7.0000

(End cutting path id: path21)



(Footer)
M5
G00 X0.0000 Y0.0000
M2
(Using default footer. To add your own footer create file "footer" in the output dir.)
(end)
%